(Generated by PartKam Version 0.05)

G20 G90 G40

(cut innards)
G0 Z1
T0 M6
G17
M3
G0 X4.1497 Y0.6283
G1 Z-0.1 F5
G1 X4.7903 Y0.6292 F15
G3 X4.8403 Y0.6792 I-0.0001 J0.05
G1 X4.8403 Y0.6799
G3 X4.8332 Y0.7601 I-0.54 J-0.0072
G3 X4.8157 Y0.8285 I-0.3948 J-0.0647
G3 X4.7854 Y0.8931 I-0.3395 J-0.1197
G3 X4.7442 Y0.9483 I-0.2872 J-0.1712
G3 X4.6924 Y0.9941 I-0.2366 J-0.2156
G3 X4.6331 Y1.0267 I-0.175 J-0.2476
G3 X4.5686 Y1.0457 I-0.1224 J-0.2965
G3 X4.4944 Y1.0525 I-0.0743 J-0.4043
G3 X4.4124 Y1.0461 I0 J-0.5292
G3 X4.3422 Y1.0284 I0.0613 J-0.3908
G3 X4.2761 Y0.9972 I0.1194 J-0.3389
G3 X4.2188 Y0.9539 I0.1767 J-0.2932
G3 X4.1724 Y0.8998 I0.2359 J-0.2494
G3 X4.1365 Y0.8351 I0.3093 J-0.2141
G3 X4.1133 Y0.7656 I0.3868 J-0.1674
G3 X4.0998 Y0.6827 I0.5601 J-0.1338
G3 X4.0996 Y0.6783 I0.0498 J-0.0044
G3 X4.1497 Y0.6283 I0.05 J0
G1 Z-0.2 F5
G1 X4.7903 Y0.6292 F15
G3 X4.8403 Y0.6792 I-0.0001 J0.05
G1 X4.8403 Y0.6799
G3 X4.8332 Y0.7601 I-0.54 J-0.0072
G3 X4.8157 Y0.8285 I-0.3948 J-0.0647
G3 X4.7854 Y0.8931 I-0.3395 J-0.1197
G3 X4.7442 Y0.9483 I-0.2872 J-0.1712
G3 X4.6924 Y0.9941 I-0.2366 J-0.2156
G3 X4.6331 Y1.0267 I-0.175 J-0.2476
G3 X4.5686 Y1.0457 I-0.1224 J-0.2965
G3 X4.4944 Y1.0525 I-0.0743 J-0.4043
G3 X4.4124 Y1.0461 I0 J-0.5292
G3 X4.3422 Y1.0284 I0.0613 J-0.3908
G3 X4.2761 Y0.9972 I0.1194 J-0.3389
G3 X4.2188 Y0.9539 I0.1767 J-0.2932
G3 X4.1724 Y0.8998 I0.2359 J-0.2494
G3 X4.1365 Y0.8351 I0.3093 J-0.2141
G3 X4.1133 Y0.7656 I0.3868 J-0.1674
G3 X4.0998 Y0.6827 I0.5601 J-0.1338
G3 X4.0996 Y0.6783 I0.0498 J-0.0044
G3 X4.1497 Y0.6283 I0.05 J0
G1 Z-0.3 F5
G1 X4.7903 Y0.6292 F15
G3 X4.8403 Y0.6792 I-0.0001 J0.05
G1 X4.8403 Y0.6799
G3 X4.8332 Y0.7601 I-0.54 J-0.0072
G3 X4.8157 Y0.8285 I-0.3948 J-0.0647
G3 X4.7854 Y0.8931 I-0.3395 J-0.1197
G3 X4.7442 Y0.9483 I-0.2872 J-0.1712
G3 X4.6924 Y0.9941 I-0.2366 J-0.2156
G3 X4.6331 Y1.0267 I-0.175 J-0.2476
G3 X4.5686 Y1.0457 I-0.1224 J-0.2965
G3 X4.4944 Y1.0525 I-0.0743 J-0.4043
G3 X4.4124 Y1.0461 I0 J-0.5292
G3 X4.3422 Y1.0284 I0.0613 J-0.3908
G3 X4.2761 Y0.9972 I0.1194 J-0.3389
G3 X4.2188 Y0.9539 I0.1767 J-0.2932
G3 X4.1724 Y0.8998 I0.2359 J-0.2494
G3 X4.1365 Y0.8351 I0.3093 J-0.2141
G3 X4.1133 Y0.7656 I0.3868 J-0.1674
G3 X4.0998 Y0.6827 I0.5601 J-0.1338
G3 X4.0996 Y0.6783 I0.0498 J-0.0044
G3 X4.1497 Y0.6283 I0.05 J0
G1 Z-0.4 F5
G1 X4.7903 Y0.6292 F15
G3 X4.8403 Y0.6792 I-0.0001 J0.05
G1 X4.8403 Y0.6799
G3 X4.8332 Y0.7601 I-0.54 J-0.0072
G3 X4.8157 Y0.8285 I-0.3948 J-0.0647
G3 X4.7854 Y0.8931 I-0.3395 J-0.1197
G3 X4.7442 Y0.9483 I-0.2872 J-0.1712
G3 X4.6924 Y0.9941 I-0.2366 J-0.2156
G3 X4.6331 Y1.0267 I-0.175 J-0.2476
G3 X4.5686 Y1.0457 I-0.1224 J-0.2965
G3 X4.4944 Y1.0525 I-0.0743 J-0.4043
G3 X4.4124 Y1.0461 I0 J-0.5292
G3 X4.3422 Y1.0284 I0.0613 J-0.3908
G3 X4.2761 Y0.9972 I0.1194 J-0.3389
G3 X4.2188 Y0.9539 I0.1767 J-0.2932
G3 X4.1724 Y0.8998 I0.2359 J-0.2494
G3 X4.1365 Y0.8351 I0.3093 J-0.2141
G3 X4.1133 Y0.7656 I0.3868 J-0.1674
G3 X4.0998 Y0.6827 I0.5601 J-0.1338
G3 X4.0996 Y0.6783 I0.0498 J-0.0044
G3 X4.1497 Y0.6283 I0.05 J0
G1 Z-0.5 F5
G1 X4.7903 Y0.6292 F15
G3 X4.8403 Y0.6792 I-0.0001 J0.05
G1 X4.8403 Y0.6799
G3 X4.8332 Y0.7601 I-0.54 J-0.0072
G3 X4.8157 Y0.8285 I-0.3948 J-0.0647
G3 X4.7854 Y0.8931 I-0.3395 J-0.1197
G3 X4.7442 Y0.9483 I-0.2872 J-0.1712
G3 X4.6924 Y0.9941 I-0.2366 J-0.2156
G3 X4.6331 Y1.0267 I-0.175 J-0.2476
G3 X4.5686 Y1.0457 I-0.1224 J-0.2965
G3 X4.4944 Y1.0525 I-0.0743 J-0.4043
G3 X4.4124 Y1.0461 I0 J-0.5292
G3 X4.3422 Y1.0284 I0.0613 J-0.3908
G3 X4.2761 Y0.9972 I0.1194 J-0.3389
G3 X4.2188 Y0.9539 I0.1767 J-0.2932
G3 X4.1724 Y0.8998 I0.2359 J-0.2494
G3 X4.1365 Y0.8351 I0.3093 J-0.2141
G3 X4.1133 Y0.7656 I0.3868 J-0.1674
G3 X4.0998 Y0.6827 I0.5601 J-0.1338
G3 X4.0996 Y0.6783 I0.0498 J-0.0044
G3 X4.1497 Y0.6283 I0.05 J0
G1 Z-0.6 F5
G1 X4.7903 Y0.6292 F15
G3 X4.8403 Y0.6792 I-0.0001 J0.05
G1 X4.8403 Y0.6799
G3 X4.8332 Y0.7601 I-0.54 J-0.0072
G3 X4.8157 Y0.8285 I-0.3948 J-0.0647
G3 X4.7854 Y0.8931 I-0.3395 J-0.1197
G3 X4.7442 Y0.9483 I-0.2872 J-0.1712
G3 X4.6924 Y0.9941 I-0.2366 J-0.2156
G3 X4.6331 Y1.0267 I-0.175 J-0.2476
G3 X4.5686 Y1.0457 I-0.1224 J-0.2965
G3 X4.4944 Y1.0525 I-0.0743 J-0.4043
G3 X4.4124 Y1.0461 I0 J-0.5292
G3 X4.3422 Y1.0284 I0.0613 J-0.3908
G3 X4.2761 Y0.9972 I0.1194 J-0.3389
G3 X4.2188 Y0.9539 I0.1767 J-0.2932
G3 X4.1724 Y0.8998 I0.2359 J-0.2494
G3 X4.1365 Y0.8351 I0.3093 J-0.2141
G3 X4.1133 Y0.7656 I0.3868 J-0.1674
G3 X4.0998 Y0.6827 I0.5601 J-0.1338
G3 X4.0996 Y0.6783 I0.0498 J-0.0044
G3 X4.1497 Y0.6283 I0.05 J0
G1 Z-0.7 F5
G1 X4.7903 Y0.6292 F15
G3 X4.8403 Y0.6792 I-0.0001 J0.05
G1 X4.8403 Y0.6799
G3 X4.8332 Y0.7601 I-0.54 J-0.0072
G3 X4.8157 Y0.8285 I-0.3948 J-0.0647
G3 X4.7854 Y0.8931 I-0.3395 J-0.1197
G3 X4.7442 Y0.9483 I-0.2872 J-0.1712
G3 X4.6924 Y0.9941 I-0.2366 J-0.2156
G3 X4.6331 Y1.0267 I-0.175 J-0.2476
G3 X4.5686 Y1.0457 I-0.1224 J-0.2965
G3 X4.4944 Y1.0525 I-0.0743 J-0.4043
G3 X4.4124 Y1.0461 I0 J-0.5292
G3 X4.3422 Y1.0284 I0.0613 J-0.3908
G3 X4.2761 Y0.9972 I0.1194 J-0.3389
G3 X4.2188 Y0.9539 I0.1767 J-0.2932
G3 X4.1724 Y0.8998 I0.2359 J-0.2494
G3 X4.1365 Y0.8351 I0.3093 J-0.2141
G3 X4.1133 Y0.7656 I0.3868 J-0.1674
G3 X4.0998 Y0.6827 I0.5601 J-0.1338
G3 X4.0996 Y0.6783 I0.0498 J-0.0044
G3 X4.1497 Y0.6283 I0.05 J0
G1 Z-0.8 F5
G1 X4.7903 Y0.6292 F15
G3 X4.8403 Y0.6792 I-0.0001 J0.05
G1 X4.8403 Y0.6799
G3 X4.8332 Y0.7601 I-0.54 J-0.0072
G3 X4.8157 Y0.8285 I-0.3948 J-0.0647
G3 X4.7854 Y0.8931 I-0.3395 J-0.1197
G3 X4.7442 Y0.9483 I-0.2872 J-0.1712
G3 X4.6924 Y0.9941 I-0.2366 J-0.2156
G3 X4.6331 Y1.0267 I-0.175 J-0.2476
G3 X4.5686 Y1.0457 I-0.1224 J-0.2965
G3 X4.4944 Y1.0525 I-0.0743 J-0.4043
G3 X4.4124 Y1.0461 I0 J-0.5292
G3 X4.3422 Y1.0284 I0.0613 J-0.3908
G3 X4.2761 Y0.9972 I0.1194 J-0.3389
G3 X4.2188 Y0.9539 I0.1767 J-0.2932
G3 X4.1724 Y0.8998 I0.2359 J-0.2494
G3 X4.1365 Y0.8351 I0.3093 J-0.2141
G3 X4.1133 Y0.7656 I0.3868 J-0.1674
G3 X4.0998 Y0.6827 I0.5601 J-0.1338
G3 X4.0996 Y0.6783 I0.0498 J-0.0044
G3 X4.1497 Y0.6283 I0.05 J0
G1 Z-0.9 F5
G1 X4.7903 Y0.6292 F15
G3 X4.8403 Y0.6792 I-0.0001 J0.05
G1 X4.8403 Y0.6799
G3 X4.8332 Y0.7601 I-0.54 J-0.0072
G3 X4.8157 Y0.8285 I-0.3948 J-0.0647
G3 X4.7854 Y0.8931 I-0.3395 J-0.1197
G3 X4.7442 Y0.9483 I-0.2872 J-0.1712
G3 X4.6924 Y0.9941 I-0.2366 J-0.2156
G3 X4.6331 Y1.0267 I-0.175 J-0.2476
G3 X4.5686 Y1.0457 I-0.1224 J-0.2965
G3 X4.4944 Y1.0525 I-0.0743 J-0.4043
G3 X4.4124 Y1.0461 I0 J-0.5292
G3 X4.3422 Y1.0284 I0.0613 J-0.3908
G3 X4.2761 Y0.9972 I0.1194 J-0.3389
G3 X4.2188 Y0.9539 I0.1767 J-0.2932
G3 X4.1724 Y0.8998 I0.2359 J-0.2494
G3 X4.1365 Y0.8351 I0.3093 J-0.2141
G3 X4.1133 Y0.7656 I0.3868 J-0.1674
G3 X4.0998 Y0.6827 I0.5601 J-0.1338
G3 X4.0996 Y0.6783 I0.0498 J-0.0044
G3 X4.1497 Y0.6283 I0.05 J0
G1 Z-1 F5
G1 X4.7903 Y0.6292 F15
G3 X4.8403 Y0.6792 I-0.0001 J0.05
G1 X4.8403 Y0.6799
G3 X4.8332 Y0.7601 I-0.54 J-0.0072
G3 X4.8157 Y0.8285 I-0.3948 J-0.0647
G3 X4.7854 Y0.8931 I-0.3395 J-0.1197
G3 X4.7442 Y0.9483 I-0.2872 J-0.1712
G3 X4.6924 Y0.9941 I-0.2366 J-0.2156
G3 X4.6331 Y1.0267 I-0.175 J-0.2476
G3 X4.5686 Y1.0457 I-0.1224 J-0.2965
G3 X4.4944 Y1.0525 I-0.0743 J-0.4043
G3 X4.4124 Y1.0461 I0 J-0.5292
G3 X4.3422 Y1.0284 I0.0613 J-0.3908
G3 X4.2761 Y0.9972 I0.1194 J-0.3389
G3 X4.2188 Y0.9539 I0.1767 J-0.2932
G3 X4.1724 Y0.8998 I0.2359 J-0.2494
G3 X4.1365 Y0.8351 I0.3093 J-0.2141
G3 X4.1133 Y0.7656 I0.3868 J-0.1674
G3 X4.0998 Y0.6827 I0.5601 J-0.1338
G3 X4.0996 Y0.6783 I0.0498 J-0.0044
G3 X4.1497 Y0.6283 I0.05 J0
G1 Z-1.1 F5
G1 X4.7903 Y0.6292 F15
G3 X4.8403 Y0.6792 I-0.0001 J0.05
G1 X4.8403 Y0.6799
G3 X4.8332 Y0.7601 I-0.54 J-0.0072
G3 X4.8157 Y0.8285 I-0.3948 J-0.0647
G3 X4.7854 Y0.8931 I-0.3395 J-0.1197
G3 X4.7442 Y0.9483 I-0.2872 J-0.1712
G3 X4.6924 Y0.9941 I-0.2366 J-0.2156
G3 X4.6331 Y1.0267 I-0.175 J-0.2476
G3 X4.5686 Y1.0457 I-0.1224 J-0.2965
G3 X4.4944 Y1.0525 I-0.0743 J-0.4043
G3 X4.4124 Y1.0461 I0 J-0.5292
G3 X4.3422 Y1.0284 I0.0613 J-0.3908
G3 X4.2761 Y0.9972 I0.1194 J-0.3389
G3 X4.2188 Y0.9539 I0.1767 J-0.2932
G3 X4.1724 Y0.8998 I0.2359 J-0.2494
G3 X4.1365 Y0.8351 I0.3093 J-0.2141
G3 X4.1133 Y0.7656 I0.3868 J-0.1674
G3 X4.0998 Y0.6827 I0.5601 J-0.1338
G3 X4.0996 Y0.6783 I0.0498 J-0.0044
G3 X4.1497 Y0.6283 I0.05 J0
G1 Z-1.2 F5
G1 X4.7903 Y0.6292 F15
G3 X4.8403 Y0.6792 I-0.0001 J0.05
G1 X4.8403 Y0.6799
G3 X4.8332 Y0.7601 I-0.54 J-0.0072
G3 X4.8157 Y0.8285 I-0.3948 J-0.0647
G3 X4.7854 Y0.8931 I-0.3395 J-0.1197
G3 X4.7442 Y0.9483 I-0.2872 J-0.1712
G3 X4.6924 Y0.9941 I-0.2366 J-0.2156
G3 X4.6331 Y1.0267 I-0.175 J-0.2476
G3 X4.5686 Y1.0457 I-0.1224 J-0.2965
G3 X4.4944 Y1.0525 I-0.0743 J-0.4043
G3 X4.4124 Y1.0461 I0 J-0.5292
G3 X4.3422 Y1.0284 I0.0613 J-0.3908
G3 X4.2761 Y0.9972 I0.1194 J-0.3389
G3 X4.2188 Y0.9539 I0.1767 J-0.2932
G3 X4.1724 Y0.8998 I0.2359 J-0.2494
G3 X4.1365 Y0.8351 I0.3093 J-0.2141
G3 X4.1133 Y0.7656 I0.3868 J-0.1674
G3 X4.0998 Y0.6827 I0.5601 J-0.1338
G3 X4.0996 Y0.6783 I0.0498 J-0.0044
G3 X4.1497 Y0.6283 I0.05 J0
G1 Z-1.3 F5
G1 X4.7903 Y0.6292 F15
G3 X4.8403 Y0.6792 I-0.0001 J0.05
G1 X4.8403 Y0.6799
G3 X4.8332 Y0.7601 I-0.54 J-0.0072
G3 X4.8157 Y0.8285 I-0.3948 J-0.0647
G3 X4.7854 Y0.8931 I-0.3395 J-0.1197
G3 X4.7442 Y0.9483 I-0.2872 J-0.1712
G3 X4.6924 Y0.9941 I-0.2366 J-0.2156
G3 X4.6331 Y1.0267 I-0.175 J-0.2476
G3 X4.5686 Y1.0457 I-0.1224 J-0.2965
G3 X4.4944 Y1.0525 I-0.0743 J-0.4043
G3 X4.4124 Y1.0461 I0 J-0.5292
G3 X4.3422 Y1.0284 I0.0613 J-0.3908
G3 X4.2761 Y0.9972 I0.1194 J-0.3389
G3 X4.2188 Y0.9539 I0.1767 J-0.2932
G3 X4.1724 Y0.8998 I0.2359 J-0.2494
G3 X4.1365 Y0.8351 I0.3093 J-0.2141
G3 X4.1133 Y0.7656 I0.3868 J-0.1674
G3 X4.0998 Y0.6827 I0.5601 J-0.1338
G3 X4.0996 Y0.6783 I0.0498 J-0.0044
G3 X4.1497 Y0.6283 I0.05 J0
G1 Z-1.4 F5
G1 X4.7903 Y0.6292 F15
G3 X4.8403 Y0.6792 I-0.0001 J0.05
G1 X4.8403 Y0.6799
G3 X4.8332 Y0.7601 I-0.54 J-0.0072
G3 X4.8157 Y0.8285 I-0.3948 J-0.0647
G3 X4.7854 Y0.8931 I-0.3395 J-0.1197
G3 X4.7442 Y0.9483 I-0.2872 J-0.1712
G3 X4.6924 Y0.9941 I-0.2366 J-0.2156
G3 X4.6331 Y1.0267 I-0.175 J-0.2476
G3 X4.5686 Y1.0457 I-0.1224 J-0.2965
G3 X4.4944 Y1.0525 I-0.0743 J-0.4043
G3 X4.4124 Y1.0461 I0 J-0.5292
G3 X4.3422 Y1.0284 I0.0613 J-0.3908
G3 X4.2761 Y0.9972 I0.1194 J-0.3389
G3 X4.2188 Y0.9539 I0.1767 J-0.2932
G3 X4.1724 Y0.8998 I0.2359 J-0.2494
G3 X4.1365 Y0.8351 I0.3093 J-0.2141
G3 X4.1133 Y0.7656 I0.3868 J-0.1674
G3 X4.0998 Y0.6827 I0.5601 J-0.1338
G3 X4.0996 Y0.6783 I0.0498 J-0.0044
G3 X4.1497 Y0.6283 I0.05 J0
G1 Z-1.5 F5
G1 X4.7903 Y0.6292 F15
G3 X4.8403 Y0.6792 I-0.0001 J0.05
G1 X4.8403 Y0.6799
G3 X4.8332 Y0.7601 I-0.54 J-0.0072
G3 X4.8157 Y0.8285 I-0.3948 J-0.0647
G3 X4.7854 Y0.8931 I-0.3395 J-0.1197
G3 X4.7442 Y0.9483 I-0.2872 J-0.1712
G3 X4.6924 Y0.9941 I-0.2366 J-0.2156
G3 X4.6331 Y1.0267 I-0.175 J-0.2476
G3 X4.5686 Y1.0457 I-0.1224 J-0.2965
G3 X4.4944 Y1.0525 I-0.0743 J-0.4043
G3 X4.4124 Y1.0461 I0 J-0.5292
G3 X4.3422 Y1.0284 I0.0613 J-0.3908
G3 X4.2761 Y0.9972 I0.1194 J-0.3389
G3 X4.2188 Y0.9539 I0.1767 J-0.2932
G3 X4.1724 Y0.8998 I0.2359 J-0.2494
G3 X4.1365 Y0.8351 I0.3093 J-0.2141
G3 X4.1133 Y0.7656 I0.3868 J-0.1674
G3 X4.0998 Y0.6827 I0.5601 J-0.1338
G3 X4.0996 Y0.6783 I0.0498 J-0.0044
G3 X4.1497 Y0.6283 I0.05 J0
G0 Z1
G0 X0.1699 Y0.731
G1 Z-0.1 F5
G1 X0.1699 Y0.1968 F15
G3 X0.2199 Y0.1468 I0.05 J0
G1 X0.5363 Y0.1468
G3 X0.6212 Y0.1518 I0 J0.7228
G3 X0.6882 Y0.165 I-0.0522 J0.4421
G3 X0.7533 Y0.1903 I-0.095 J0.3415
G3 X0.8043 Y0.2244 I-0.1151 J0.2274
G3 X0.8461 Y0.2708 I-0.1599 J0.1857
G3 X0.8763 Y0.3282 I-0.2228 J0.1539
G3 X0.8928 Y0.3895 I-0.2926 J0.1117
G3 X0.8988 Y0.4644 I-0.4599 J0.0749
G3 X0.8928 Y0.5398 I-0.4698 J0
G3 X0.8762 Y0.601 I-0.3056 J-0.0497
G3 X0.8458 Y0.6582 I-0.2473 J-0.0949
G3 X0.804 Y0.7037 I-0.1938 J-0.1359
G3 X0.7533 Y0.7376 I-0.1658 J-0.1935
G3 X0.6882 Y0.7628 I-0.1601 J-0.3163
G3 X0.6212 Y0.776 I-0.1192 J-0.4289
G3 X0.5363 Y0.781 I-0.0848 J-0.7178
G1 X0.2199 Y0.781
G3 X0.1699 Y0.731 I0 J-0.05
G1 Z-0.2 F5
G1 X0.1699 Y0.1968 F15
G3 X0.2199 Y0.1468 I0.05 J0
G1 X0.5363 Y0.1468
G3 X0.6212 Y0.1518 I0 J0.7228
G3 X0.6882 Y0.165 I-0.0522 J0.4421
G3 X0.7533 Y0.1903 I-0.095 J0.3415
G3 X0.8043 Y0.2244 I-0.1151 J0.2274
G3 X0.8461 Y0.2708 I-0.1599 J0.1857
G3 X0.8763 Y0.3282 I-0.2228 J0.1539
G3 X0.8928 Y0.3895 I-0.2926 J0.1117
G3 X0.8988 Y0.4644 I-0.4599 J0.0749
G3 X0.8928 Y0.5398 I-0.4698 J0
G3 X0.8762 Y0.601 I-0.3056 J-0.0497
G3 X0.8458 Y0.6582 I-0.2473 J-0.0949
G3 X0.804 Y0.7037 I-0.1938 J-0.1359
G3 X0.7533 Y0.7376 I-0.1658 J-0.1935
G3 X0.6882 Y0.7628 I-0.1601 J-0.3163
G3 X0.6212 Y0.776 I-0.1192 J-0.4289
G3 X0.5363 Y0.781 I-0.0848 J-0.7178
G1 X0.2199 Y0.781
G3 X0.1699 Y0.731 I0 J-0.05
G1 Z-0.3 F5
G1 X0.1699 Y0.1968 F15
G3 X0.2199 Y0.1468 I0.05 J0
G1 X0.5363 Y0.1468
G3 X0.6212 Y0.1518 I0 J0.7228
G3 X0.6882 Y0.165 I-0.0522 J0.4421
G3 X0.7533 Y0.1903 I-0.095 J0.3415
G3 X0.8043 Y0.2244 I-0.1151 J0.2274
G3 X0.8461 Y0.2708 I-0.1599 J0.1857
G3 X0.8763 Y0.3282 I-0.2228 J0.1539
G3 X0.8928 Y0.3895 I-0.2926 J0.1117
G3 X0.8988 Y0.4644 I-0.4599 J0.0749
G3 X0.8928 Y0.5398 I-0.4698 J0
G3 X0.8762 Y0.601 I-0.3056 J-0.0497
G3 X0.8458 Y0.6582 I-0.2473 J-0.0949
G3 X0.804 Y0.7037 I-0.1938 J-0.1359
G3 X0.7533 Y0.7376 I-0.1658 J-0.1935
G3 X0.6882 Y0.7628 I-0.1601 J-0.3163
G3 X0.6212 Y0.776 I-0.1192 J-0.4289
G3 X0.5363 Y0.781 I-0.0848 J-0.7178
G1 X0.2199 Y0.781
G3 X0.1699 Y0.731 I0 J-0.05
G1 Z-0.4 F5
G1 X0.1699 Y0.1968 F15
G3 X0.2199 Y0.1468 I0.05 J0
G1 X0.5363 Y0.1468
G3 X0.6212 Y0.1518 I0 J0.7228
G3 X0.6882 Y0.165 I-0.0522 J0.4421
G3 X0.7533 Y0.1903 I-0.095 J0.3415
G3 X0.8043 Y0.2244 I-0.1151 J0.2274
G3 X0.8461 Y0.2708 I-0.1599 J0.1857
G3 X0.8763 Y0.3282 I-0.2228 J0.1539
G3 X0.8928 Y0.3895 I-0.2926 J0.1117
G3 X0.8988 Y0.4644 I-0.4599 J0.0749
G3 X0.8928 Y0.5398 I-0.4698 J0
G3 X0.8762 Y0.601 I-0.3056 J-0.0497
G3 X0.8458 Y0.6582 I-0.2473 J-0.0949
G3 X0.804 Y0.7037 I-0.1938 J-0.1359
G3 X0.7533 Y0.7376 I-0.1658 J-0.1935
G3 X0.6882 Y0.7628 I-0.1601 J-0.3163
G3 X0.6212 Y0.776 I-0.1192 J-0.4289
G3 X0.5363 Y0.781 I-0.0848 J-0.7178
G1 X0.2199 Y0.781
G3 X0.1699 Y0.731 I0 J-0.05
G1 Z-0.5 F5
G1 X0.1699 Y0.1968 F15
G3 X0.2199 Y0.1468 I0.05 J0
G1 X0.5363 Y0.1468
G3 X0.6212 Y0.1518 I0 J0.7228
G3 X0.6882 Y0.165 I-0.0522 J0.4421
G3 X0.7533 Y0.1903 I-0.095 J0.3415
G3 X0.8043 Y0.2244 I-0.1151 J0.2274
G3 X0.8461 Y0.2708 I-0.1599 J0.1857
G3 X0.8763 Y0.3282 I-0.2228 J0.1539
G3 X0.8928 Y0.3895 I-0.2926 J0.1117
G3 X0.8988 Y0.4644 I-0.4599 J0.0749
G3 X0.8928 Y0.5398 I-0.4698 J0
G3 X0.8762 Y0.601 I-0.3056 J-0.0497
G3 X0.8458 Y0.6582 I-0.2473 J-0.0949
G3 X0.804 Y0.7037 I-0.1938 J-0.1359
G3 X0.7533 Y0.7376 I-0.1658 J-0.1935
G3 X0.6882 Y0.7628 I-0.1601 J-0.3163
G3 X0.6212 Y0.776 I-0.1192 J-0.4289
G3 X0.5363 Y0.781 I-0.0848 J-0.7178
G1 X0.2199 Y0.781
G3 X0.1699 Y0.731 I0 J-0.05
G1 Z-0.6 F5
G1 X0.1699 Y0.1968 F15
G3 X0.2199 Y0.1468 I0.05 J0
G1 X0.5363 Y0.1468
G3 X0.6212 Y0.1518 I0 J0.7228
G3 X0.6882 Y0.165 I-0.0522 J0.4421
G3 X0.7533 Y0.1903 I-0.095 J0.3415
G3 X0.8043 Y0.2244 I-0.1151 J0.2274
G3 X0.8461 Y0.2708 I-0.1599 J0.1857
G3 X0.8763 Y0.3282 I-0.2228 J0.1539
G3 X0.8928 Y0.3895 I-0.2926 J0.1117
G3 X0.8988 Y0.4644 I-0.4599 J0.0749
G3 X0.8928 Y0.5398 I-0.4698 J0
G3 X0.8762 Y0.601 I-0.3056 J-0.0497
G3 X0.8458 Y0.6582 I-0.2473 J-0.0949
G3 X0.804 Y0.7037 I-0.1938 J-0.1359
G3 X0.7533 Y0.7376 I-0.1658 J-0.1935
G3 X0.6882 Y0.7628 I-0.1601 J-0.3163
G3 X0.6212 Y0.776 I-0.1192 J-0.4289
G3 X0.5363 Y0.781 I-0.0848 J-0.7178
G1 X0.2199 Y0.781
G3 X0.1699 Y0.731 I0 J-0.05
G1 Z-0.7 F5
G1 X0.1699 Y0.1968 F15
G3 X0.2199 Y0.1468 I0.05 J0
G1 X0.5363 Y0.1468
G3 X0.6212 Y0.1518 I0 J0.7228
G3 X0.6882 Y0.165 I-0.0522 J0.4421
G3 X0.7533 Y0.1903 I-0.095 J0.3415
G3 X0.8043 Y0.2244 I-0.1151 J0.2274
G3 X0.8461 Y0.2708 I-0.1599 J0.1857
G3 X0.8763 Y0.3282 I-0.2228 J0.1539
G3 X0.8928 Y0.3895 I-0.2926 J0.1117
G3 X0.8988 Y0.4644 I-0.4599 J0.0749
G3 X0.8928 Y0.5398 I-0.4698 J0
G3 X0.8762 Y0.601 I-0.3056 J-0.0497
G3 X0.8458 Y0.6582 I-0.2473 J-0.0949
G3 X0.804 Y0.7037 I-0.1938 J-0.1359
G3 X0.7533 Y0.7376 I-0.1658 J-0.1935
G3 X0.6882 Y0.7628 I-0.1601 J-0.3163
G3 X0.6212 Y0.776 I-0.1192 J-0.4289
G3 X0.5363 Y0.781 I-0.0848 J-0.7178
G1 X0.2199 Y0.781
G3 X0.1699 Y0.731 I0 J-0.05
G1 Z-0.8 F5
G1 X0.1699 Y0.1968 F15
G3 X0.2199 Y0.1468 I0.05 J0
G1 X0.5363 Y0.1468
G3 X0.6212 Y0.1518 I0 J0.7228
G3 X0.6882 Y0.165 I-0.0522 J0.4421
G3 X0.7533 Y0.1903 I-0.095 J0.3415
G3 X0.8043 Y0.2244 I-0.1151 J0.2274
G3 X0.8461 Y0.2708 I-0.1599 J0.1857
G3 X0.8763 Y0.3282 I-0.2228 J0.1539
G3 X0.8928 Y0.3895 I-0.2926 J0.1117
G3 X0.8988 Y0.4644 I-0.4599 J0.0749
G3 X0.8928 Y0.5398 I-0.4698 J0
G3 X0.8762 Y0.601 I-0.3056 J-0.0497
G3 X0.8458 Y0.6582 I-0.2473 J-0.0949
G3 X0.804 Y0.7037 I-0.1938 J-0.1359
G3 X0.7533 Y0.7376 I-0.1658 J-0.1935
G3 X0.6882 Y0.7628 I-0.1601 J-0.3163
G3 X0.6212 Y0.776 I-0.1192 J-0.4289
G3 X0.5363 Y0.781 I-0.0848 J-0.7178
G1 X0.2199 Y0.781
G3 X0.1699 Y0.731 I0 J-0.05
G1 Z-0.9 F5
G1 X0.1699 Y0.1968 F15
G3 X0.2199 Y0.1468 I0.05 J0
G1 X0.5363 Y0.1468
G3 X0.6212 Y0.1518 I0 J0.7228
G3 X0.6882 Y0.165 I-0.0522 J0.4421
G3 X0.7533 Y0.1903 I-0.095 J0.3415
G3 X0.8043 Y0.2244 I-0.1151 J0.2274
G3 X0.8461 Y0.2708 I-0.1599 J0.1857
G3 X0.8763 Y0.3282 I-0.2228 J0.1539
G3 X0.8928 Y0.3895 I-0.2926 J0.1117
G3 X0.8988 Y0.4644 I-0.4599 J0.0749
G3 X0.8928 Y0.5398 I-0.4698 J0
G3 X0.8762 Y0.601 I-0.3056 J-0.0497
G3 X0.8458 Y0.6582 I-0.2473 J-0.0949
G3 X0.804 Y0.7037 I-0.1938 J-0.1359
G3 X0.7533 Y0.7376 I-0.1658 J-0.1935
G3 X0.6882 Y0.7628 I-0.1601 J-0.3163
G3 X0.6212 Y0.776 I-0.1192 J-0.4289
G3 X0.5363 Y0.781 I-0.0848 J-0.7178
G1 X0.2199 Y0.781
G3 X0.1699 Y0.731 I0 J-0.05
G1 Z-1 F5
G1 X0.1699 Y0.1968 F15
G3 X0.2199 Y0.1468 I0.05 J0
G1 X0.5363 Y0.1468
G3 X0.6212 Y0.1518 I0 J0.7228
G3 X0.6882 Y0.165 I-0.0522 J0.4421
G3 X0.7533 Y0.1903 I-0.095 J0.3415
G3 X0.8043 Y0.2244 I-0.1151 J0.2274
G3 X0.8461 Y0.2708 I-0.1599 J0.1857
G3 X0.8763 Y0.3282 I-0.2228 J0.1539
G3 X0.8928 Y0.3895 I-0.2926 J0.1117
G3 X0.8988 Y0.4644 I-0.4599 J0.0749
G3 X0.8928 Y0.5398 I-0.4698 J0
G3 X0.8762 Y0.601 I-0.3056 J-0.0497
G3 X0.8458 Y0.6582 I-0.2473 J-0.0949
G3 X0.804 Y0.7037 I-0.1938 J-0.1359
G3 X0.7533 Y0.7376 I-0.1658 J-0.1935
G3 X0.6882 Y0.7628 I-0.1601 J-0.3163
G3 X0.6212 Y0.776 I-0.1192 J-0.4289
G3 X0.5363 Y0.781 I-0.0848 J-0.7178
G1 X0.2199 Y0.781
G3 X0.1699 Y0.731 I0 J-0.05
G1 Z-1.1 F5
G1 X0.1699 Y0.1968 F15
G3 X0.2199 Y0.1468 I0.05 J0
G1 X0.5363 Y0.1468
G3 X0.6212 Y0.1518 I0 J0.7228
G3 X0.6882 Y0.165 I-0.0522 J0.4421
G3 X0.7533 Y0.1903 I-0.095 J0.3415
G3 X0.8043 Y0.2244 I-0.1151 J0.2274
G3 X0.8461 Y0.2708 I-0.1599 J0.1857
G3 X0.8763 Y0.3282 I-0.2228 J0.1539
G3 X0.8928 Y0.3895 I-0.2926 J0.1117
G3 X0.8988 Y0.4644 I-0.4599 J0.0749
G3 X0.8928 Y0.5398 I-0.4698 J0
G3 X0.8762 Y0.601 I-0.3056 J-0.0497
G3 X0.8458 Y0.6582 I-0.2473 J-0.0949
G3 X0.804 Y0.7037 I-0.1938 J-0.1359
G3 X0.7533 Y0.7376 I-0.1658 J-0.1935
G3 X0.6882 Y0.7628 I-0.1601 J-0.3163
G3 X0.6212 Y0.776 I-0.1192 J-0.4289
G3 X0.5363 Y0.781 I-0.0848 J-0.7178
G1 X0.2199 Y0.781
G3 X0.1699 Y0.731 I0 J-0.05
G1 Z-1.2 F5
G1 X0.1699 Y0.1968 F15
G3 X0.2199 Y0.1468 I0.05 J0
G1 X0.5363 Y0.1468
G3 X0.6212 Y0.1518 I0 J0.7228
G3 X0.6882 Y0.165 I-0.0522 J0.4421
G3 X0.7533 Y0.1903 I-0.095 J0.3415
G3 X0.8043 Y0.2244 I-0.1151 J0.2274
G3 X0.8461 Y0.2708 I-0.1599 J0.1857
G3 X0.8763 Y0.3282 I-0.2228 J0.1539
G3 X0.8928 Y0.3895 I-0.2926 J0.1117
G3 X0.8988 Y0.4644 I-0.4599 J0.0749
G3 X0.8928 Y0.5398 I-0.4698 J0
G3 X0.8762 Y0.601 I-0.3056 J-0.0497
G3 X0.8458 Y0.6582 I-0.2473 J-0.0949
G3 X0.804 Y0.7037 I-0.1938 J-0.1359
G3 X0.7533 Y0.7376 I-0.1658 J-0.1935
G3 X0.6882 Y0.7628 I-0.1601 J-0.3163
G3 X0.6212 Y0.776 I-0.1192 J-0.4289
G3 X0.5363 Y0.781 I-0.0848 J-0.7178
G1 X0.2199 Y0.781
G3 X0.1699 Y0.731 I0 J-0.05
G1 Z-1.3 F5
G1 X0.1699 Y0.1968 F15
G3 X0.2199 Y0.1468 I0.05 J0
G1 X0.5363 Y0.1468
G3 X0.6212 Y0.1518 I0 J0.7228
G3 X0.6882 Y0.165 I-0.0522 J0.4421
G3 X0.7533 Y0.1903 I-0.095 J0.3415
G3 X0.8043 Y0.2244 I-0.1151 J0.2274
G3 X0.8461 Y0.2708 I-0.1599 J0.1857
G3 X0.8763 Y0.3282 I-0.2228 J0.1539
G3 X0.8928 Y0.3895 I-0.2926 J0.1117
G3 X0.8988 Y0.4644 I-0.4599 J0.0749
G3 X0.8928 Y0.5398 I-0.4698 J0
G3 X0.8762 Y0.601 I-0.3056 J-0.0497
G3 X0.8458 Y0.6582 I-0.2473 J-0.0949
G3 X0.804 Y0.7037 I-0.1938 J-0.1359
G3 X0.7533 Y0.7376 I-0.1658 J-0.1935
G3 X0.6882 Y0.7628 I-0.1601 J-0.3163
G3 X0.6212 Y0.776 I-0.1192 J-0.4289
G3 X0.5363 Y0.781 I-0.0848 J-0.7178
G1 X0.2199 Y0.781
G3 X0.1699 Y0.731 I0 J-0.05
G1 Z-1.4 F5
G1 X0.1699 Y0.1968 F15
G3 X0.2199 Y0.1468 I0.05 J0
G1 X0.5363 Y0.1468
G3 X0.6212 Y0.1518 I0 J0.7228
G3 X0.6882 Y0.165 I-0.0522 J0.4421
G3 X0.7533 Y0.1903 I-0.095 J0.3415
G3 X0.8043 Y0.2244 I-0.1151 J0.2274
G3 X0.8461 Y0.2708 I-0.1599 J0.1857
G3 X0.8763 Y0.3282 I-0.2228 J0.1539
G3 X0.8928 Y0.3895 I-0.2926 J0.1117
G3 X0.8988 Y0.4644 I-0.4599 J0.0749
G3 X0.8928 Y0.5398 I-0.4698 J0
G3 X0.8762 Y0.601 I-0.3056 J-0.0497
G3 X0.8458 Y0.6582 I-0.2473 J-0.0949
G3 X0.804 Y0.7037 I-0.1938 J-0.1359
G3 X0.7533 Y0.7376 I-0.1658 J-0.1935
G3 X0.6882 Y0.7628 I-0.1601 J-0.3163
G3 X0.6212 Y0.776 I-0.1192 J-0.4289
G3 X0.5363 Y0.781 I-0.0848 J-0.7178
G1 X0.2199 Y0.781
G3 X0.1699 Y0.731 I0 J-0.05
G1 Z-1.5 F5
G1 X0.1699 Y0.1968 F15
G3 X0.2199 Y0.1468 I0.05 J0
G1 X0.5363 Y0.1468
G3 X0.6212 Y0.1518 I0 J0.7228
G3 X0.6882 Y0.165 I-0.0522 J0.4421
G3 X0.7533 Y0.1903 I-0.095 J0.3415
G3 X0.8043 Y0.2244 I-0.1151 J0.2274
G3 X0.8461 Y0.2708 I-0.1599 J0.1857
G3 X0.8763 Y0.3282 I-0.2228 J0.1539
G3 X0.8928 Y0.3895 I-0.2926 J0.1117
G3 X0.8988 Y0.4644 I-0.4599 J0.0749
G3 X0.8928 Y0.5398 I-0.4698 J0
G3 X0.8762 Y0.601 I-0.3056 J-0.0497
G3 X0.8458 Y0.6582 I-0.2473 J-0.0949
G3 X0.804 Y0.7037 I-0.1938 J-0.1359
G3 X0.7533 Y0.7376 I-0.1658 J-0.1935
G3 X0.6882 Y0.7628 I-0.1601 J-0.3163
G3 X0.6212 Y0.776 I-0.1192 J-0.4289
G3 X0.5363 Y0.781 I-0.0848 J-0.7178
G1 X0.2199 Y0.781
G3 X0.1699 Y0.731 I0 J-0.05
G0 Z1
G0 X0.1699 Y1.3306
G1 Z-0.1 F5
G1 X0.1699 Y0.8912 F15
G3 X0.2199 Y0.8412 I0.05 J0
G1 X0.5119 Y0.8412
G3 X0.589 Y0.8453 I0 J0.7274
G3 X0.65 Y0.8561 I-0.0474 J0.4443
G3 X0.7101 Y0.877 I-0.0855 J0.342
G3 X0.7572 Y0.9052 I-0.1 J0.2207
G3 X0.7973 Y0.9451 I-0.1349 J0.1758
G3 X0.8262 Y0.994 I-0.1765 J0.1371
G3 X0.8423 Y1.0472 I-0.2284 J0.0981
G3 X0.8481 Y1.1109 I-0.3471 J0.0637
G3 X0.8423 Y1.1741 I-0.348 J0
G3 X0.8261 Y1.2272 I-0.2428 J-0.0449
G3 X0.7973 Y1.2758 I-0.2047 J-0.0884
G3 X0.7575 Y1.3154 I-0.1757 J-0.1369
G3 X0.7103 Y1.3441 I-0.1485 J-0.191
G3 X0.6502 Y1.3654 I-0.1461 J-0.3165
G3 X0.5891 Y1.3764 I-0.1087 J-0.4269
G3 X0.5119 Y1.3806 I-0.0772 J-0.7111
G1 X0.2199 Y1.3806
G3 X0.1699 Y1.3306 I0 J-0.05
G1 Z-0.2 F5
G1 X0.1699 Y0.8912 F15
G3 X0.2199 Y0.8412 I0.05 J0
G1 X0.5119 Y0.8412
G3 X0.589 Y0.8453 I0 J0.7274
G3 X0.65 Y0.8561 I-0.0474 J0.4443
G3 X0.7101 Y0.877 I-0.0855 J0.342
G3 X0.7572 Y0.9052 I-0.1 J0.2207
G3 X0.7973 Y0.9451 I-0.1349 J0.1758
G3 X0.8262 Y0.994 I-0.1765 J0.1371
G3 X0.8423 Y1.0472 I-0.2284 J0.0981
G3 X0.8481 Y1.1109 I-0.3471 J0.0637
G3 X0.8423 Y1.1741 I-0.348 J0
G3 X0.8261 Y1.2272 I-0.2428 J-0.0449
G3 X0.7973 Y1.2758 I-0.2047 J-0.0884
G3 X0.7575 Y1.3154 I-0.1757 J-0.1369
G3 X0.7103 Y1.3441 I-0.1485 J-0.191
G3 X0.6502 Y1.3654 I-0.1461 J-0.3165
G3 X0.5891 Y1.3764 I-0.1087 J-0.4269
G3 X0.5119 Y1.3806 I-0.0772 J-0.7111
G1 X0.2199 Y1.3806
G3 X0.1699 Y1.3306 I0 J-0.05
G1 Z-0.3 F5
G1 X0.1699 Y0.8912 F15
G3 X0.2199 Y0.8412 I0.05 J0
G1 X0.5119 Y0.8412
G3 X0.589 Y0.8453 I0 J0.7274
G3 X0.65 Y0.8561 I-0.0474 J0.4443
G3 X0.7101 Y0.877 I-0.0855 J0.342
G3 X0.7572 Y0.9052 I-0.1 J0.2207
G3 X0.7973 Y0.9451 I-0.1349 J0.1758
G3 X0.8262 Y0.994 I-0.1765 J0.1371
G3 X0.8423 Y1.0472 I-0.2284 J0.0981
G3 X0.8481 Y1.1109 I-0.3471 J0.0637
G3 X0.8423 Y1.1741 I-0.348 J0
G3 X0.8261 Y1.2272 I-0.2428 J-0.0449
G3 X0.7973 Y1.2758 I-0.2047 J-0.0884
G3 X0.7575 Y1.3154 I-0.1757 J-0.1369
G3 X0.7103 Y1.3441 I-0.1485 J-0.191
G3 X0.6502 Y1.3654 I-0.1461 J-0.3165
G3 X0.5891 Y1.3764 I-0.1087 J-0.4269
G3 X0.5119 Y1.3806 I-0.0772 J-0.7111
G1 X0.2199 Y1.3806
G3 X0.1699 Y1.3306 I0 J-0.05
G1 Z-0.4 F5
G1 X0.1699 Y0.8912 F15
G3 X0.2199 Y0.8412 I0.05 J0
G1 X0.5119 Y0.8412
G3 X0.589 Y0.8453 I0 J0.7274
G3 X0.65 Y0.8561 I-0.0474 J0.4443
G3 X0.7101 Y0.877 I-0.0855 J0.342
G3 X0.7572 Y0.9052 I-0.1 J0.2207
G3 X0.7973 Y0.9451 I-0.1349 J0.1758
G3 X0.8262 Y0.994 I-0.1765 J0.1371
G3 X0.8423 Y1.0472 I-0.2284 J0.0981
G3 X0.8481 Y1.1109 I-0.3471 J0.0637
G3 X0.8423 Y1.1741 I-0.348 J0
G3 X0.8261 Y1.2272 I-0.2428 J-0.0449
G3 X0.7973 Y1.2758 I-0.2047 J-0.0884
G3 X0.7575 Y1.3154 I-0.1757 J-0.1369
G3 X0.7103 Y1.3441 I-0.1485 J-0.191
G3 X0.6502 Y1.3654 I-0.1461 J-0.3165
G3 X0.5891 Y1.3764 I-0.1087 J-0.4269
G3 X0.5119 Y1.3806 I-0.0772 J-0.7111
G1 X0.2199 Y1.3806
G3 X0.1699 Y1.3306 I0 J-0.05
G1 Z-0.5 F5
G1 X0.1699 Y0.8912 F15
G3 X0.2199 Y0.8412 I0.05 J0
G1 X0.5119 Y0.8412
G3 X0.589 Y0.8453 I0 J0.7274
G3 X0.65 Y0.8561 I-0.0474 J0.4443
G3 X0.7101 Y0.877 I-0.0855 J0.342
G3 X0.7572 Y0.9052 I-0.1 J0.2207
G3 X0.7973 Y0.9451 I-0.1349 J0.1758
G3 X0.8262 Y0.994 I-0.1765 J0.1371
G3 X0.8423 Y1.0472 I-0.2284 J0.0981
G3 X0.8481 Y1.1109 I-0.3471 J0.0637
G3 X0.8423 Y1.1741 I-0.348 J0
G3 X0.8261 Y1.2272 I-0.2428 J-0.0449
G3 X0.7973 Y1.2758 I-0.2047 J-0.0884
G3 X0.7575 Y1.3154 I-0.1757 J-0.1369
G3 X0.7103 Y1.3441 I-0.1485 J-0.191
G3 X0.6502 Y1.3654 I-0.1461 J-0.3165
G3 X0.5891 Y1.3764 I-0.1087 J-0.4269
G3 X0.5119 Y1.3806 I-0.0772 J-0.7111
G1 X0.2199 Y1.3806
G3 X0.1699 Y1.3306 I0 J-0.05
G1 Z-0.6 F5
G1 X0.1699 Y0.8912 F15
G3 X0.2199 Y0.8412 I0.05 J0
G1 X0.5119 Y0.8412
G3 X0.589 Y0.8453 I0 J0.7274
G3 X0.65 Y0.8561 I-0.0474 J0.4443
G3 X0.7101 Y0.877 I-0.0855 J0.342
G3 X0.7572 Y0.9052 I-0.1 J0.2207
G3 X0.7973 Y0.9451 I-0.1349 J0.1758
G3 X0.8262 Y0.994 I-0.1765 J0.1371
G3 X0.8423 Y1.0472 I-0.2284 J0.0981
G3 X0.8481 Y1.1109 I-0.3471 J0.0637
G3 X0.8423 Y1.1741 I-0.348 J0
G3 X0.8261 Y1.2272 I-0.2428 J-0.0449
G3 X0.7973 Y1.2758 I-0.2047 J-0.0884
G3 X0.7575 Y1.3154 I-0.1757 J-0.1369
G3 X0.7103 Y1.3441 I-0.1485 J-0.191
G3 X0.6502 Y1.3654 I-0.1461 J-0.3165
G3 X0.5891 Y1.3764 I-0.1087 J-0.4269
G3 X0.5119 Y1.3806 I-0.0772 J-0.7111
G1 X0.2199 Y1.3806
G3 X0.1699 Y1.3306 I0 J-0.05
G1 Z-0.7 F5
G1 X0.1699 Y0.8912 F15
G3 X0.2199 Y0.8412 I0.05 J0
G1 X0.5119 Y0.8412
G3 X0.589 Y0.8453 I0 J0.7274
G3 X0.65 Y0.8561 I-0.0474 J0.4443
G3 X0.7101 Y0.877 I-0.0855 J0.342
G3 X0.7572 Y0.9052 I-0.1 J0.2207
G3 X0.7973 Y0.9451 I-0.1349 J0.1758
G3 X0.8262 Y0.994 I-0.1765 J0.1371
G3 X0.8423 Y1.0472 I-0.2284 J0.0981
G3 X0.8481 Y1.1109 I-0.3471 J0.0637
G3 X0.8423 Y1.1741 I-0.348 J0
G3 X0.8261 Y1.2272 I-0.2428 J-0.0449
G3 X0.7973 Y1.2758 I-0.2047 J-0.0884
G3 X0.7575 Y1.3154 I-0.1757 J-0.1369
G3 X0.7103 Y1.3441 I-0.1485 J-0.191
G3 X0.6502 Y1.3654 I-0.1461 J-0.3165
G3 X0.5891 Y1.3764 I-0.1087 J-0.4269
G3 X0.5119 Y1.3806 I-0.0772 J-0.7111
G1 X0.2199 Y1.3806
G3 X0.1699 Y1.3306 I0 J-0.05
G1 Z-0.8 F5
G1 X0.1699 Y0.8912 F15
G3 X0.2199 Y0.8412 I0.05 J0
G1 X0.5119 Y0.8412
G3 X0.589 Y0.8453 I0 J0.7274
G3 X0.65 Y0.8561 I-0.0474 J0.4443
G3 X0.7101 Y0.877 I-0.0855 J0.342
G3 X0.7572 Y0.9052 I-0.1 J0.2207
G3 X0.7973 Y0.9451 I-0.1349 J0.1758
G3 X0.8262 Y0.994 I-0.1765 J0.1371
G3 X0.8423 Y1.0472 I-0.2284 J0.0981
G3 X0.8481 Y1.1109 I-0.3471 J0.0637
G3 X0.8423 Y1.1741 I-0.348 J0
G3 X0.8261 Y1.2272 I-0.2428 J-0.0449
G3 X0.7973 Y1.2758 I-0.2047 J-0.0884
G3 X0.7575 Y1.3154 I-0.1757 J-0.1369
G3 X0.7103 Y1.3441 I-0.1485 J-0.191
G3 X0.6502 Y1.3654 I-0.1461 J-0.3165
G3 X0.5891 Y1.3764 I-0.1087 J-0.4269
G3 X0.5119 Y1.3806 I-0.0772 J-0.7111
G1 X0.2199 Y1.3806
G3 X0.1699 Y1.3306 I0 J-0.05
G1 Z-0.9 F5
G1 X0.1699 Y0.8912 F15
G3 X0.2199 Y0.8412 I0.05 J0
G1 X0.5119 Y0.8412
G3 X0.589 Y0.8453 I0 J0.7274
G3 X0.65 Y0.8561 I-0.0474 J0.4443
G3 X0.7101 Y0.877 I-0.0855 J0.342
G3 X0.7572 Y0.9052 I-0.1 J0.2207
G3 X0.7973 Y0.9451 I-0.1349 J0.1758
G3 X0.8262 Y0.994 I-0.1765 J0.1371
G3 X0.8423 Y1.0472 I-0.2284 J0.0981
G3 X0.8481 Y1.1109 I-0.3471 J0.0637
G3 X0.8423 Y1.1741 I-0.348 J0
G3 X0.8261 Y1.2272 I-0.2428 J-0.0449
G3 X0.7973 Y1.2758 I-0.2047 J-0.0884
G3 X0.7575 Y1.3154 I-0.1757 J-0.1369
G3 X0.7103 Y1.3441 I-0.1485 J-0.191
G3 X0.6502 Y1.3654 I-0.1461 J-0.3165
G3 X0.5891 Y1.3764 I-0.1087 J-0.4269
G3 X0.5119 Y1.3806 I-0.0772 J-0.7111
G1 X0.2199 Y1.3806
G3 X0.1699 Y1.3306 I0 J-0.05
G1 Z-1 F5
G1 X0.1699 Y0.8912 F15
G3 X0.2199 Y0.8412 I0.05 J0
G1 X0.5119 Y0.8412
G3 X0.589 Y0.8453 I0 J0.7274
G3 X0.65 Y0.8561 I-0.0474 J0.4443
G3 X0.7101 Y0.877 I-0.0855 J0.342
G3 X0.7572 Y0.9052 I-0.1 J0.2207
G3 X0.7973 Y0.9451 I-0.1349 J0.1758
G3 X0.8262 Y0.994 I-0.1765 J0.1371
G3 X0.8423 Y1.0472 I-0.2284 J0.0981
G3 X0.8481 Y1.1109 I-0.3471 J0.0637
G3 X0.8423 Y1.1741 I-0.348 J0
G3 X0.8261 Y1.2272 I-0.2428 J-0.0449
G3 X0.7973 Y1.2758 I-0.2047 J-0.0884
G3 X0.7575 Y1.3154 I-0.1757 J-0.1369
G3 X0.7103 Y1.3441 I-0.1485 J-0.191
G3 X0.6502 Y1.3654 I-0.1461 J-0.3165
G3 X0.5891 Y1.3764 I-0.1087 J-0.4269
G3 X0.5119 Y1.3806 I-0.0772 J-0.7111
G1 X0.2199 Y1.3806
G3 X0.1699 Y1.3306 I0 J-0.05
G1 Z-1.1 F5
G1 X0.1699 Y0.8912 F15
G3 X0.2199 Y0.8412 I0.05 J0
G1 X0.5119 Y0.8412
G3 X0.589 Y0.8453 I0 J0.7274
G3 X0.65 Y0.8561 I-0.0474 J0.4443
G3 X0.7101 Y0.877 I-0.0855 J0.342
G3 X0.7572 Y0.9052 I-0.1 J0.2207
G3 X0.7973 Y0.9451 I-0.1349 J0.1758
G3 X0.8262 Y0.994 I-0.1765 J0.1371
G3 X0.8423 Y1.0472 I-0.2284 J0.0981
G3 X0.8481 Y1.1109 I-0.3471 J0.0637
G3 X0.8423 Y1.1741 I-0.348 J0
G3 X0.8261 Y1.2272 I-0.2428 J-0.0449
G3 X0.7973 Y1.2758 I-0.2047 J-0.0884
G3 X0.7575 Y1.3154 I-0.1757 J-0.1369
G3 X0.7103 Y1.3441 I-0.1485 J-0.191
G3 X0.6502 Y1.3654 I-0.1461 J-0.3165
G3 X0.5891 Y1.3764 I-0.1087 J-0.4269
G3 X0.5119 Y1.3806 I-0.0772 J-0.7111
G1 X0.2199 Y1.3806
G3 X0.1699 Y1.3306 I0 J-0.05
G1 Z-1.2 F5
G1 X0.1699 Y0.8912 F15
G3 X0.2199 Y0.8412 I0.05 J0
G1 X0.5119 Y0.8412
G3 X0.589 Y0.8453 I0 J0.7274
G3 X0.65 Y0.8561 I-0.0474 J0.4443
G3 X0.7101 Y0.877 I-0.0855 J0.342
G3 X0.7572 Y0.9052 I-0.1 J0.2207
G3 X0.7973 Y0.9451 I-0.1349 J0.1758
G3 X0.8262 Y0.994 I-0.1765 J0.1371
G3 X0.8423 Y1.0472 I-0.2284 J0.0981
G3 X0.8481 Y1.1109 I-0.3471 J0.0637
G3 X0.8423 Y1.1741 I-0.348 J0
G3 X0.8261 Y1.2272 I-0.2428 J-0.0449
G3 X0.7973 Y1.2758 I-0.2047 J-0.0884
G3 X0.7575 Y1.3154 I-0.1757 J-0.1369
G3 X0.7103 Y1.3441 I-0.1485 J-0.191
G3 X0.6502 Y1.3654 I-0.1461 J-0.3165
G3 X0.5891 Y1.3764 I-0.1087 J-0.4269
G3 X0.5119 Y1.3806 I-0.0772 J-0.7111
G1 X0.2199 Y1.3806
G3 X0.1699 Y1.3306 I0 J-0.05
G1 Z-1.3 F5
G1 X0.1699 Y0.8912 F15
G3 X0.2199 Y0.8412 I0.05 J0
G1 X0.5119 Y0.8412
G3 X0.589 Y0.8453 I0 J0.7274
G3 X0.65 Y0.8561 I-0.0474 J0.4443
G3 X0.7101 Y0.877 I-0.0855 J0.342
G3 X0.7572 Y0.9052 I-0.1 J0.2207
G3 X0.7973 Y0.9451 I-0.1349 J0.1758
G3 X0.8262 Y0.994 I-0.1765 J0.1371
G3 X0.8423 Y1.0472 I-0.2284 J0.0981
G3 X0.8481 Y1.1109 I-0.3471 J0.0637
G3 X0.8423 Y1.1741 I-0.348 J0
G3 X0.8261 Y1.2272 I-0.2428 J-0.0449
G3 X0.7973 Y1.2758 I-0.2047 J-0.0884
G3 X0.7575 Y1.3154 I-0.1757 J-0.1369
G3 X0.7103 Y1.3441 I-0.1485 J-0.191
G3 X0.6502 Y1.3654 I-0.1461 J-0.3165
G3 X0.5891 Y1.3764 I-0.1087 J-0.4269
G3 X0.5119 Y1.3806 I-0.0772 J-0.7111
G1 X0.2199 Y1.3806
G3 X0.1699 Y1.3306 I0 J-0.05
G1 Z-1.4 F5
G1 X0.1699 Y0.8912 F15
G3 X0.2199 Y0.8412 I0.05 J0
G1 X0.5119 Y0.8412
G3 X0.589 Y0.8453 I0 J0.7274
G3 X0.65 Y0.8561 I-0.0474 J0.4443
G3 X0.7101 Y0.877 I-0.0855 J0.342
G3 X0.7572 Y0.9052 I-0.1 J0.2207
G3 X0.7973 Y0.9451 I-0.1349 J0.1758
G3 X0.8262 Y0.994 I-0.1765 J0.1371
G3 X0.8423 Y1.0472 I-0.2284 J0.0981
G3 X0.8481 Y1.1109 I-0.3471 J0.0637
G3 X0.8423 Y1.1741 I-0.348 J0
G3 X0.8261 Y1.2272 I-0.2428 J-0.0449
G3 X0.7973 Y1.2758 I-0.2047 J-0.0884
G3 X0.7575 Y1.3154 I-0.1757 J-0.1369
G3 X0.7103 Y1.3441 I-0.1485 J-0.191
G3 X0.6502 Y1.3654 I-0.1461 J-0.3165
G3 X0.5891 Y1.3764 I-0.1087 J-0.4269
G3 X0.5119 Y1.3806 I-0.0772 J-0.7111
G1 X0.2199 Y1.3806
G3 X0.1699 Y1.3306 I0 J-0.05
G1 Z-1.5 F5
G1 X0.1699 Y0.8912 F15
G3 X0.2199 Y0.8412 I0.05 J0
G1 X0.5119 Y0.8412
G3 X0.589 Y0.8453 I0 J0.7274
G3 X0.65 Y0.8561 I-0.0474 J0.4443
G3 X0.7101 Y0.877 I-0.0855 J0.342
G3 X0.7572 Y0.9052 I-0.1 J0.2207
G3 X0.7973 Y0.9451 I-0.1349 J0.1758
G3 X0.8262 Y0.994 I-0.1765 J0.1371
G3 X0.8423 Y1.0472 I-0.2284 J0.0981
G3 X0.8481 Y1.1109 I-0.3471 J0.0637
G3 X0.8423 Y1.1741 I-0.348 J0
G3 X0.8261 Y1.2272 I-0.2428 J-0.0449
G3 X0.7973 Y1.2758 I-0.2047 J-0.0884
G3 X0.7575 Y1.3154 I-0.1757 J-0.1369
G3 X0.7103 Y1.3441 I-0.1485 J-0.191
G3 X0.6502 Y1.3654 I-0.1461 J-0.3165
G3 X0.5891 Y1.3764 I-0.1087 J-0.4269
G3 X0.5119 Y1.3806 I-0.0772 J-0.7111
G1 X0.2199 Y1.3806
G3 X0.1699 Y1.3306 I0 J-0.05
G0 Z1
G0 X8.9328 Y0.6345
G1 Z-0.1 F5
G1 X8.7541 Y0.6345 F15
G3 X8.6422 Y0.6307 I0 J-1.6613
G3 X8.5617 Y0.6214 I0.0569 J-0.8416
G3 X8.4811 Y0.6021 I0.0935 J-0.5666
G3 X8.4269 Y0.5777 I0.0794 J-0.2498
G3 X8.379 Y0.5392 I0.1108 J-0.1869
G3 X8.3446 Y0.4895 I0.1515 J-0.1416
G3 X8.3253 Y0.4335 I0.207 J-0.1023
G3 X8.3184 Y0.3648 I0.3355 J-0.0687
G1 X8.3184 Y0.3648
G1 X8.3184 Y0.3648
G3 X8.3234 Y0.3088 I0.3128 J0
G3 X8.3377 Y0.2599 I0.24 J0.0436
G3 X8.3626 Y0.2146 I0.2124 J0.0872
G3 X8.3973 Y0.1754 I0.195 J0.1376
G1 X8.3979 Y0.1749
G3 X8.4404 Y0.1448 I0.1634 J0.1864
G3 X8.4902 Y0.1231 I0.1351 J0.2417
G3 X8.5421 Y0.1111 I0.0961 J0.2968
G3 X8.6028 Y0.1068 I0.0607 J0.4237
G3 X8.6856 Y0.1148 I0 J0.4306
G3 X8.7574 Y0.1374 I-0.0655 J0.3342
G3 X8.8227 Y0.1757 I-0.132 J0.2995
G3 X8.8801 Y0.2298 I-0.2181 J0.2888
G3 X8.925 Y0.2949 I-0.2964 J0.2529
G3 X8.9577 Y0.3707 I-0.3781 J0.2081
G3 X8.9761 Y0.4505 I-0.4616 J0.1485
G3 X8.9828 Y0.5445 I-0.6561 J0.094
G1 X8.9828 Y0.5845
G3 X8.9328 Y0.6345 I-0.05 J0
G1 Z-0.2 F5
G1 X8.7541 Y0.6345 F15
G3 X8.6422 Y0.6307 I0 J-1.6613
G3 X8.5617 Y0.6214 I0.0569 J-0.8416
G3 X8.4811 Y0.6021 I0.0935 J-0.5666
G3 X8.4269 Y0.5777 I0.0794 J-0.2498
G3 X8.379 Y0.5392 I0.1108 J-0.1869
G3 X8.3446 Y0.4895 I0.1515 J-0.1416
G3 X8.3253 Y0.4335 I0.207 J-0.1023
G3 X8.3184 Y0.3648 I0.3355 J-0.0687
G1 X8.3184 Y0.3648
G1 X8.3184 Y0.3648
G3 X8.3234 Y0.3088 I0.3128 J0
G3 X8.3377 Y0.2599 I0.24 J0.0436
G3 X8.3626 Y0.2146 I0.2124 J0.0872
G3 X8.3973 Y0.1754 I0.195 J0.1376
G1 X8.3979 Y0.1749
G3 X8.4404 Y0.1448 I0.1634 J0.1864
G3 X8.4902 Y0.1231 I0.1351 J0.2417
G3 X8.5421 Y0.1111 I0.0961 J0.2968
G3 X8.6028 Y0.1068 I0.0607 J0.4237
G3 X8.6856 Y0.1148 I0 J0.4306
G3 X8.7574 Y0.1374 I-0.0655 J0.3342
G3 X8.8227 Y0.1757 I-0.132 J0.2995
G3 X8.8801 Y0.2298 I-0.2181 J0.2888
G3 X8.925 Y0.2949 I-0.2964 J0.2529
G3 X8.9577 Y0.3707 I-0.3781 J0.2081
G3 X8.9761 Y0.4505 I-0.4616 J0.1485
G3 X8.9828 Y0.5445 I-0.6561 J0.094
G1 X8.9828 Y0.5845
G3 X8.9328 Y0.6345 I-0.05 J0
G1 Z-0.3 F5
G1 X8.7541 Y0.6345 F15
G3 X8.6422 Y0.6307 I0 J-1.6613
G3 X8.5617 Y0.6214 I0.0569 J-0.8416
G3 X8.4811 Y0.6021 I0.0935 J-0.5666
G3 X8.4269 Y0.5777 I0.0794 J-0.2498
G3 X8.379 Y0.5392 I0.1108 J-0.1869
G3 X8.3446 Y0.4895 I0.1515 J-0.1416
G3 X8.3253 Y0.4335 I0.207 J-0.1023
G3 X8.3184 Y0.3648 I0.3355 J-0.0687
G1 X8.3184 Y0.3648
G1 X8.3184 Y0.3648
G3 X8.3234 Y0.3088 I0.3128 J0
G3 X8.3377 Y0.2599 I0.24 J0.0436
G3 X8.3626 Y0.2146 I0.2124 J0.0872
G3 X8.3973 Y0.1754 I0.195 J0.1376
G1 X8.3979 Y0.1749
G3 X8.4404 Y0.1448 I0.1634 J0.1864
G3 X8.4902 Y0.1231 I0.1351 J0.2417
G3 X8.5421 Y0.1111 I0.0961 J0.2968
G3 X8.6028 Y0.1068 I0.0607 J0.4237
G3 X8.6856 Y0.1148 I0 J0.4306
G3 X8.7574 Y0.1374 I-0.0655 J0.3342
G3 X8.8227 Y0.1757 I-0.132 J0.2995
G3 X8.8801 Y0.2298 I-0.2181 J0.2888
G3 X8.925 Y0.2949 I-0.2964 J0.2529
G3 X8.9577 Y0.3707 I-0.3781 J0.2081
G3 X8.9761 Y0.4505 I-0.4616 J0.1485
G3 X8.9828 Y0.5445 I-0.6561 J0.094
G1 X8.9828 Y0.5845
G3 X8.9328 Y0.6345 I-0.05 J0
G1 Z-0.4 F5
G1 X8.7541 Y0.6345 F15
G3 X8.6422 Y0.6307 I0 J-1.6613
G3 X8.5617 Y0.6214 I0.0569 J-0.8416
G3 X8.4811 Y0.6021 I0.0935 J-0.5666
G3 X8.4269 Y0.5777 I0.0794 J-0.2498
G3 X8.379 Y0.5392 I0.1108 J-0.1869
G3 X8.3446 Y0.4895 I0.1515 J-0.1416
G3 X8.3253 Y0.4335 I0.207 J-0.1023
G3 X8.3184 Y0.3648 I0.3355 J-0.0687
G1 X8.3184 Y0.3648
G1 X8.3184 Y0.3648
G3 X8.3234 Y0.3088 I0.3128 J0
G3 X8.3377 Y0.2599 I0.24 J0.0436
G3 X8.3626 Y0.2146 I0.2124 J0.0872
G3 X8.3973 Y0.1754 I0.195 J0.1376
G1 X8.3979 Y0.1749
G3 X8.4404 Y0.1448 I0.1634 J0.1864
G3 X8.4902 Y0.1231 I0.1351 J0.2417
G3 X8.5421 Y0.1111 I0.0961 J0.2968
G3 X8.6028 Y0.1068 I0.0607 J0.4237
G3 X8.6856 Y0.1148 I0 J0.4306
G3 X8.7574 Y0.1374 I-0.0655 J0.3342
G3 X8.8227 Y0.1757 I-0.132 J0.2995
G3 X8.8801 Y0.2298 I-0.2181 J0.2888
G3 X8.925 Y0.2949 I-0.2964 J0.2529
G3 X8.9577 Y0.3707 I-0.3781 J0.2081
G3 X8.9761 Y0.4505 I-0.4616 J0.1485
G3 X8.9828 Y0.5445 I-0.6561 J0.094
G1 X8.9828 Y0.5845
G3 X8.9328 Y0.6345 I-0.05 J0
G1 Z-0.5 F5
G1 X8.7541 Y0.6345 F15
G3 X8.6422 Y0.6307 I0 J-1.6613
G3 X8.5617 Y0.6214 I0.0569 J-0.8416
G3 X8.4811 Y0.6021 I0.0935 J-0.5666
G3 X8.4269 Y0.5777 I0.0794 J-0.2498
G3 X8.379 Y0.5392 I0.1108 J-0.1869
G3 X8.3446 Y0.4895 I0.1515 J-0.1416
G3 X8.3253 Y0.4335 I0.207 J-0.1023
G3 X8.3184 Y0.3648 I0.3355 J-0.0687
G1 X8.3184 Y0.3648
G1 X8.3184 Y0.3648
G3 X8.3234 Y0.3088 I0.3128 J0
G3 X8.3377 Y0.2599 I0.24 J0.0436
G3 X8.3626 Y0.2146 I0.2124 J0.0872
G3 X8.3973 Y0.1754 I0.195 J0.1376
G1 X8.3979 Y0.1749
G3 X8.4404 Y0.1448 I0.1634 J0.1864
G3 X8.4902 Y0.1231 I0.1351 J0.2417
G3 X8.5421 Y0.1111 I0.0961 J0.2968
G3 X8.6028 Y0.1068 I0.0607 J0.4237
G3 X8.6856 Y0.1148 I0 J0.4306
G3 X8.7574 Y0.1374 I-0.0655 J0.3342
G3 X8.8227 Y0.1757 I-0.132 J0.2995
G3 X8.8801 Y0.2298 I-0.2181 J0.2888
G3 X8.925 Y0.2949 I-0.2964 J0.2529
G3 X8.9577 Y0.3707 I-0.3781 J0.2081
G3 X8.9761 Y0.4505 I-0.4616 J0.1485
G3 X8.9828 Y0.5445 I-0.6561 J0.094
G1 X8.9828 Y0.5845
G3 X8.9328 Y0.6345 I-0.05 J0
G1 Z-0.6 F5
G1 X8.7541 Y0.6345 F15
G3 X8.6422 Y0.6307 I0 J-1.6613
G3 X8.5617 Y0.6214 I0.0569 J-0.8416
G3 X8.4811 Y0.6021 I0.0935 J-0.5666
G3 X8.4269 Y0.5777 I0.0794 J-0.2498
G3 X8.379 Y0.5392 I0.1108 J-0.1869
G3 X8.3446 Y0.4895 I0.1515 J-0.1416
G3 X8.3253 Y0.4335 I0.207 J-0.1023
G3 X8.3184 Y0.3648 I0.3355 J-0.0687
G1 X8.3184 Y0.3648
G1 X8.3184 Y0.3648
G3 X8.3234 Y0.3088 I0.3128 J0
G3 X8.3377 Y0.2599 I0.24 J0.0436
G3 X8.3626 Y0.2146 I0.2124 J0.0872
G3 X8.3973 Y0.1754 I0.195 J0.1376
G1 X8.3979 Y0.1749
G3 X8.4404 Y0.1448 I0.1634 J0.1864
G3 X8.4902 Y0.1231 I0.1351 J0.2417
G3 X8.5421 Y0.1111 I0.0961 J0.2968
G3 X8.6028 Y0.1068 I0.0607 J0.4237
G3 X8.6856 Y0.1148 I0 J0.4306
G3 X8.7574 Y0.1374 I-0.0655 J0.3342
G3 X8.8227 Y0.1757 I-0.132 J0.2995
G3 X8.8801 Y0.2298 I-0.2181 J0.2888
G3 X8.925 Y0.2949 I-0.2964 J0.2529
G3 X8.9577 Y0.3707 I-0.3781 J0.2081
G3 X8.9761 Y0.4505 I-0.4616 J0.1485
G3 X8.9828 Y0.5445 I-0.6561 J0.094
G1 X8.9828 Y0.5845
G3 X8.9328 Y0.6345 I-0.05 J0
G1 Z-0.7 F5
G1 X8.7541 Y0.6345 F15
G3 X8.6422 Y0.6307 I0 J-1.6613
G3 X8.5617 Y0.6214 I0.0569 J-0.8416
G3 X8.4811 Y0.6021 I0.0935 J-0.5666
G3 X8.4269 Y0.5777 I0.0794 J-0.2498
G3 X8.379 Y0.5392 I0.1108 J-0.1869
G3 X8.3446 Y0.4895 I0.1515 J-0.1416
G3 X8.3253 Y0.4335 I0.207 J-0.1023
G3 X8.3184 Y0.3648 I0.3355 J-0.0687
G1 X8.3184 Y0.3648
G1 X8.3184 Y0.3648
G3 X8.3234 Y0.3088 I0.3128 J0
G3 X8.3377 Y0.2599 I0.24 J0.0436
G3 X8.3626 Y0.2146 I0.2124 J0.0872
G3 X8.3973 Y0.1754 I0.195 J0.1376
G1 X8.3979 Y0.1749
G3 X8.4404 Y0.1448 I0.1634 J0.1864
G3 X8.4902 Y0.1231 I0.1351 J0.2417
G3 X8.5421 Y0.1111 I0.0961 J0.2968
G3 X8.6028 Y0.1068 I0.0607 J0.4237
G3 X8.6856 Y0.1148 I0 J0.4306
G3 X8.7574 Y0.1374 I-0.0655 J0.3342
G3 X8.8227 Y0.1757 I-0.132 J0.2995
G3 X8.8801 Y0.2298 I-0.2181 J0.2888
G3 X8.925 Y0.2949 I-0.2964 J0.2529
G3 X8.9577 Y0.3707 I-0.3781 J0.2081
G3 X8.9761 Y0.4505 I-0.4616 J0.1485
G3 X8.9828 Y0.5445 I-0.6561 J0.094
G1 X8.9828 Y0.5845
G3 X8.9328 Y0.6345 I-0.05 J0
G1 Z-0.8 F5
G1 X8.7541 Y0.6345 F15
G3 X8.6422 Y0.6307 I0 J-1.6613
G3 X8.5617 Y0.6214 I0.0569 J-0.8416
G3 X8.4811 Y0.6021 I0.0935 J-0.5666
G3 X8.4269 Y0.5777 I0.0794 J-0.2498
G3 X8.379 Y0.5392 I0.1108 J-0.1869
G3 X8.3446 Y0.4895 I0.1515 J-0.1416
G3 X8.3253 Y0.4335 I0.207 J-0.1023
G3 X8.3184 Y0.3648 I0.3355 J-0.0687
G1 X8.3184 Y0.3648
G1 X8.3184 Y0.3648
G3 X8.3234 Y0.3088 I0.3128 J0
G3 X8.3377 Y0.2599 I0.24 J0.0436
G3 X8.3626 Y0.2146 I0.2124 J0.0872
G3 X8.3973 Y0.1754 I0.195 J0.1376
G1 X8.3979 Y0.1749
G3 X8.4404 Y0.1448 I0.1634 J0.1864
G3 X8.4902 Y0.1231 I0.1351 J0.2417
G3 X8.5421 Y0.1111 I0.0961 J0.2968
G3 X8.6028 Y0.1068 I0.0607 J0.4237
G3 X8.6856 Y0.1148 I0 J0.4306
G3 X8.7574 Y0.1374 I-0.0655 J0.3342
G3 X8.8227 Y0.1757 I-0.132 J0.2995
G3 X8.8801 Y0.2298 I-0.2181 J0.2888
G3 X8.925 Y0.2949 I-0.2964 J0.2529
G3 X8.9577 Y0.3707 I-0.3781 J0.2081
G3 X8.9761 Y0.4505 I-0.4616 J0.1485
G3 X8.9828 Y0.5445 I-0.6561 J0.094
G1 X8.9828 Y0.5845
G3 X8.9328 Y0.6345 I-0.05 J0
G1 Z-0.9 F5
G1 X8.7541 Y0.6345 F15
G3 X8.6422 Y0.6307 I0 J-1.6613
G3 X8.5617 Y0.6214 I0.0569 J-0.8416
G3 X8.4811 Y0.6021 I0.0935 J-0.5666
G3 X8.4269 Y0.5777 I0.0794 J-0.2498
G3 X8.379 Y0.5392 I0.1108 J-0.1869
G3 X8.3446 Y0.4895 I0.1515 J-0.1416
G3 X8.3253 Y0.4335 I0.207 J-0.1023
G3 X8.3184 Y0.3648 I0.3355 J-0.0687
G1 X8.3184 Y0.3648
G1 X8.3184 Y0.3648
G3 X8.3234 Y0.3088 I0.3128 J0
G3 X8.3377 Y0.2599 I0.24 J0.0436
G3 X8.3626 Y0.2146 I0.2124 J0.0872
G3 X8.3973 Y0.1754 I0.195 J0.1376
G1 X8.3979 Y0.1749
G3 X8.4404 Y0.1448 I0.1634 J0.1864
G3 X8.4902 Y0.1231 I0.1351 J0.2417
G3 X8.5421 Y0.1111 I0.0961 J0.2968
G3 X8.6028 Y0.1068 I0.0607 J0.4237
G3 X8.6856 Y0.1148 I0 J0.4306
G3 X8.7574 Y0.1374 I-0.0655 J0.3342
G3 X8.8227 Y0.1757 I-0.132 J0.2995
G3 X8.8801 Y0.2298 I-0.2181 J0.2888
G3 X8.925 Y0.2949 I-0.2964 J0.2529
G3 X8.9577 Y0.3707 I-0.3781 J0.2081
G3 X8.9761 Y0.4505 I-0.4616 J0.1485
G3 X8.9828 Y0.5445 I-0.6561 J0.094
G1 X8.9828 Y0.5845
G3 X8.9328 Y0.6345 I-0.05 J0
G1 Z-1 F5
G1 X8.7541 Y0.6345 F15
G3 X8.6422 Y0.6307 I0 J-1.6613
G3 X8.5617 Y0.6214 I0.0569 J-0.8416
G3 X8.4811 Y0.6021 I0.0935 J-0.5666
G3 X8.4269 Y0.5777 I0.0794 J-0.2498
G3 X8.379 Y0.5392 I0.1108 J-0.1869
G3 X8.3446 Y0.4895 I0.1515 J-0.1416
G3 X8.3253 Y0.4335 I0.207 J-0.1023
G3 X8.3184 Y0.3648 I0.3355 J-0.0687
G1 X8.3184 Y0.3648
G1 X8.3184 Y0.3648
G3 X8.3234 Y0.3088 I0.3128 J0
G3 X8.3377 Y0.2599 I0.24 J0.0436
G3 X8.3626 Y0.2146 I0.2124 J0.0872
G3 X8.3973 Y0.1754 I0.195 J0.1376
G1 X8.3979 Y0.1749
G3 X8.4404 Y0.1448 I0.1634 J0.1864
G3 X8.4902 Y0.1231 I0.1351 J0.2417
G3 X8.5421 Y0.1111 I0.0961 J0.2968
G3 X8.6028 Y0.1068 I0.0607 J0.4237
G3 X8.6856 Y0.1148 I0 J0.4306
G3 X8.7574 Y0.1374 I-0.0655 J0.3342
G3 X8.8227 Y0.1757 I-0.132 J0.2995
G3 X8.8801 Y0.2298 I-0.2181 J0.2888
G3 X8.925 Y0.2949 I-0.2964 J0.2529
G3 X8.9577 Y0.3707 I-0.3781 J0.2081
G3 X8.9761 Y0.4505 I-0.4616 J0.1485
G3 X8.9828 Y0.5445 I-0.6561 J0.094
G1 X8.9828 Y0.5845
G3 X8.9328 Y0.6345 I-0.05 J0
G1 Z-1.1 F5
G1 X8.7541 Y0.6345 F15
G3 X8.6422 Y0.6307 I0 J-1.6613
G3 X8.5617 Y0.6214 I0.0569 J-0.8416
G3 X8.4811 Y0.6021 I0.0935 J-0.5666
G3 X8.4269 Y0.5777 I0.0794 J-0.2498
G3 X8.379 Y0.5392 I0.1108 J-0.1869
G3 X8.3446 Y0.4895 I0.1515 J-0.1416
G3 X8.3253 Y0.4335 I0.207 J-0.1023
G3 X8.3184 Y0.3648 I0.3355 J-0.0687
G1 X8.3184 Y0.3648
G1 X8.3184 Y0.3648
G3 X8.3234 Y0.3088 I0.3128 J0
G3 X8.3377 Y0.2599 I0.24 J0.0436
G3 X8.3626 Y0.2146 I0.2124 J0.0872
G3 X8.3973 Y0.1754 I0.195 J0.1376
G1 X8.3979 Y0.1749
G3 X8.4404 Y0.1448 I0.1634 J0.1864
G3 X8.4902 Y0.1231 I0.1351 J0.2417
G3 X8.5421 Y0.1111 I0.0961 J0.2968
G3 X8.6028 Y0.1068 I0.0607 J0.4237
G3 X8.6856 Y0.1148 I0 J0.4306
G3 X8.7574 Y0.1374 I-0.0655 J0.3342
G3 X8.8227 Y0.1757 I-0.132 J0.2995
G3 X8.8801 Y0.2298 I-0.2181 J0.2888
G3 X8.925 Y0.2949 I-0.2964 J0.2529
G3 X8.9577 Y0.3707 I-0.3781 J0.2081
G3 X8.9761 Y0.4505 I-0.4616 J0.1485
G3 X8.9828 Y0.5445 I-0.6561 J0.094
G1 X8.9828 Y0.5845
G3 X8.9328 Y0.6345 I-0.05 J0
G1 Z-1.2 F5
G1 X8.7541 Y0.6345 F15
G3 X8.6422 Y0.6307 I0 J-1.6613
G3 X8.5617 Y0.6214 I0.0569 J-0.8416
G3 X8.4811 Y0.6021 I0.0935 J-0.5666
G3 X8.4269 Y0.5777 I0.0794 J-0.2498
G3 X8.379 Y0.5392 I0.1108 J-0.1869
G3 X8.3446 Y0.4895 I0.1515 J-0.1416
G3 X8.3253 Y0.4335 I0.207 J-0.1023
G3 X8.3184 Y0.3648 I0.3355 J-0.0687
G1 X8.3184 Y0.3648
G1 X8.3184 Y0.3648
G3 X8.3234 Y0.3088 I0.3128 J0
G3 X8.3377 Y0.2599 I0.24 J0.0436
G3 X8.3626 Y0.2146 I0.2124 J0.0872
G3 X8.3973 Y0.1754 I0.195 J0.1376
G1 X8.3979 Y0.1749
G3 X8.4404 Y0.1448 I0.1634 J0.1864
G3 X8.4902 Y0.1231 I0.1351 J0.2417
G3 X8.5421 Y0.1111 I0.0961 J0.2968
G3 X8.6028 Y0.1068 I0.0607 J0.4237
G3 X8.6856 Y0.1148 I0 J0.4306
G3 X8.7574 Y0.1374 I-0.0655 J0.3342
G3 X8.8227 Y0.1757 I-0.132 J0.2995
G3 X8.8801 Y0.2298 I-0.2181 J0.2888
G3 X8.925 Y0.2949 I-0.2964 J0.2529
G3 X8.9577 Y0.3707 I-0.3781 J0.2081
G3 X8.9761 Y0.4505 I-0.4616 J0.1485
G3 X8.9828 Y0.5445 I-0.6561 J0.094
G1 X8.9828 Y0.5845
G3 X8.9328 Y0.6345 I-0.05 J0
G1 Z-1.3 F5
G1 X8.7541 Y0.6345 F15
G3 X8.6422 Y0.6307 I0 J-1.6613
G3 X8.5617 Y0.6214 I0.0569 J-0.8416
G3 X8.4811 Y0.6021 I0.0935 J-0.5666
G3 X8.4269 Y0.5777 I0.0794 J-0.2498
G3 X8.379 Y0.5392 I0.1108 J-0.1869
G3 X8.3446 Y0.4895 I0.1515 J-0.1416
G3 X8.3253 Y0.4335 I0.207 J-0.1023
G3 X8.3184 Y0.3648 I0.3355 J-0.0687
G1 X8.3184 Y0.3648
G1 X8.3184 Y0.3648
G3 X8.3234 Y0.3088 I0.3128 J0
G3 X8.3377 Y0.2599 I0.24 J0.0436
G3 X8.3626 Y0.2146 I0.2124 J0.0872
G3 X8.3973 Y0.1754 I0.195 J0.1376
G1 X8.3979 Y0.1749
G3 X8.4404 Y0.1448 I0.1634 J0.1864
G3 X8.4902 Y0.1231 I0.1351 J0.2417
G3 X8.5421 Y0.1111 I0.0961 J0.2968
G3 X8.6028 Y0.1068 I0.0607 J0.4237
G3 X8.6856 Y0.1148 I0 J0.4306
G3 X8.7574 Y0.1374 I-0.0655 J0.3342
G3 X8.8227 Y0.1757 I-0.132 J0.2995
G3 X8.8801 Y0.2298 I-0.2181 J0.2888
G3 X8.925 Y0.2949 I-0.2964 J0.2529
G3 X8.9577 Y0.3707 I-0.3781 J0.2081
G3 X8.9761 Y0.4505 I-0.4616 J0.1485
G3 X8.9828 Y0.5445 I-0.6561 J0.094
G1 X8.9828 Y0.5845
G3 X8.9328 Y0.6345 I-0.05 J0
G1 Z-1.4 F5
G1 X8.7541 Y0.6345 F15
G3 X8.6422 Y0.6307 I0 J-1.6613
G3 X8.5617 Y0.6214 I0.0569 J-0.8416
G3 X8.4811 Y0.6021 I0.0935 J-0.5666
G3 X8.4269 Y0.5777 I0.0794 J-0.2498
G3 X8.379 Y0.5392 I0.1108 J-0.1869
G3 X8.3446 Y0.4895 I0.1515 J-0.1416
G3 X8.3253 Y0.4335 I0.207 J-0.1023
G3 X8.3184 Y0.3648 I0.3355 J-0.0687
G1 X8.3184 Y0.3648
G1 X8.3184 Y0.3648
G3 X8.3234 Y0.3088 I0.3128 J0
G3 X8.3377 Y0.2599 I0.24 J0.0436
G3 X8.3626 Y0.2146 I0.2124 J0.0872
G3 X8.3973 Y0.1754 I0.195 J0.1376
G1 X8.3979 Y0.1749
G3 X8.4404 Y0.1448 I0.1634 J0.1864
G3 X8.4902 Y0.1231 I0.1351 J0.2417
G3 X8.5421 Y0.1111 I0.0961 J0.2968
G3 X8.6028 Y0.1068 I0.0607 J0.4237
G3 X8.6856 Y0.1148 I0 J0.4306
G3 X8.7574 Y0.1374 I-0.0655 J0.3342
G3 X8.8227 Y0.1757 I-0.132 J0.2995
G3 X8.8801 Y0.2298 I-0.2181 J0.2888
G3 X8.925 Y0.2949 I-0.2964 J0.2529
G3 X8.9577 Y0.3707 I-0.3781 J0.2081
G3 X8.9761 Y0.4505 I-0.4616 J0.1485
G3 X8.9828 Y0.5445 I-0.6561 J0.094
G1 X8.9828 Y0.5845
G3 X8.9328 Y0.6345 I-0.05 J0
G1 Z-1.5 F5
G1 X8.7541 Y0.6345 F15
G3 X8.6422 Y0.6307 I0 J-1.6613
G3 X8.5617 Y0.6214 I0.0569 J-0.8416
G3 X8.4811 Y0.6021 I0.0935 J-0.5666
G3 X8.4269 Y0.5777 I0.0794 J-0.2498
G3 X8.379 Y0.5392 I0.1108 J-0.1869
G3 X8.3446 Y0.4895 I0.1515 J-0.1416
G3 X8.3253 Y0.4335 I0.207 J-0.1023
G3 X8.3184 Y0.3648 I0.3355 J-0.0687
G1 X8.3184 Y0.3648
G1 X8.3184 Y0.3648
G3 X8.3234 Y0.3088 I0.3128 J0
G3 X8.3377 Y0.2599 I0.24 J0.0436
G3 X8.3626 Y0.2146 I0.2124 J0.0872
G3 X8.3973 Y0.1754 I0.195 J0.1376
G1 X8.3979 Y0.1749
G3 X8.4404 Y0.1448 I0.1634 J0.1864
G3 X8.4902 Y0.1231 I0.1351 J0.2417
G3 X8.5421 Y0.1111 I0.0961 J0.2968
G3 X8.6028 Y0.1068 I0.0607 J0.4237
G3 X8.6856 Y0.1148 I0 J0.4306
G3 X8.7574 Y0.1374 I-0.0655 J0.3342
G3 X8.8227 Y0.1757 I-0.132 J0.2995
G3 X8.8801 Y0.2298 I-0.2181 J0.2888
G3 X8.925 Y0.2949 I-0.2964 J0.2529
G3 X8.9577 Y0.3707 I-0.3781 J0.2081
G3 X8.9761 Y0.4505 I-0.4616 J0.1485
G3 X8.9828 Y0.5445 I-0.6561 J0.094
G1 X8.9828 Y0.5845
G3 X8.9328 Y0.6345 I-0.05 J0
G0 Z1
G0 X10.808 Y0.5806
G1 Z-0.1 F5
G3 X10.802 Y0.6848 I-0.9037 J0 F15
G3 X10.7859 Y0.7701 I-0.6052 J-0.0702
G3 X10.7562 Y0.8529 I-0.4927 J-0.1302
G3 X10.7165 Y0.9205 I-0.3578 J-0.1645
G3 X10.6627 Y0.9794 I-0.2869 J-0.2078
G3 X10.6013 Y1.0208 I-0.1944 J-0.2223
G3 X10.5317 Y1.0456 I-0.1344 J-0.2664
G3 X10.4514 Y1.0544 I-0.0803 J-0.3614
G3 X10.3711 Y1.0456 I0 J-0.3703
G3 X10.3014 Y1.0208 I0.0647 J-0.2913
G3 X10.24 Y0.9794 I0.133 J-0.2637
G3 X10.1862 Y0.9204 I0.2332 J-0.2667
G3 X10.147 Y0.8528 I0.3198 J-0.2308
G3 X10.1176 Y0.77 I0.4676 J-0.2125
G3 X10.1017 Y0.6847 I0.5952 J-0.1554
G3 X10.0957 Y0.5806 I0.908 J-0.1041
G1 X10.0957 Y0.5806
G1 X10.0957 Y0.5806
G3 X10.1017 Y0.4765 I0.9151 J0
G3 X10.1176 Y0.391 I0.6153 J0.0704
G3 X10.1469 Y0.3081 I0.5019 J0.1306
G3 X10.1864 Y0.2396 I0.3646 J0.1648
G3 X10.2401 Y0.1812 I0.2845 J0.2078
G3 X10.3016 Y0.1401 I0.1937 J0.2234
G3 X10.3711 Y0.1155 I0.134 J0.268
G3 X10.4514 Y0.1068 I0.0803 J0.3643
G3 X10.5316 Y0.1155 I0 J0.373
G3 X10.6012 Y0.1401 I-0.0645 J0.2926
G3 X10.6626 Y0.1812 I-0.1322 J0.2645
G3 X10.7165 Y0.2398 I-0.2308 J0.2662
G3 X10.7562 Y0.3079 I-0.3235 J0.2343
G3 X10.7859 Y0.3909 I-0.4679 J0.214
G3 X10.802 Y0.4765 I-0.5932 J0.1562
G3 X10.808 Y0.5806 I-0.8989 J0.1041
G1 Z-0.2 F5
G3 X10.802 Y0.6848 I-0.9037 J0 F15
G3 X10.7859 Y0.7701 I-0.6052 J-0.0702
G3 X10.7562 Y0.8529 I-0.4927 J-0.1302
G3 X10.7165 Y0.9205 I-0.3578 J-0.1645
G3 X10.6627 Y0.9794 I-0.2869 J-0.2078
G3 X10.6013 Y1.0208 I-0.1944 J-0.2223
G3 X10.5317 Y1.0456 I-0.1344 J-0.2664
G3 X10.4514 Y1.0544 I-0.0803 J-0.3614
G3 X10.3711 Y1.0456 I0 J-0.3703
G3 X10.3014 Y1.0208 I0.0647 J-0.2913
G3 X10.24 Y0.9794 I0.133 J-0.2637
G3 X10.1862 Y0.9204 I0.2332 J-0.2667
G3 X10.147 Y0.8528 I0.3198 J-0.2308
G3 X10.1176 Y0.77 I0.4676 J-0.2125
G3 X10.1017 Y0.6847 I0.5952 J-0.1554
G3 X10.0957 Y0.5806 I0.908 J-0.1041
G1 X10.0957 Y0.5806
G1 X10.0957 Y0.5806
G3 X10.1017 Y0.4765 I0.9151 J0
G3 X10.1176 Y0.391 I0.6153 J0.0704
G3 X10.1469 Y0.3081 I0.5019 J0.1306
G3 X10.1864 Y0.2396 I0.3646 J0.1648
G3 X10.2401 Y0.1812 I0.2845 J0.2078
G3 X10.3016 Y0.1401 I0.1937 J0.2234
G3 X10.3711 Y0.1155 I0.134 J0.268
G3 X10.4514 Y0.1068 I0.0803 J0.3643
G3 X10.5316 Y0.1155 I0 J0.373
G3 X10.6012 Y0.1401 I-0.0645 J0.2926
G3 X10.6626 Y0.1812 I-0.1322 J0.2645
G3 X10.7165 Y0.2398 I-0.2308 J0.2662
G3 X10.7562 Y0.3079 I-0.3235 J0.2343
G3 X10.7859 Y0.3909 I-0.4679 J0.214
G3 X10.802 Y0.4765 I-0.5932 J0.1562
G3 X10.808 Y0.5806 I-0.8989 J0.1041
G1 Z-0.3 F5
G3 X10.802 Y0.6848 I-0.9037 J0 F15
G3 X10.7859 Y0.7701 I-0.6052 J-0.0702
G3 X10.7562 Y0.8529 I-0.4927 J-0.1302
G3 X10.7165 Y0.9205 I-0.3578 J-0.1645
G3 X10.6627 Y0.9794 I-0.2869 J-0.2078
G3 X10.6013 Y1.0208 I-0.1944 J-0.2223
G3 X10.5317 Y1.0456 I-0.1344 J-0.2664
G3 X10.4514 Y1.0544 I-0.0803 J-0.3614
G3 X10.3711 Y1.0456 I0 J-0.3703
G3 X10.3014 Y1.0208 I0.0647 J-0.2913
G3 X10.24 Y0.9794 I0.133 J-0.2637
G3 X10.1862 Y0.9204 I0.2332 J-0.2667
G3 X10.147 Y0.8528 I0.3198 J-0.2308
G3 X10.1176 Y0.77 I0.4676 J-0.2125
G3 X10.1017 Y0.6847 I0.5952 J-0.1554
G3 X10.0957 Y0.5806 I0.908 J-0.1041
G1 X10.0957 Y0.5806
G1 X10.0957 Y0.5806
G3 X10.1017 Y0.4765 I0.9151 J0
G3 X10.1176 Y0.391 I0.6153 J0.0704
G3 X10.1469 Y0.3081 I0.5019 J0.1306
G3 X10.1864 Y0.2396 I0.3646 J0.1648
G3 X10.2401 Y0.1812 I0.2845 J0.2078
G3 X10.3016 Y0.1401 I0.1937 J0.2234
G3 X10.3711 Y0.1155 I0.134 J0.268
G3 X10.4514 Y0.1068 I0.0803 J0.3643
G3 X10.5316 Y0.1155 I0 J0.373
G3 X10.6012 Y0.1401 I-0.0645 J0.2926
G3 X10.6626 Y0.1812 I-0.1322 J0.2645
G3 X10.7165 Y0.2398 I-0.2308 J0.2662
G3 X10.7562 Y0.3079 I-0.3235 J0.2343
G3 X10.7859 Y0.3909 I-0.4679 J0.214
G3 X10.802 Y0.4765 I-0.5932 J0.1562
G3 X10.808 Y0.5806 I-0.8989 J0.1041
G1 Z-0.4 F5
G3 X10.802 Y0.6848 I-0.9037 J0 F15
G3 X10.7859 Y0.7701 I-0.6052 J-0.0702
G3 X10.7562 Y0.8529 I-0.4927 J-0.1302
G3 X10.7165 Y0.9205 I-0.3578 J-0.1645
G3 X10.6627 Y0.9794 I-0.2869 J-0.2078
G3 X10.6013 Y1.0208 I-0.1944 J-0.2223
G3 X10.5317 Y1.0456 I-0.1344 J-0.2664
G3 X10.4514 Y1.0544 I-0.0803 J-0.3614
G3 X10.3711 Y1.0456 I0 J-0.3703
G3 X10.3014 Y1.0208 I0.0647 J-0.2913
G3 X10.24 Y0.9794 I0.133 J-0.2637
G3 X10.1862 Y0.9204 I0.2332 J-0.2667
G3 X10.147 Y0.8528 I0.3198 J-0.2308
G3 X10.1176 Y0.77 I0.4676 J-0.2125
G3 X10.1017 Y0.6847 I0.5952 J-0.1554
G3 X10.0957 Y0.5806 I0.908 J-0.1041
G1 X10.0957 Y0.5806
G1 X10.0957 Y0.5806
G3 X10.1017 Y0.4765 I0.9151 J0
G3 X10.1176 Y0.391 I0.6153 J0.0704
G3 X10.1469 Y0.3081 I0.5019 J0.1306
G3 X10.1864 Y0.2396 I0.3646 J0.1648
G3 X10.2401 Y0.1812 I0.2845 J0.2078
G3 X10.3016 Y0.1401 I0.1937 J0.2234
G3 X10.3711 Y0.1155 I0.134 J0.268
G3 X10.4514 Y0.1068 I0.0803 J0.3643
G3 X10.5316 Y0.1155 I0 J0.373
G3 X10.6012 Y0.1401 I-0.0645 J0.2926
G3 X10.6626 Y0.1812 I-0.1322 J0.2645
G3 X10.7165 Y0.2398 I-0.2308 J0.2662
G3 X10.7562 Y0.3079 I-0.3235 J0.2343
G3 X10.7859 Y0.3909 I-0.4679 J0.214
G3 X10.802 Y0.4765 I-0.5932 J0.1562
G3 X10.808 Y0.5806 I-0.8989 J0.1041
G1 Z-0.5 F5
G3 X10.802 Y0.6848 I-0.9037 J0 F15
G3 X10.7859 Y0.7701 I-0.6052 J-0.0702
G3 X10.7562 Y0.8529 I-0.4927 J-0.1302
G3 X10.7165 Y0.9205 I-0.3578 J-0.1645
G3 X10.6627 Y0.9794 I-0.2869 J-0.2078
G3 X10.6013 Y1.0208 I-0.1944 J-0.2223
G3 X10.5317 Y1.0456 I-0.1344 J-0.2664
G3 X10.4514 Y1.0544 I-0.0803 J-0.3614
G3 X10.3711 Y1.0456 I0 J-0.3703
G3 X10.3014 Y1.0208 I0.0647 J-0.2913
G3 X10.24 Y0.9794 I0.133 J-0.2637
G3 X10.1862 Y0.9204 I0.2332 J-0.2667
G3 X10.147 Y0.8528 I0.3198 J-0.2308
G3 X10.1176 Y0.77 I0.4676 J-0.2125
G3 X10.1017 Y0.6847 I0.5952 J-0.1554
G3 X10.0957 Y0.5806 I0.908 J-0.1041
G1 X10.0957 Y0.5806
G1 X10.0957 Y0.5806
G3 X10.1017 Y0.4765 I0.9151 J0
G3 X10.1176 Y0.391 I0.6153 J0.0704
G3 X10.1469 Y0.3081 I0.5019 J0.1306
G3 X10.1864 Y0.2396 I0.3646 J0.1648
G3 X10.2401 Y0.1812 I0.2845 J0.2078
G3 X10.3016 Y0.1401 I0.1937 J0.2234
G3 X10.3711 Y0.1155 I0.134 J0.268
G3 X10.4514 Y0.1068 I0.0803 J0.3643
G3 X10.5316 Y0.1155 I0 J0.373
G3 X10.6012 Y0.1401 I-0.0645 J0.2926
G3 X10.6626 Y0.1812 I-0.1322 J0.2645
G3 X10.7165 Y0.2398 I-0.2308 J0.2662
G3 X10.7562 Y0.3079 I-0.3235 J0.2343
G3 X10.7859 Y0.3909 I-0.4679 J0.214
G3 X10.802 Y0.4765 I-0.5932 J0.1562
G3 X10.808 Y0.5806 I-0.8989 J0.1041
G1 Z-0.6 F5
G3 X10.802 Y0.6848 I-0.9037 J0 F15
G3 X10.7859 Y0.7701 I-0.6052 J-0.0702
G3 X10.7562 Y0.8529 I-0.4927 J-0.1302
G3 X10.7165 Y0.9205 I-0.3578 J-0.1645
G3 X10.6627 Y0.9794 I-0.2869 J-0.2078
G3 X10.6013 Y1.0208 I-0.1944 J-0.2223
G3 X10.5317 Y1.0456 I-0.1344 J-0.2664
G3 X10.4514 Y1.0544 I-0.0803 J-0.3614
G3 X10.3711 Y1.0456 I0 J-0.3703
G3 X10.3014 Y1.0208 I0.0647 J-0.2913
G3 X10.24 Y0.9794 I0.133 J-0.2637
G3 X10.1862 Y0.9204 I0.2332 J-0.2667
G3 X10.147 Y0.8528 I0.3198 J-0.2308
G3 X10.1176 Y0.77 I0.4676 J-0.2125
G3 X10.1017 Y0.6847 I0.5952 J-0.1554
G3 X10.0957 Y0.5806 I0.908 J-0.1041
G1 X10.0957 Y0.5806
G1 X10.0957 Y0.5806
G3 X10.1017 Y0.4765 I0.9151 J0
G3 X10.1176 Y0.391 I0.6153 J0.0704
G3 X10.1469 Y0.3081 I0.5019 J0.1306
G3 X10.1864 Y0.2396 I0.3646 J0.1648
G3 X10.2401 Y0.1812 I0.2845 J0.2078
G3 X10.3016 Y0.1401 I0.1937 J0.2234
G3 X10.3711 Y0.1155 I0.134 J0.268
G3 X10.4514 Y0.1068 I0.0803 J0.3643
G3 X10.5316 Y0.1155 I0 J0.373
G3 X10.6012 Y0.1401 I-0.0645 J0.2926
G3 X10.6626 Y0.1812 I-0.1322 J0.2645
G3 X10.7165 Y0.2398 I-0.2308 J0.2662
G3 X10.7562 Y0.3079 I-0.3235 J0.2343
G3 X10.7859 Y0.3909 I-0.4679 J0.214
G3 X10.802 Y0.4765 I-0.5932 J0.1562
G3 X10.808 Y0.5806 I-0.8989 J0.1041
G1 Z-0.7 F5
G3 X10.802 Y0.6848 I-0.9037 J0 F15
G3 X10.7859 Y0.7701 I-0.6052 J-0.0702
G3 X10.7562 Y0.8529 I-0.4927 J-0.1302
G3 X10.7165 Y0.9205 I-0.3578 J-0.1645
G3 X10.6627 Y0.9794 I-0.2869 J-0.2078
G3 X10.6013 Y1.0208 I-0.1944 J-0.2223
G3 X10.5317 Y1.0456 I-0.1344 J-0.2664
G3 X10.4514 Y1.0544 I-0.0803 J-0.3614
G3 X10.3711 Y1.0456 I0 J-0.3703
G3 X10.3014 Y1.0208 I0.0647 J-0.2913
G3 X10.24 Y0.9794 I0.133 J-0.2637
G3 X10.1862 Y0.9204 I0.2332 J-0.2667
G3 X10.147 Y0.8528 I0.3198 J-0.2308
G3 X10.1176 Y0.77 I0.4676 J-0.2125
G3 X10.1017 Y0.6847 I0.5952 J-0.1554
G3 X10.0957 Y0.5806 I0.908 J-0.1041
G1 X10.0957 Y0.5806
G1 X10.0957 Y0.5806
G3 X10.1017 Y0.4765 I0.9151 J0
G3 X10.1176 Y0.391 I0.6153 J0.0704
G3 X10.1469 Y0.3081 I0.5019 J0.1306
G3 X10.1864 Y0.2396 I0.3646 J0.1648
G3 X10.2401 Y0.1812 I0.2845 J0.2078
G3 X10.3016 Y0.1401 I0.1937 J0.2234
G3 X10.3711 Y0.1155 I0.134 J0.268
G3 X10.4514 Y0.1068 I0.0803 J0.3643
G3 X10.5316 Y0.1155 I0 J0.373
G3 X10.6012 Y0.1401 I-0.0645 J0.2926
G3 X10.6626 Y0.1812 I-0.1322 J0.2645
G3 X10.7165 Y0.2398 I-0.2308 J0.2662
G3 X10.7562 Y0.3079 I-0.3235 J0.2343
G3 X10.7859 Y0.3909 I-0.4679 J0.214
G3 X10.802 Y0.4765 I-0.5932 J0.1562
G3 X10.808 Y0.5806 I-0.8989 J0.1041
G1 Z-0.8 F5
G3 X10.802 Y0.6848 I-0.9037 J0 F15
G3 X10.7859 Y0.7701 I-0.6052 J-0.0702
G3 X10.7562 Y0.8529 I-0.4927 J-0.1302
G3 X10.7165 Y0.9205 I-0.3578 J-0.1645
G3 X10.6627 Y0.9794 I-0.2869 J-0.2078
G3 X10.6013 Y1.0208 I-0.1944 J-0.2223
G3 X10.5317 Y1.0456 I-0.1344 J-0.2664
G3 X10.4514 Y1.0544 I-0.0803 J-0.3614
G3 X10.3711 Y1.0456 I0 J-0.3703
G3 X10.3014 Y1.0208 I0.0647 J-0.2913
G3 X10.24 Y0.9794 I0.133 J-0.2637
G3 X10.1862 Y0.9204 I0.2332 J-0.2667
G3 X10.147 Y0.8528 I0.3198 J-0.2308
G3 X10.1176 Y0.77 I0.4676 J-0.2125
G3 X10.1017 Y0.6847 I0.5952 J-0.1554
G3 X10.0957 Y0.5806 I0.908 J-0.1041
G1 X10.0957 Y0.5806
G1 X10.0957 Y0.5806
G3 X10.1017 Y0.4765 I0.9151 J0
G3 X10.1176 Y0.391 I0.6153 J0.0704
G3 X10.1469 Y0.3081 I0.5019 J0.1306
G3 X10.1864 Y0.2396 I0.3646 J0.1648
G3 X10.2401 Y0.1812 I0.2845 J0.2078
G3 X10.3016 Y0.1401 I0.1937 J0.2234
G3 X10.3711 Y0.1155 I0.134 J0.268
G3 X10.4514 Y0.1068 I0.0803 J0.3643
G3 X10.5316 Y0.1155 I0 J0.373
G3 X10.6012 Y0.1401 I-0.0645 J0.2926
G3 X10.6626 Y0.1812 I-0.1322 J0.2645
G3 X10.7165 Y0.2398 I-0.2308 J0.2662
G3 X10.7562 Y0.3079 I-0.3235 J0.2343
G3 X10.7859 Y0.3909 I-0.4679 J0.214
G3 X10.802 Y0.4765 I-0.5932 J0.1562
G3 X10.808 Y0.5806 I-0.8989 J0.1041
G1 Z-0.9 F5
G3 X10.802 Y0.6848 I-0.9037 J0 F15
G3 X10.7859 Y0.7701 I-0.6052 J-0.0702
G3 X10.7562 Y0.8529 I-0.4927 J-0.1302
G3 X10.7165 Y0.9205 I-0.3578 J-0.1645
G3 X10.6627 Y0.9794 I-0.2869 J-0.2078
G3 X10.6013 Y1.0208 I-0.1944 J-0.2223
G3 X10.5317 Y1.0456 I-0.1344 J-0.2664
G3 X10.4514 Y1.0544 I-0.0803 J-0.3614
G3 X10.3711 Y1.0456 I0 J-0.3703
G3 X10.3014 Y1.0208 I0.0647 J-0.2913
G3 X10.24 Y0.9794 I0.133 J-0.2637
G3 X10.1862 Y0.9204 I0.2332 J-0.2667
G3 X10.147 Y0.8528 I0.3198 J-0.2308
G3 X10.1176 Y0.77 I0.4676 J-0.2125
G3 X10.1017 Y0.6847 I0.5952 J-0.1554
G3 X10.0957 Y0.5806 I0.908 J-0.1041
G1 X10.0957 Y0.5806
G1 X10.0957 Y0.5806
G3 X10.1017 Y0.4765 I0.9151 J0
G3 X10.1176 Y0.391 I0.6153 J0.0704
G3 X10.1469 Y0.3081 I0.5019 J0.1306
G3 X10.1864 Y0.2396 I0.3646 J0.1648
G3 X10.2401 Y0.1812 I0.2845 J0.2078
G3 X10.3016 Y0.1401 I0.1937 J0.2234
G3 X10.3711 Y0.1155 I0.134 J0.268
G3 X10.4514 Y0.1068 I0.0803 J0.3643
G3 X10.5316 Y0.1155 I0 J0.373
G3 X10.6012 Y0.1401 I-0.0645 J0.2926
G3 X10.6626 Y0.1812 I-0.1322 J0.2645
G3 X10.7165 Y0.2398 I-0.2308 J0.2662
G3 X10.7562 Y0.3079 I-0.3235 J0.2343
G3 X10.7859 Y0.3909 I-0.4679 J0.214
G3 X10.802 Y0.4765 I-0.5932 J0.1562
G3 X10.808 Y0.5806 I-0.8989 J0.1041
G1 Z-1 F5
G3 X10.802 Y0.6848 I-0.9037 J0 F15
G3 X10.7859 Y0.7701 I-0.6052 J-0.0702
G3 X10.7562 Y0.8529 I-0.4927 J-0.1302
G3 X10.7165 Y0.9205 I-0.3578 J-0.1645
G3 X10.6627 Y0.9794 I-0.2869 J-0.2078
G3 X10.6013 Y1.0208 I-0.1944 J-0.2223
G3 X10.5317 Y1.0456 I-0.1344 J-0.2664
G3 X10.4514 Y1.0544 I-0.0803 J-0.3614
G3 X10.3711 Y1.0456 I0 J-0.3703
G3 X10.3014 Y1.0208 I0.0647 J-0.2913
G3 X10.24 Y0.9794 I0.133 J-0.2637
G3 X10.1862 Y0.9204 I0.2332 J-0.2667
G3 X10.147 Y0.8528 I0.3198 J-0.2308
G3 X10.1176 Y0.77 I0.4676 J-0.2125
G3 X10.1017 Y0.6847 I0.5952 J-0.1554
G3 X10.0957 Y0.5806 I0.908 J-0.1041
G1 X10.0957 Y0.5806
G1 X10.0957 Y0.5806
G3 X10.1017 Y0.4765 I0.9151 J0
G3 X10.1176 Y0.391 I0.6153 J0.0704
G3 X10.1469 Y0.3081 I0.5019 J0.1306
G3 X10.1864 Y0.2396 I0.3646 J0.1648
G3 X10.2401 Y0.1812 I0.2845 J0.2078
G3 X10.3016 Y0.1401 I0.1937 J0.2234
G3 X10.3711 Y0.1155 I0.134 J0.268
G3 X10.4514 Y0.1068 I0.0803 J0.3643
G3 X10.5316 Y0.1155 I0 J0.373
G3 X10.6012 Y0.1401 I-0.0645 J0.2926
G3 X10.6626 Y0.1812 I-0.1322 J0.2645
G3 X10.7165 Y0.2398 I-0.2308 J0.2662
G3 X10.7562 Y0.3079 I-0.3235 J0.2343
G3 X10.7859 Y0.3909 I-0.4679 J0.214
G3 X10.802 Y0.4765 I-0.5932 J0.1562
G3 X10.808 Y0.5806 I-0.8989 J0.1041
G1 Z-1.1 F5
G3 X10.802 Y0.6848 I-0.9037 J0 F15
G3 X10.7859 Y0.7701 I-0.6052 J-0.0702
G3 X10.7562 Y0.8529 I-0.4927 J-0.1302
G3 X10.7165 Y0.9205 I-0.3578 J-0.1645
G3 X10.6627 Y0.9794 I-0.2869 J-0.2078
G3 X10.6013 Y1.0208 I-0.1944 J-0.2223
G3 X10.5317 Y1.0456 I-0.1344 J-0.2664
G3 X10.4514 Y1.0544 I-0.0803 J-0.3614
G3 X10.3711 Y1.0456 I0 J-0.3703
G3 X10.3014 Y1.0208 I0.0647 J-0.2913
G3 X10.24 Y0.9794 I0.133 J-0.2637
G3 X10.1862 Y0.9204 I0.2332 J-0.2667
G3 X10.147 Y0.8528 I0.3198 J-0.2308
G3 X10.1176 Y0.77 I0.4676 J-0.2125
G3 X10.1017 Y0.6847 I0.5952 J-0.1554
G3 X10.0957 Y0.5806 I0.908 J-0.1041
G1 X10.0957 Y0.5806
G1 X10.0957 Y0.5806
G3 X10.1017 Y0.4765 I0.9151 J0
G3 X10.1176 Y0.391 I0.6153 J0.0704
G3 X10.1469 Y0.3081 I0.5019 J0.1306
G3 X10.1864 Y0.2396 I0.3646 J0.1648
G3 X10.2401 Y0.1812 I0.2845 J0.2078
G3 X10.3016 Y0.1401 I0.1937 J0.2234
G3 X10.3711 Y0.1155 I0.134 J0.268
G3 X10.4514 Y0.1068 I0.0803 J0.3643
G3 X10.5316 Y0.1155 I0 J0.373
G3 X10.6012 Y0.1401 I-0.0645 J0.2926
G3 X10.6626 Y0.1812 I-0.1322 J0.2645
G3 X10.7165 Y0.2398 I-0.2308 J0.2662
G3 X10.7562 Y0.3079 I-0.3235 J0.2343
G3 X10.7859 Y0.3909 I-0.4679 J0.214
G3 X10.802 Y0.4765 I-0.5932 J0.1562
G3 X10.808 Y0.5806 I-0.8989 J0.1041
G1 Z-1.2 F5
G3 X10.802 Y0.6848 I-0.9037 J0 F15
G3 X10.7859 Y0.7701 I-0.6052 J-0.0702
G3 X10.7562 Y0.8529 I-0.4927 J-0.1302
G3 X10.7165 Y0.9205 I-0.3578 J-0.1645
G3 X10.6627 Y0.9794 I-0.2869 J-0.2078
G3 X10.6013 Y1.0208 I-0.1944 J-0.2223
G3 X10.5317 Y1.0456 I-0.1344 J-0.2664
G3 X10.4514 Y1.0544 I-0.0803 J-0.3614
G3 X10.3711 Y1.0456 I0 J-0.3703
G3 X10.3014 Y1.0208 I0.0647 J-0.2913
G3 X10.24 Y0.9794 I0.133 J-0.2637
G3 X10.1862 Y0.9204 I0.2332 J-0.2667
G3 X10.147 Y0.8528 I0.3198 J-0.2308
G3 X10.1176 Y0.77 I0.4676 J-0.2125
G3 X10.1017 Y0.6847 I0.5952 J-0.1554
G3 X10.0957 Y0.5806 I0.908 J-0.1041
G1 X10.0957 Y0.5806
G1 X10.0957 Y0.5806
G3 X10.1017 Y0.4765 I0.9151 J0
G3 X10.1176 Y0.391 I0.6153 J0.0704
G3 X10.1469 Y0.3081 I0.5019 J0.1306
G3 X10.1864 Y0.2396 I0.3646 J0.1648
G3 X10.2401 Y0.1812 I0.2845 J0.2078
G3 X10.3016 Y0.1401 I0.1937 J0.2234
G3 X10.3711 Y0.1155 I0.134 J0.268
G3 X10.4514 Y0.1068 I0.0803 J0.3643
G3 X10.5316 Y0.1155 I0 J0.373
G3 X10.6012 Y0.1401 I-0.0645 J0.2926
G3 X10.6626 Y0.1812 I-0.1322 J0.2645
G3 X10.7165 Y0.2398 I-0.2308 J0.2662
G3 X10.7562 Y0.3079 I-0.3235 J0.2343
G3 X10.7859 Y0.3909 I-0.4679 J0.214
G3 X10.802 Y0.4765 I-0.5932 J0.1562
G3 X10.808 Y0.5806 I-0.8989 J0.1041
G1 Z-1.3 F5
G3 X10.802 Y0.6848 I-0.9037 J0 F15
G3 X10.7859 Y0.7701 I-0.6052 J-0.0702
G3 X10.7562 Y0.8529 I-0.4927 J-0.1302
G3 X10.7165 Y0.9205 I-0.3578 J-0.1645
G3 X10.6627 Y0.9794 I-0.2869 J-0.2078
G3 X10.6013 Y1.0208 I-0.1944 J-0.2223
G3 X10.5317 Y1.0456 I-0.1344 J-0.2664
G3 X10.4514 Y1.0544 I-0.0803 J-0.3614
G3 X10.3711 Y1.0456 I0 J-0.3703
G3 X10.3014 Y1.0208 I0.0647 J-0.2913
G3 X10.24 Y0.9794 I0.133 J-0.2637
G3 X10.1862 Y0.9204 I0.2332 J-0.2667
G3 X10.147 Y0.8528 I0.3198 J-0.2308
G3 X10.1176 Y0.77 I0.4676 J-0.2125
G3 X10.1017 Y0.6847 I0.5952 J-0.1554
G3 X10.0957 Y0.5806 I0.908 J-0.1041
G1 X10.0957 Y0.5806
G1 X10.0957 Y0.5806
G3 X10.1017 Y0.4765 I0.9151 J0
G3 X10.1176 Y0.391 I0.6153 J0.0704
G3 X10.1469 Y0.3081 I0.5019 J0.1306
G3 X10.1864 Y0.2396 I0.3646 J0.1648
G3 X10.2401 Y0.1812 I0.2845 J0.2078
G3 X10.3016 Y0.1401 I0.1937 J0.2234
G3 X10.3711 Y0.1155 I0.134 J0.268
G3 X10.4514 Y0.1068 I0.0803 J0.3643
G3 X10.5316 Y0.1155 I0 J0.373
G3 X10.6012 Y0.1401 I-0.0645 J0.2926
G3 X10.6626 Y0.1812 I-0.1322 J0.2645
G3 X10.7165 Y0.2398 I-0.2308 J0.2662
G3 X10.7562 Y0.3079 I-0.3235 J0.2343
G3 X10.7859 Y0.3909 I-0.4679 J0.214
G3 X10.802 Y0.4765 I-0.5932 J0.1562
G3 X10.808 Y0.5806 I-0.8989 J0.1041
G1 Z-1.4 F5
G3 X10.802 Y0.6848 I-0.9037 J0 F15
G3 X10.7859 Y0.7701 I-0.6052 J-0.0702
G3 X10.7562 Y0.8529 I-0.4927 J-0.1302
G3 X10.7165 Y0.9205 I-0.3578 J-0.1645
G3 X10.6627 Y0.9794 I-0.2869 J-0.2078
G3 X10.6013 Y1.0208 I-0.1944 J-0.2223
G3 X10.5317 Y1.0456 I-0.1344 J-0.2664
G3 X10.4514 Y1.0544 I-0.0803 J-0.3614
G3 X10.3711 Y1.0456 I0 J-0.3703
G3 X10.3014 Y1.0208 I0.0647 J-0.2913
G3 X10.24 Y0.9794 I0.133 J-0.2637
G3 X10.1862 Y0.9204 I0.2332 J-0.2667
G3 X10.147 Y0.8528 I0.3198 J-0.2308
G3 X10.1176 Y0.77 I0.4676 J-0.2125
G3 X10.1017 Y0.6847 I0.5952 J-0.1554
G3 X10.0957 Y0.5806 I0.908 J-0.1041
G1 X10.0957 Y0.5806
G1 X10.0957 Y0.5806
G3 X10.1017 Y0.4765 I0.9151 J0
G3 X10.1176 Y0.391 I0.6153 J0.0704
G3 X10.1469 Y0.3081 I0.5019 J0.1306
G3 X10.1864 Y0.2396 I0.3646 J0.1648
G3 X10.2401 Y0.1812 I0.2845 J0.2078
G3 X10.3016 Y0.1401 I0.1937 J0.2234
G3 X10.3711 Y0.1155 I0.134 J0.268
G3 X10.4514 Y0.1068 I0.0803 J0.3643
G3 X10.5316 Y0.1155 I0 J0.373
G3 X10.6012 Y0.1401 I-0.0645 J0.2926
G3 X10.6626 Y0.1812 I-0.1322 J0.2645
G3 X10.7165 Y0.2398 I-0.2308 J0.2662
G3 X10.7562 Y0.3079 I-0.3235 J0.2343
G3 X10.7859 Y0.3909 I-0.4679 J0.214
G3 X10.802 Y0.4765 I-0.5932 J0.1562
G3 X10.808 Y0.5806 I-0.8989 J0.1041
G1 Z-1.5 F5
G3 X10.802 Y0.6848 I-0.9037 J0 F15
G3 X10.7859 Y0.7701 I-0.6052 J-0.0702
G3 X10.7562 Y0.8529 I-0.4927 J-0.1302
G3 X10.7165 Y0.9205 I-0.3578 J-0.1645
G3 X10.6627 Y0.9794 I-0.2869 J-0.2078
G3 X10.6013 Y1.0208 I-0.1944 J-0.2223
G3 X10.5317 Y1.0456 I-0.1344 J-0.2664
G3 X10.4514 Y1.0544 I-0.0803 J-0.3614
G3 X10.3711 Y1.0456 I0 J-0.3703
G3 X10.3014 Y1.0208 I0.0647 J-0.2913
G3 X10.24 Y0.9794 I0.133 J-0.2637
G3 X10.1862 Y0.9204 I0.2332 J-0.2667
G3 X10.147 Y0.8528 I0.3198 J-0.2308
G3 X10.1176 Y0.77 I0.4676 J-0.2125
G3 X10.1017 Y0.6847 I0.5952 J-0.1554
G3 X10.0957 Y0.5806 I0.908 J-0.1041
G1 X10.0957 Y0.5806
G1 X10.0957 Y0.5806
G3 X10.1017 Y0.4765 I0.9151 J0
G3 X10.1176 Y0.391 I0.6153 J0.0704
G3 X10.1469 Y0.3081 I0.5019 J0.1306
G3 X10.1864 Y0.2396 I0.3646 J0.1648
G3 X10.2401 Y0.1812 I0.2845 J0.2078
G3 X10.3016 Y0.1401 I0.1937 J0.2234
G3 X10.3711 Y0.1155 I0.134 J0.268
G3 X10.4514 Y0.1068 I0.0803 J0.3643
G3 X10.5316 Y0.1155 I0 J0.373
G3 X10.6012 Y0.1401 I-0.0645 J0.2926
G3 X10.6626 Y0.1812 I-0.1322 J0.2645
G3 X10.7165 Y0.2398 I-0.2308 J0.2662
G3 X10.7562 Y0.3079 I-0.3235 J0.2343
G3 X10.7859 Y0.3909 I-0.4679 J0.214
G3 X10.802 Y0.4765 I-0.5932 J0.1562
G3 X10.808 Y0.5806 I-0.8989 J0.1041
G0 Z1
M5
M30
