(Generated by PartKam Version 0.05)

G20 G90 G40

(cut bridesmaid)
G0 Z1
T0 M6
G17
M3
G0 X3.6143 Y0.0847
G1 Z-0.1 F5
G1 X3.6143 Y1.5043 F15
G1 X3.5346 Y1.5043
G1 X3.5346 Y0.9625
G2 X3.4413 Y0.9374 I-0.05 J0
G3 X3.4137 Y0.979 I-0.3562 J-0.2066
G3 X3.3849 Y1.0122 I-0.2598 J-0.1963
G3 X3.3523 Y1.0406 I-0.2123 J-0.2109
G3 X3.3173 Y1.063 I-0.167 J-0.2224
G1 X3.3167 Y1.0633
G3 X3.2791 Y1.0808 I-0.1386 J-0.2489
G3 X3.2351 Y1.0942 I-0.1208 J-0.3188
G3 X3.1889 Y1.1019 I-0.0872 J-0.3771
G3 X3.134 Y1.1048 I-0.0549 J-0.5153
G3 X3.0481 Y1.0955 I0 J-0.4004
G3 X2.9761 Y1.0704 I0.0687 J-0.3126
G3 X2.9118 Y1.0289 I0.1425 J-0.2911
G3 X2.8501 Y0.9658 I0.2685 J-0.3243
G3 X2.802 Y0.8904 I0.3618 J-0.2836
G3 X2.7657 Y0.7992 I0.4859 J-0.2468
G3 X2.7448 Y0.7017 I0.6081 J-0.1813
G3 X2.7367 Y0.5806 I0.9095 J-0.1211
G3 X2.7448 Y0.4595 I0.9175 J0
G3 X2.7657 Y0.362 I0.629 J0.0837
G3 X2.802 Y0.2709 I0.5223 J0.1557
G3 X2.85 Y0.1956 I0.4098 J0.2082
G3 X2.9118 Y0.1323 I0.3303 J0.261
G3 X2.9761 Y0.0909 I0.2067 J0.2496
G3 X3.0481 Y0.0657 I0.1407 J0.2875
G3 X3.134 Y0.0564 I0.086 J0.3911
G3 X3.189 Y0.0593 I0 J0.53
G3 X3.2353 Y0.0669 I-0.041 J0.3931
G3 X3.2794 Y0.08 I-0.0767 J0.3388
G3 X3.3169 Y0.0971 I-0.1001 J0.2698
G3 X3.352 Y0.1199 I-0.1379 J0.2505
G3 X3.3848 Y0.1487 I-0.1856 J0.2442
G3 X3.4136 Y0.1821 I-0.2367 J0.2336
G3 X3.4413 Y0.2239 I-0.3332 J0.2511
G2 X3.5346 Y0.1988 I0.0433 J-0.0251
G1 X3.5346 Y0.0847
G1 X3.6143 Y0.0847
G1 Z-0.2 F5
G1 X3.6143 Y1.5043 F15
G1 X3.5346 Y1.5043
G1 X3.5346 Y0.9625
G2 X3.4413 Y0.9374 I-0.05 J0
G3 X3.4137 Y0.979 I-0.3562 J-0.2066
G3 X3.3849 Y1.0122 I-0.2598 J-0.1963
G3 X3.3523 Y1.0406 I-0.2123 J-0.2109
G3 X3.3173 Y1.063 I-0.167 J-0.2224
G1 X3.3167 Y1.0633
G3 X3.2791 Y1.0808 I-0.1386 J-0.2489
G3 X3.2351 Y1.0942 I-0.1208 J-0.3188
G3 X3.1889 Y1.1019 I-0.0872 J-0.3771
G3 X3.134 Y1.1048 I-0.0549 J-0.5153
G3 X3.0481 Y1.0955 I0 J-0.4004
G3 X2.9761 Y1.0704 I0.0687 J-0.3126
G3 X2.9118 Y1.0289 I0.1425 J-0.2911
G3 X2.8501 Y0.9658 I0.2685 J-0.3243
G3 X2.802 Y0.8904 I0.3618 J-0.2836
G3 X2.7657 Y0.7992 I0.4859 J-0.2468
G3 X2.7448 Y0.7017 I0.6081 J-0.1813
G3 X2.7367 Y0.5806 I0.9095 J-0.1211
G3 X2.7448 Y0.4595 I0.9175 J0
G3 X2.7657 Y0.362 I0.629 J0.0837
G3 X2.802 Y0.2709 I0.5223 J0.1557
G3 X2.85 Y0.1956 I0.4098 J0.2082
G3 X2.9118 Y0.1323 I0.3303 J0.261
G3 X2.9761 Y0.0909 I0.2067 J0.2496
G3 X3.0481 Y0.0657 I0.1407 J0.2875
G3 X3.134 Y0.0564 I0.086 J0.3911
G3 X3.189 Y0.0593 I0 J0.53
G3 X3.2353 Y0.0669 I-0.041 J0.3931
G3 X3.2794 Y0.08 I-0.0767 J0.3388
G3 X3.3169 Y0.0971 I-0.1001 J0.2698
G3 X3.352 Y0.1199 I-0.1379 J0.2505
G3 X3.3848 Y0.1487 I-0.1856 J0.2442
G3 X3.4136 Y0.1821 I-0.2367 J0.2336
G3 X3.4413 Y0.2239 I-0.3332 J0.2511
G2 X3.5346 Y0.1988 I0.0433 J-0.0251
G1 X3.5346 Y0.0847
G1 X3.6143 Y0.0847
G1 Z-0.3 F5
G1 X3.6143 Y1.5043 F15
G1 X3.5346 Y1.5043
G1 X3.5346 Y0.9625
G2 X3.4413 Y0.9374 I-0.05 J0
G3 X3.4137 Y0.979 I-0.3562 J-0.2066
G3 X3.3849 Y1.0122 I-0.2598 J-0.1963
G3 X3.3523 Y1.0406 I-0.2123 J-0.2109
G3 X3.3173 Y1.063 I-0.167 J-0.2224
G1 X3.3167 Y1.0633
G3 X3.2791 Y1.0808 I-0.1386 J-0.2489
G3 X3.2351 Y1.0942 I-0.1208 J-0.3188
G3 X3.1889 Y1.1019 I-0.0872 J-0.3771
G3 X3.134 Y1.1048 I-0.0549 J-0.5153
G3 X3.0481 Y1.0955 I0 J-0.4004
G3 X2.9761 Y1.0704 I0.0687 J-0.3126
G3 X2.9118 Y1.0289 I0.1425 J-0.2911
G3 X2.8501 Y0.9658 I0.2685 J-0.3243
G3 X2.802 Y0.8904 I0.3618 J-0.2836
G3 X2.7657 Y0.7992 I0.4859 J-0.2468
G3 X2.7448 Y0.7017 I0.6081 J-0.1813
G3 X2.7367 Y0.5806 I0.9095 J-0.1211
G3 X2.7448 Y0.4595 I0.9175 J0
G3 X2.7657 Y0.362 I0.629 J0.0837
G3 X2.802 Y0.2709 I0.5223 J0.1557
G3 X2.85 Y0.1956 I0.4098 J0.2082
G3 X2.9118 Y0.1323 I0.3303 J0.261
G3 X2.9761 Y0.0909 I0.2067 J0.2496
G3 X3.0481 Y0.0657 I0.1407 J0.2875
G3 X3.134 Y0.0564 I0.086 J0.3911
G3 X3.189 Y0.0593 I0 J0.53
G3 X3.2353 Y0.0669 I-0.041 J0.3931
G3 X3.2794 Y0.08 I-0.0767 J0.3388
G3 X3.3169 Y0.0971 I-0.1001 J0.2698
G3 X3.352 Y0.1199 I-0.1379 J0.2505
G3 X3.3848 Y0.1487 I-0.1856 J0.2442
G3 X3.4136 Y0.1821 I-0.2367 J0.2336
G3 X3.4413 Y0.2239 I-0.3332 J0.2511
G2 X3.5346 Y0.1988 I0.0433 J-0.0251
G1 X3.5346 Y0.0847
G1 X3.6143 Y0.0847
G1 Z-0.4 F5
G1 X3.6143 Y1.5043 F15
G1 X3.5346 Y1.5043
G1 X3.5346 Y0.9625
G2 X3.4413 Y0.9374 I-0.05 J0
G3 X3.4137 Y0.979 I-0.3562 J-0.2066
G3 X3.3849 Y1.0122 I-0.2598 J-0.1963
G3 X3.3523 Y1.0406 I-0.2123 J-0.2109
G3 X3.3173 Y1.063 I-0.167 J-0.2224
G1 X3.3167 Y1.0633
G3 X3.2791 Y1.0808 I-0.1386 J-0.2489
G3 X3.2351 Y1.0942 I-0.1208 J-0.3188
G3 X3.1889 Y1.1019 I-0.0872 J-0.3771
G3 X3.134 Y1.1048 I-0.0549 J-0.5153
G3 X3.0481 Y1.0955 I0 J-0.4004
G3 X2.9761 Y1.0704 I0.0687 J-0.3126
G3 X2.9118 Y1.0289 I0.1425 J-0.2911
G3 X2.8501 Y0.9658 I0.2685 J-0.3243
G3 X2.802 Y0.8904 I0.3618 J-0.2836
G3 X2.7657 Y0.7992 I0.4859 J-0.2468
G3 X2.7448 Y0.7017 I0.6081 J-0.1813
G3 X2.7367 Y0.5806 I0.9095 J-0.1211
G3 X2.7448 Y0.4595 I0.9175 J0
G3 X2.7657 Y0.362 I0.629 J0.0837
G3 X2.802 Y0.2709 I0.5223 J0.1557
G3 X2.85 Y0.1956 I0.4098 J0.2082
G3 X2.9118 Y0.1323 I0.3303 J0.261
G3 X2.9761 Y0.0909 I0.2067 J0.2496
G3 X3.0481 Y0.0657 I0.1407 J0.2875
G3 X3.134 Y0.0564 I0.086 J0.3911
G3 X3.189 Y0.0593 I0 J0.53
G3 X3.2353 Y0.0669 I-0.041 J0.3931
G3 X3.2794 Y0.08 I-0.0767 J0.3388
G3 X3.3169 Y0.0971 I-0.1001 J0.2698
G3 X3.352 Y0.1199 I-0.1379 J0.2505
G3 X3.3848 Y0.1487 I-0.1856 J0.2442
G3 X3.4136 Y0.1821 I-0.2367 J0.2336
G3 X3.4413 Y0.2239 I-0.3332 J0.2511
G2 X3.5346 Y0.1988 I0.0433 J-0.0251
G1 X3.5346 Y0.0847
G1 X3.6143 Y0.0847
G1 Z-0.5 F5
G1 X3.6143 Y1.5043 F15
G1 X3.5346 Y1.5043
G1 X3.5346 Y0.9625
G2 X3.4413 Y0.9374 I-0.05 J0
G3 X3.4137 Y0.979 I-0.3562 J-0.2066
G3 X3.3849 Y1.0122 I-0.2598 J-0.1963
G3 X3.3523 Y1.0406 I-0.2123 J-0.2109
G3 X3.3173 Y1.063 I-0.167 J-0.2224
G1 X3.3167 Y1.0633
G3 X3.2791 Y1.0808 I-0.1386 J-0.2489
G3 X3.2351 Y1.0942 I-0.1208 J-0.3188
G3 X3.1889 Y1.1019 I-0.0872 J-0.3771
G3 X3.134 Y1.1048 I-0.0549 J-0.5153
G3 X3.0481 Y1.0955 I0 J-0.4004
G3 X2.9761 Y1.0704 I0.0687 J-0.3126
G3 X2.9118 Y1.0289 I0.1425 J-0.2911
G3 X2.8501 Y0.9658 I0.2685 J-0.3243
G3 X2.802 Y0.8904 I0.3618 J-0.2836
G3 X2.7657 Y0.7992 I0.4859 J-0.2468
G3 X2.7448 Y0.7017 I0.6081 J-0.1813
G3 X2.7367 Y0.5806 I0.9095 J-0.1211
G3 X2.7448 Y0.4595 I0.9175 J0
G3 X2.7657 Y0.362 I0.629 J0.0837
G3 X2.802 Y0.2709 I0.5223 J0.1557
G3 X2.85 Y0.1956 I0.4098 J0.2082
G3 X2.9118 Y0.1323 I0.3303 J0.261
G3 X2.9761 Y0.0909 I0.2067 J0.2496
G3 X3.0481 Y0.0657 I0.1407 J0.2875
G3 X3.134 Y0.0564 I0.086 J0.3911
G3 X3.189 Y0.0593 I0 J0.53
G3 X3.2353 Y0.0669 I-0.041 J0.3931
G3 X3.2794 Y0.08 I-0.0767 J0.3388
G3 X3.3169 Y0.0971 I-0.1001 J0.2698
G3 X3.352 Y0.1199 I-0.1379 J0.2505
G3 X3.3848 Y0.1487 I-0.1856 J0.2442
G3 X3.4136 Y0.1821 I-0.2367 J0.2336
G3 X3.4413 Y0.2239 I-0.3332 J0.2511
G2 X3.5346 Y0.1988 I0.0433 J-0.0251
G1 X3.5346 Y0.0847
G1 X3.6143 Y0.0847
G1 Z-0.6 F5
G1 X3.6143 Y1.5043 F15
G1 X3.5346 Y1.5043
G1 X3.5346 Y0.9625
G2 X3.4413 Y0.9374 I-0.05 J0
G3 X3.4137 Y0.979 I-0.3562 J-0.2066
G3 X3.3849 Y1.0122 I-0.2598 J-0.1963
G3 X3.3523 Y1.0406 I-0.2123 J-0.2109
G3 X3.3173 Y1.063 I-0.167 J-0.2224
G1 X3.3167 Y1.0633
G3 X3.2791 Y1.0808 I-0.1386 J-0.2489
G3 X3.2351 Y1.0942 I-0.1208 J-0.3188
G3 X3.1889 Y1.1019 I-0.0872 J-0.3771
G3 X3.134 Y1.1048 I-0.0549 J-0.5153
G3 X3.0481 Y1.0955 I0 J-0.4004
G3 X2.9761 Y1.0704 I0.0687 J-0.3126
G3 X2.9118 Y1.0289 I0.1425 J-0.2911
G3 X2.8501 Y0.9658 I0.2685 J-0.3243
G3 X2.802 Y0.8904 I0.3618 J-0.2836
G3 X2.7657 Y0.7992 I0.4859 J-0.2468
G3 X2.7448 Y0.7017 I0.6081 J-0.1813
G3 X2.7367 Y0.5806 I0.9095 J-0.1211
G3 X2.7448 Y0.4595 I0.9175 J0
G3 X2.7657 Y0.362 I0.629 J0.0837
G3 X2.802 Y0.2709 I0.5223 J0.1557
G3 X2.85 Y0.1956 I0.4098 J0.2082
G3 X2.9118 Y0.1323 I0.3303 J0.261
G3 X2.9761 Y0.0909 I0.2067 J0.2496
G3 X3.0481 Y0.0657 I0.1407 J0.2875
G3 X3.134 Y0.0564 I0.086 J0.3911
G3 X3.189 Y0.0593 I0 J0.53
G3 X3.2353 Y0.0669 I-0.041 J0.3931
G3 X3.2794 Y0.08 I-0.0767 J0.3388
G3 X3.3169 Y0.0971 I-0.1001 J0.2698
G3 X3.352 Y0.1199 I-0.1379 J0.2505
G3 X3.3848 Y0.1487 I-0.1856 J0.2442
G3 X3.4136 Y0.1821 I-0.2367 J0.2336
G3 X3.4413 Y0.2239 I-0.3332 J0.2511
G2 X3.5346 Y0.1988 I0.0433 J-0.0251
G1 X3.5346 Y0.0847
G1 X3.6143 Y0.0847
G1 Z-0.7 F5
G1 X3.6143 Y1.5043 F15
G1 X3.5346 Y1.5043
G1 X3.5346 Y0.9625
G2 X3.4413 Y0.9374 I-0.05 J0
G3 X3.4137 Y0.979 I-0.3562 J-0.2066
G3 X3.3849 Y1.0122 I-0.2598 J-0.1963
G3 X3.3523 Y1.0406 I-0.2123 J-0.2109
G3 X3.3173 Y1.063 I-0.167 J-0.2224
G1 X3.3167 Y1.0633
G3 X3.2791 Y1.0808 I-0.1386 J-0.2489
G3 X3.2351 Y1.0942 I-0.1208 J-0.3188
G3 X3.1889 Y1.1019 I-0.0872 J-0.3771
G3 X3.134 Y1.1048 I-0.0549 J-0.5153
G3 X3.0481 Y1.0955 I0 J-0.4004
G3 X2.9761 Y1.0704 I0.0687 J-0.3126
G3 X2.9118 Y1.0289 I0.1425 J-0.2911
G3 X2.8501 Y0.9658 I0.2685 J-0.3243
G3 X2.802 Y0.8904 I0.3618 J-0.2836
G3 X2.7657 Y0.7992 I0.4859 J-0.2468
G3 X2.7448 Y0.7017 I0.6081 J-0.1813
G3 X2.7367 Y0.5806 I0.9095 J-0.1211
G3 X2.7448 Y0.4595 I0.9175 J0
G3 X2.7657 Y0.362 I0.629 J0.0837
G3 X2.802 Y0.2709 I0.5223 J0.1557
G3 X2.85 Y0.1956 I0.4098 J0.2082
G3 X2.9118 Y0.1323 I0.3303 J0.261
G3 X2.9761 Y0.0909 I0.2067 J0.2496
G3 X3.0481 Y0.0657 I0.1407 J0.2875
G3 X3.134 Y0.0564 I0.086 J0.3911
G3 X3.189 Y0.0593 I0 J0.53
G3 X3.2353 Y0.0669 I-0.041 J0.3931
G3 X3.2794 Y0.08 I-0.0767 J0.3388
G3 X3.3169 Y0.0971 I-0.1001 J0.2698
G3 X3.352 Y0.1199 I-0.1379 J0.2505
G3 X3.3848 Y0.1487 I-0.1856 J0.2442
G3 X3.4136 Y0.1821 I-0.2367 J0.2336
G3 X3.4413 Y0.2239 I-0.3332 J0.2511
G2 X3.5346 Y0.1988 I0.0433 J-0.0251
G1 X3.5346 Y0.0847
G1 X3.6143 Y0.0847
G1 Z-0.8 F5
G1 X3.6143 Y1.5043 F15
G1 X3.5346 Y1.5043
G1 X3.5346 Y0.9625
G2 X3.4413 Y0.9374 I-0.05 J0
G3 X3.4137 Y0.979 I-0.3562 J-0.2066
G3 X3.3849 Y1.0122 I-0.2598 J-0.1963
G3 X3.3523 Y1.0406 I-0.2123 J-0.2109
G3 X3.3173 Y1.063 I-0.167 J-0.2224
G1 X3.3167 Y1.0633
G3 X3.2791 Y1.0808 I-0.1386 J-0.2489
G3 X3.2351 Y1.0942 I-0.1208 J-0.3188
G3 X3.1889 Y1.1019 I-0.0872 J-0.3771
G3 X3.134 Y1.1048 I-0.0549 J-0.5153
G3 X3.0481 Y1.0955 I0 J-0.4004
G3 X2.9761 Y1.0704 I0.0687 J-0.3126
G3 X2.9118 Y1.0289 I0.1425 J-0.2911
G3 X2.8501 Y0.9658 I0.2685 J-0.3243
G3 X2.802 Y0.8904 I0.3618 J-0.2836
G3 X2.7657 Y0.7992 I0.4859 J-0.2468
G3 X2.7448 Y0.7017 I0.6081 J-0.1813
G3 X2.7367 Y0.5806 I0.9095 J-0.1211
G3 X2.7448 Y0.4595 I0.9175 J0
G3 X2.7657 Y0.362 I0.629 J0.0837
G3 X2.802 Y0.2709 I0.5223 J0.1557
G3 X2.85 Y0.1956 I0.4098 J0.2082
G3 X2.9118 Y0.1323 I0.3303 J0.261
G3 X2.9761 Y0.0909 I0.2067 J0.2496
G3 X3.0481 Y0.0657 I0.1407 J0.2875
G3 X3.134 Y0.0564 I0.086 J0.3911
G3 X3.189 Y0.0593 I0 J0.53
G3 X3.2353 Y0.0669 I-0.041 J0.3931
G3 X3.2794 Y0.08 I-0.0767 J0.3388
G3 X3.3169 Y0.0971 I-0.1001 J0.2698
G3 X3.352 Y0.1199 I-0.1379 J0.2505
G3 X3.3848 Y0.1487 I-0.1856 J0.2442
G3 X3.4136 Y0.1821 I-0.2367 J0.2336
G3 X3.4413 Y0.2239 I-0.3332 J0.2511
G2 X3.5346 Y0.1988 I0.0433 J-0.0251
G1 X3.5346 Y0.0847
G1 X3.6143 Y0.0847
G1 Z-0.9 F5
G1 X3.6143 Y1.5043 F15
G1 X3.5346 Y1.5043
G1 X3.5346 Y0.9625
G2 X3.4413 Y0.9374 I-0.05 J0
G3 X3.4137 Y0.979 I-0.3562 J-0.2066
G3 X3.3849 Y1.0122 I-0.2598 J-0.1963
G3 X3.3523 Y1.0406 I-0.2123 J-0.2109
G3 X3.3173 Y1.063 I-0.167 J-0.2224
G1 X3.3167 Y1.0633
G3 X3.2791 Y1.0808 I-0.1386 J-0.2489
G3 X3.2351 Y1.0942 I-0.1208 J-0.3188
G3 X3.1889 Y1.1019 I-0.0872 J-0.3771
G3 X3.134 Y1.1048 I-0.0549 J-0.5153
G3 X3.0481 Y1.0955 I0 J-0.4004
G3 X2.9761 Y1.0704 I0.0687 J-0.3126
G3 X2.9118 Y1.0289 I0.1425 J-0.2911
G3 X2.8501 Y0.9658 I0.2685 J-0.3243
G3 X2.802 Y0.8904 I0.3618 J-0.2836
G3 X2.7657 Y0.7992 I0.4859 J-0.2468
G3 X2.7448 Y0.7017 I0.6081 J-0.1813
G3 X2.7367 Y0.5806 I0.9095 J-0.1211
G3 X2.7448 Y0.4595 I0.9175 J0
G3 X2.7657 Y0.362 I0.629 J0.0837
G3 X2.802 Y0.2709 I0.5223 J0.1557
G3 X2.85 Y0.1956 I0.4098 J0.2082
G3 X2.9118 Y0.1323 I0.3303 J0.261
G3 X2.9761 Y0.0909 I0.2067 J0.2496
G3 X3.0481 Y0.0657 I0.1407 J0.2875
G3 X3.134 Y0.0564 I0.086 J0.3911
G3 X3.189 Y0.0593 I0 J0.53
G3 X3.2353 Y0.0669 I-0.041 J0.3931
G3 X3.2794 Y0.08 I-0.0767 J0.3388
G3 X3.3169 Y0.0971 I-0.1001 J0.2698
G3 X3.352 Y0.1199 I-0.1379 J0.2505
G3 X3.3848 Y0.1487 I-0.1856 J0.2442
G3 X3.4136 Y0.1821 I-0.2367 J0.2336
G3 X3.4413 Y0.2239 I-0.3332 J0.2511
G2 X3.5346 Y0.1988 I0.0433 J-0.0251
G1 X3.5346 Y0.0847
G1 X3.6143 Y0.0847
G1 Z-1 F5
G1 X3.6143 Y1.5043 F15
G1 X3.5346 Y1.5043
G1 X3.5346 Y0.9625
G2 X3.4413 Y0.9374 I-0.05 J0
G3 X3.4137 Y0.979 I-0.3562 J-0.2066
G3 X3.3849 Y1.0122 I-0.2598 J-0.1963
G3 X3.3523 Y1.0406 I-0.2123 J-0.2109
G3 X3.3173 Y1.063 I-0.167 J-0.2224
G1 X3.3167 Y1.0633
G3 X3.2791 Y1.0808 I-0.1386 J-0.2489
G3 X3.2351 Y1.0942 I-0.1208 J-0.3188
G3 X3.1889 Y1.1019 I-0.0872 J-0.3771
G3 X3.134 Y1.1048 I-0.0549 J-0.5153
G3 X3.0481 Y1.0955 I0 J-0.4004
G3 X2.9761 Y1.0704 I0.0687 J-0.3126
G3 X2.9118 Y1.0289 I0.1425 J-0.2911
G3 X2.8501 Y0.9658 I0.2685 J-0.3243
G3 X2.802 Y0.8904 I0.3618 J-0.2836
G3 X2.7657 Y0.7992 I0.4859 J-0.2468
G3 X2.7448 Y0.7017 I0.6081 J-0.1813
G3 X2.7367 Y0.5806 I0.9095 J-0.1211
G3 X2.7448 Y0.4595 I0.9175 J0
G3 X2.7657 Y0.362 I0.629 J0.0837
G3 X2.802 Y0.2709 I0.5223 J0.1557
G3 X2.85 Y0.1956 I0.4098 J0.2082
G3 X2.9118 Y0.1323 I0.3303 J0.261
G3 X2.9761 Y0.0909 I0.2067 J0.2496
G3 X3.0481 Y0.0657 I0.1407 J0.2875
G3 X3.134 Y0.0564 I0.086 J0.3911
G3 X3.189 Y0.0593 I0 J0.53
G3 X3.2353 Y0.0669 I-0.041 J0.3931
G3 X3.2794 Y0.08 I-0.0767 J0.3388
G3 X3.3169 Y0.0971 I-0.1001 J0.2698
G3 X3.352 Y0.1199 I-0.1379 J0.2505
G3 X3.3848 Y0.1487 I-0.1856 J0.2442
G3 X3.4136 Y0.1821 I-0.2367 J0.2336
G3 X3.4413 Y0.2239 I-0.3332 J0.2511
G2 X3.5346 Y0.1988 I0.0433 J-0.0251
G1 X3.5346 Y0.0847
G1 X3.6143 Y0.0847
G1 Z-1.1 F5
G1 X3.6143 Y1.5043 F15
G1 X3.5346 Y1.5043
G1 X3.5346 Y0.9625
G2 X3.4413 Y0.9374 I-0.05 J0
G3 X3.4137 Y0.979 I-0.3562 J-0.2066
G3 X3.3849 Y1.0122 I-0.2598 J-0.1963
G3 X3.3523 Y1.0406 I-0.2123 J-0.2109
G3 X3.3173 Y1.063 I-0.167 J-0.2224
G1 X3.3167 Y1.0633
G3 X3.2791 Y1.0808 I-0.1386 J-0.2489
G3 X3.2351 Y1.0942 I-0.1208 J-0.3188
G3 X3.1889 Y1.1019 I-0.0872 J-0.3771
G3 X3.134 Y1.1048 I-0.0549 J-0.5153
G3 X3.0481 Y1.0955 I0 J-0.4004
G3 X2.9761 Y1.0704 I0.0687 J-0.3126
G3 X2.9118 Y1.0289 I0.1425 J-0.2911
G3 X2.8501 Y0.9658 I0.2685 J-0.3243
G3 X2.802 Y0.8904 I0.3618 J-0.2836
G3 X2.7657 Y0.7992 I0.4859 J-0.2468
G3 X2.7448 Y0.7017 I0.6081 J-0.1813
G3 X2.7367 Y0.5806 I0.9095 J-0.1211
G3 X2.7448 Y0.4595 I0.9175 J0
G3 X2.7657 Y0.362 I0.629 J0.0837
G3 X2.802 Y0.2709 I0.5223 J0.1557
G3 X2.85 Y0.1956 I0.4098 J0.2082
G3 X2.9118 Y0.1323 I0.3303 J0.261
G3 X2.9761 Y0.0909 I0.2067 J0.2496
G3 X3.0481 Y0.0657 I0.1407 J0.2875
G3 X3.134 Y0.0564 I0.086 J0.3911
G3 X3.189 Y0.0593 I0 J0.53
G3 X3.2353 Y0.0669 I-0.041 J0.3931
G3 X3.2794 Y0.08 I-0.0767 J0.3388
G3 X3.3169 Y0.0971 I-0.1001 J0.2698
G3 X3.352 Y0.1199 I-0.1379 J0.2505
G3 X3.3848 Y0.1487 I-0.1856 J0.2442
G3 X3.4136 Y0.1821 I-0.2367 J0.2336
G3 X3.4413 Y0.2239 I-0.3332 J0.2511
G2 X3.5346 Y0.1988 I0.0433 J-0.0251
G1 X3.5346 Y0.0847
G1 X3.6143 Y0.0847
G1 Z-1.2 F5
G1 X3.6143 Y1.5043 F15
G1 X3.5346 Y1.5043
G1 X3.5346 Y0.9625
G2 X3.4413 Y0.9374 I-0.05 J0
G3 X3.4137 Y0.979 I-0.3562 J-0.2066
G3 X3.3849 Y1.0122 I-0.2598 J-0.1963
G3 X3.3523 Y1.0406 I-0.2123 J-0.2109
G3 X3.3173 Y1.063 I-0.167 J-0.2224
G1 X3.3167 Y1.0633
G3 X3.2791 Y1.0808 I-0.1386 J-0.2489
G3 X3.2351 Y1.0942 I-0.1208 J-0.3188
G3 X3.1889 Y1.1019 I-0.0872 J-0.3771
G3 X3.134 Y1.1048 I-0.0549 J-0.5153
G3 X3.0481 Y1.0955 I0 J-0.4004
G3 X2.9761 Y1.0704 I0.0687 J-0.3126
G3 X2.9118 Y1.0289 I0.1425 J-0.2911
G3 X2.8501 Y0.9658 I0.2685 J-0.3243
G3 X2.802 Y0.8904 I0.3618 J-0.2836
G3 X2.7657 Y0.7992 I0.4859 J-0.2468
G3 X2.7448 Y0.7017 I0.6081 J-0.1813
G3 X2.7367 Y0.5806 I0.9095 J-0.1211
G3 X2.7448 Y0.4595 I0.9175 J0
G3 X2.7657 Y0.362 I0.629 J0.0837
G3 X2.802 Y0.2709 I0.5223 J0.1557
G3 X2.85 Y0.1956 I0.4098 J0.2082
G3 X2.9118 Y0.1323 I0.3303 J0.261
G3 X2.9761 Y0.0909 I0.2067 J0.2496
G3 X3.0481 Y0.0657 I0.1407 J0.2875
G3 X3.134 Y0.0564 I0.086 J0.3911
G3 X3.189 Y0.0593 I0 J0.53
G3 X3.2353 Y0.0669 I-0.041 J0.3931
G3 X3.2794 Y0.08 I-0.0767 J0.3388
G3 X3.3169 Y0.0971 I-0.1001 J0.2698
G3 X3.352 Y0.1199 I-0.1379 J0.2505
G3 X3.3848 Y0.1487 I-0.1856 J0.2442
G3 X3.4136 Y0.1821 I-0.2367 J0.2336
G3 X3.4413 Y0.2239 I-0.3332 J0.2511
G2 X3.5346 Y0.1988 I0.0433 J-0.0251
G1 X3.5346 Y0.0847
G1 X3.6143 Y0.0847
G1 Z-1.3 F5
G1 X3.6143 Y1.5043 F15
G1 X3.5346 Y1.5043
G1 X3.5346 Y0.9625
G2 X3.4413 Y0.9374 I-0.05 J0
G3 X3.4137 Y0.979 I-0.3562 J-0.2066
G3 X3.3849 Y1.0122 I-0.2598 J-0.1963
G3 X3.3523 Y1.0406 I-0.2123 J-0.2109
G3 X3.3173 Y1.063 I-0.167 J-0.2224
G1 X3.3167 Y1.0633
G3 X3.2791 Y1.0808 I-0.1386 J-0.2489
G3 X3.2351 Y1.0942 I-0.1208 J-0.3188
G3 X3.1889 Y1.1019 I-0.0872 J-0.3771
G3 X3.134 Y1.1048 I-0.0549 J-0.5153
G3 X3.0481 Y1.0955 I0 J-0.4004
G3 X2.9761 Y1.0704 I0.0687 J-0.3126
G3 X2.9118 Y1.0289 I0.1425 J-0.2911
G3 X2.8501 Y0.9658 I0.2685 J-0.3243
G3 X2.802 Y0.8904 I0.3618 J-0.2836
G3 X2.7657 Y0.7992 I0.4859 J-0.2468
G3 X2.7448 Y0.7017 I0.6081 J-0.1813
G3 X2.7367 Y0.5806 I0.9095 J-0.1211
G3 X2.7448 Y0.4595 I0.9175 J0
G3 X2.7657 Y0.362 I0.629 J0.0837
G3 X2.802 Y0.2709 I0.5223 J0.1557
G3 X2.85 Y0.1956 I0.4098 J0.2082
G3 X2.9118 Y0.1323 I0.3303 J0.261
G3 X2.9761 Y0.0909 I0.2067 J0.2496
G3 X3.0481 Y0.0657 I0.1407 J0.2875
G3 X3.134 Y0.0564 I0.086 J0.3911
G3 X3.189 Y0.0593 I0 J0.53
G3 X3.2353 Y0.0669 I-0.041 J0.3931
G3 X3.2794 Y0.08 I-0.0767 J0.3388
G3 X3.3169 Y0.0971 I-0.1001 J0.2698
G3 X3.352 Y0.1199 I-0.1379 J0.2505
G3 X3.3848 Y0.1487 I-0.1856 J0.2442
G3 X3.4136 Y0.1821 I-0.2367 J0.2336
G3 X3.4413 Y0.2239 I-0.3332 J0.2511
G2 X3.5346 Y0.1988 I0.0433 J-0.0251
G1 X3.5346 Y0.0847
G1 X3.6143 Y0.0847
G0 Z1
G0 X10.8877 Y0.0847
G1 Z-0.1 F5
G1 X10.8877 Y1.5043 F15
G1 X10.808 Y1.5043
G1 X10.808 Y0.9625
G2 X10.7148 Y0.9374 I-0.05 J0
G3 X10.6871 Y0.979 I-0.3562 J-0.2066
G3 X10.6583 Y1.0122 I-0.2598 J-0.1963
G3 X10.6257 Y1.0406 I-0.2123 J-0.2109
G3 X10.5907 Y1.063 I-0.167 J-0.2224
G1 X10.5902 Y1.0633
G3 X10.5525 Y1.0808 I-0.1386 J-0.2489
G3 X10.5085 Y1.0942 I-0.1208 J-0.3188
G3 X10.4623 Y1.1019 I-0.0872 J-0.3771
G3 X10.4074 Y1.1048 I-0.0549 J-0.5153
G3 X10.3215 Y1.0955 I0 J-0.4004
G3 X10.2495 Y1.0704 I0.0687 J-0.3126
G3 X10.1853 Y1.0289 I0.1425 J-0.2911
G3 X10.1236 Y0.9658 I0.2685 J-0.3243
G3 X10.0755 Y0.8904 I0.3618 J-0.2836
G3 X10.0391 Y0.7992 I0.4859 J-0.2468
G3 X10.0182 Y0.7017 I0.6081 J-0.1813
G3 X10.0102 Y0.5806 I0.9095 J-0.1211
G3 X10.0182 Y0.4595 I0.9175 J0
G3 X10.0391 Y0.362 I0.629 J0.0837
G3 X10.0755 Y0.2709 I0.5223 J0.1557
G3 X10.1234 Y0.1956 I0.4098 J0.2082
G3 X10.1853 Y0.1323 I0.3303 J0.261
G3 X10.2495 Y0.0909 I0.2067 J0.2496
G3 X10.3215 Y0.0657 I0.1407 J0.2875
G3 X10.4074 Y0.0564 I0.086 J0.3911
G3 X10.4625 Y0.0593 I0 J0.53
G3 X10.5087 Y0.0669 I-0.041 J0.3931
G3 X10.5529 Y0.08 I-0.0767 J0.3388
G3 X10.5904 Y0.0971 I-0.1001 J0.2698
G3 X10.6255 Y0.1199 I-0.1379 J0.2505
G3 X10.6582 Y0.1487 I-0.1856 J0.2442
G3 X10.6871 Y0.1821 I-0.2367 J0.2336
G3 X10.7148 Y0.2239 I-0.3332 J0.2511
G2 X10.808 Y0.1988 I0.0433 J-0.0251
G1 X10.808 Y0.0847
G1 X10.8877 Y0.0847
G1 Z-0.2 F5
G1 X10.8877 Y1.5043 F15
G1 X10.808 Y1.5043
G1 X10.808 Y0.9625
G2 X10.7148 Y0.9374 I-0.05 J0
G3 X10.6871 Y0.979 I-0.3562 J-0.2066
G3 X10.6583 Y1.0122 I-0.2598 J-0.1963
G3 X10.6257 Y1.0406 I-0.2123 J-0.2109
G3 X10.5907 Y1.063 I-0.167 J-0.2224
G1 X10.5902 Y1.0633
G3 X10.5525 Y1.0808 I-0.1386 J-0.2489
G3 X10.5085 Y1.0942 I-0.1208 J-0.3188
G3 X10.4623 Y1.1019 I-0.0872 J-0.3771
G3 X10.4074 Y1.1048 I-0.0549 J-0.5153
G3 X10.3215 Y1.0955 I0 J-0.4004
G3 X10.2495 Y1.0704 I0.0687 J-0.3126
G3 X10.1853 Y1.0289 I0.1425 J-0.2911
G3 X10.1236 Y0.9658 I0.2685 J-0.3243
G3 X10.0755 Y0.8904 I0.3618 J-0.2836
G3 X10.0391 Y0.7992 I0.4859 J-0.2468
G3 X10.0182 Y0.7017 I0.6081 J-0.1813
G3 X10.0102 Y0.5806 I0.9095 J-0.1211
G3 X10.0182 Y0.4595 I0.9175 J0
G3 X10.0391 Y0.362 I0.629 J0.0837
G3 X10.0755 Y0.2709 I0.5223 J0.1557
G3 X10.1234 Y0.1956 I0.4098 J0.2082
G3 X10.1853 Y0.1323 I0.3303 J0.261
G3 X10.2495 Y0.0909 I0.2067 J0.2496
G3 X10.3215 Y0.0657 I0.1407 J0.2875
G3 X10.4074 Y0.0564 I0.086 J0.3911
G3 X10.4625 Y0.0593 I0 J0.53
G3 X10.5087 Y0.0669 I-0.041 J0.3931
G3 X10.5529 Y0.08 I-0.0767 J0.3388
G3 X10.5904 Y0.0971 I-0.1001 J0.2698
G3 X10.6255 Y0.1199 I-0.1379 J0.2505
G3 X10.6582 Y0.1487 I-0.1856 J0.2442
G3 X10.6871 Y0.1821 I-0.2367 J0.2336
G3 X10.7148 Y0.2239 I-0.3332 J0.2511
G2 X10.808 Y0.1988 I0.0433 J-0.0251
G1 X10.808 Y0.0847
G1 X10.8877 Y0.0847
G1 Z-0.3 F5
G1 X10.8877 Y1.5043 F15
G1 X10.808 Y1.5043
G1 X10.808 Y0.9625
G2 X10.7148 Y0.9374 I-0.05 J0
G3 X10.6871 Y0.979 I-0.3562 J-0.2066
G3 X10.6583 Y1.0122 I-0.2598 J-0.1963
G3 X10.6257 Y1.0406 I-0.2123 J-0.2109
G3 X10.5907 Y1.063 I-0.167 J-0.2224
G1 X10.5902 Y1.0633
G3 X10.5525 Y1.0808 I-0.1386 J-0.2489
G3 X10.5085 Y1.0942 I-0.1208 J-0.3188
G3 X10.4623 Y1.1019 I-0.0872 J-0.3771
G3 X10.4074 Y1.1048 I-0.0549 J-0.5153
G3 X10.3215 Y1.0955 I0 J-0.4004
G3 X10.2495 Y1.0704 I0.0687 J-0.3126
G3 X10.1853 Y1.0289 I0.1425 J-0.2911
G3 X10.1236 Y0.9658 I0.2685 J-0.3243
G3 X10.0755 Y0.8904 I0.3618 J-0.2836
G3 X10.0391 Y0.7992 I0.4859 J-0.2468
G3 X10.0182 Y0.7017 I0.6081 J-0.1813
G3 X10.0102 Y0.5806 I0.9095 J-0.1211
G3 X10.0182 Y0.4595 I0.9175 J0
G3 X10.0391 Y0.362 I0.629 J0.0837
G3 X10.0755 Y0.2709 I0.5223 J0.1557
G3 X10.1234 Y0.1956 I0.4098 J0.2082
G3 X10.1853 Y0.1323 I0.3303 J0.261
G3 X10.2495 Y0.0909 I0.2067 J0.2496
G3 X10.3215 Y0.0657 I0.1407 J0.2875
G3 X10.4074 Y0.0564 I0.086 J0.3911
G3 X10.4625 Y0.0593 I0 J0.53
G3 X10.5087 Y0.0669 I-0.041 J0.3931
G3 X10.5529 Y0.08 I-0.0767 J0.3388
G3 X10.5904 Y0.0971 I-0.1001 J0.2698
G3 X10.6255 Y0.1199 I-0.1379 J0.2505
G3 X10.6582 Y0.1487 I-0.1856 J0.2442
G3 X10.6871 Y0.1821 I-0.2367 J0.2336
G3 X10.7148 Y0.2239 I-0.3332 J0.2511
G2 X10.808 Y0.1988 I0.0433 J-0.0251
G1 X10.808 Y0.0847
G1 X10.8877 Y0.0847
G1 Z-0.4 F5
G1 X10.8877 Y1.5043 F15
G1 X10.808 Y1.5043
G1 X10.808 Y0.9625
G2 X10.7148 Y0.9374 I-0.05 J0
G3 X10.6871 Y0.979 I-0.3562 J-0.2066
G3 X10.6583 Y1.0122 I-0.2598 J-0.1963
G3 X10.6257 Y1.0406 I-0.2123 J-0.2109
G3 X10.5907 Y1.063 I-0.167 J-0.2224
G1 X10.5902 Y1.0633
G3 X10.5525 Y1.0808 I-0.1386 J-0.2489
G3 X10.5085 Y1.0942 I-0.1208 J-0.3188
G3 X10.4623 Y1.1019 I-0.0872 J-0.3771
G3 X10.4074 Y1.1048 I-0.0549 J-0.5153
G3 X10.3215 Y1.0955 I0 J-0.4004
G3 X10.2495 Y1.0704 I0.0687 J-0.3126
G3 X10.1853 Y1.0289 I0.1425 J-0.2911
G3 X10.1236 Y0.9658 I0.2685 J-0.3243
G3 X10.0755 Y0.8904 I0.3618 J-0.2836
G3 X10.0391 Y0.7992 I0.4859 J-0.2468
G3 X10.0182 Y0.7017 I0.6081 J-0.1813
G3 X10.0102 Y0.5806 I0.9095 J-0.1211
G3 X10.0182 Y0.4595 I0.9175 J0
G3 X10.0391 Y0.362 I0.629 J0.0837
G3 X10.0755 Y0.2709 I0.5223 J0.1557
G3 X10.1234 Y0.1956 I0.4098 J0.2082
G3 X10.1853 Y0.1323 I0.3303 J0.261
G3 X10.2495 Y0.0909 I0.2067 J0.2496
G3 X10.3215 Y0.0657 I0.1407 J0.2875
G3 X10.4074 Y0.0564 I0.086 J0.3911
G3 X10.4625 Y0.0593 I0 J0.53
G3 X10.5087 Y0.0669 I-0.041 J0.3931
G3 X10.5529 Y0.08 I-0.0767 J0.3388
G3 X10.5904 Y0.0971 I-0.1001 J0.2698
G3 X10.6255 Y0.1199 I-0.1379 J0.2505
G3 X10.6582 Y0.1487 I-0.1856 J0.2442
G3 X10.6871 Y0.1821 I-0.2367 J0.2336
G3 X10.7148 Y0.2239 I-0.3332 J0.2511
G2 X10.808 Y0.1988 I0.0433 J-0.0251
G1 X10.808 Y0.0847
G1 X10.8877 Y0.0847
G1 Z-0.5 F5
G1 X10.8877 Y1.5043 F15
G1 X10.808 Y1.5043
G1 X10.808 Y0.9625
G2 X10.7148 Y0.9374 I-0.05 J0
G3 X10.6871 Y0.979 I-0.3562 J-0.2066
G3 X10.6583 Y1.0122 I-0.2598 J-0.1963
G3 X10.6257 Y1.0406 I-0.2123 J-0.2109
G3 X10.5907 Y1.063 I-0.167 J-0.2224
G1 X10.5902 Y1.0633
G3 X10.5525 Y1.0808 I-0.1386 J-0.2489
G3 X10.5085 Y1.0942 I-0.1208 J-0.3188
G3 X10.4623 Y1.1019 I-0.0872 J-0.3771
G3 X10.4074 Y1.1048 I-0.0549 J-0.5153
G3 X10.3215 Y1.0955 I0 J-0.4004
G3 X10.2495 Y1.0704 I0.0687 J-0.3126
G3 X10.1853 Y1.0289 I0.1425 J-0.2911
G3 X10.1236 Y0.9658 I0.2685 J-0.3243
G3 X10.0755 Y0.8904 I0.3618 J-0.2836
G3 X10.0391 Y0.7992 I0.4859 J-0.2468
G3 X10.0182 Y0.7017 I0.6081 J-0.1813
G3 X10.0102 Y0.5806 I0.9095 J-0.1211
G3 X10.0182 Y0.4595 I0.9175 J0
G3 X10.0391 Y0.362 I0.629 J0.0837
G3 X10.0755 Y0.2709 I0.5223 J0.1557
G3 X10.1234 Y0.1956 I0.4098 J0.2082
G3 X10.1853 Y0.1323 I0.3303 J0.261
G3 X10.2495 Y0.0909 I0.2067 J0.2496
G3 X10.3215 Y0.0657 I0.1407 J0.2875
G3 X10.4074 Y0.0564 I0.086 J0.3911
G3 X10.4625 Y0.0593 I0 J0.53
G3 X10.5087 Y0.0669 I-0.041 J0.3931
G3 X10.5529 Y0.08 I-0.0767 J0.3388
G3 X10.5904 Y0.0971 I-0.1001 J0.2698
G3 X10.6255 Y0.1199 I-0.1379 J0.2505
G3 X10.6582 Y0.1487 I-0.1856 J0.2442
G3 X10.6871 Y0.1821 I-0.2367 J0.2336
G3 X10.7148 Y0.2239 I-0.3332 J0.2511
G2 X10.808 Y0.1988 I0.0433 J-0.0251
G1 X10.808 Y0.0847
G1 X10.8877 Y0.0847
G1 Z-0.6 F5
G1 X10.8877 Y1.5043 F15
G1 X10.808 Y1.5043
G1 X10.808 Y0.9625
G2 X10.7148 Y0.9374 I-0.05 J0
G3 X10.6871 Y0.979 I-0.3562 J-0.2066
G3 X10.6583 Y1.0122 I-0.2598 J-0.1963
G3 X10.6257 Y1.0406 I-0.2123 J-0.2109
G3 X10.5907 Y1.063 I-0.167 J-0.2224
G1 X10.5902 Y1.0633
G3 X10.5525 Y1.0808 I-0.1386 J-0.2489
G3 X10.5085 Y1.0942 I-0.1208 J-0.3188
G3 X10.4623 Y1.1019 I-0.0872 J-0.3771
G3 X10.4074 Y1.1048 I-0.0549 J-0.5153
G3 X10.3215 Y1.0955 I0 J-0.4004
G3 X10.2495 Y1.0704 I0.0687 J-0.3126
G3 X10.1853 Y1.0289 I0.1425 J-0.2911
G3 X10.1236 Y0.9658 I0.2685 J-0.3243
G3 X10.0755 Y0.8904 I0.3618 J-0.2836
G3 X10.0391 Y0.7992 I0.4859 J-0.2468
G3 X10.0182 Y0.7017 I0.6081 J-0.1813
G3 X10.0102 Y0.5806 I0.9095 J-0.1211
G3 X10.0182 Y0.4595 I0.9175 J0
G3 X10.0391 Y0.362 I0.629 J0.0837
G3 X10.0755 Y0.2709 I0.5223 J0.1557
G3 X10.1234 Y0.1956 I0.4098 J0.2082
G3 X10.1853 Y0.1323 I0.3303 J0.261
G3 X10.2495 Y0.0909 I0.2067 J0.2496
G3 X10.3215 Y0.0657 I0.1407 J0.2875
G3 X10.4074 Y0.0564 I0.086 J0.3911
G3 X10.4625 Y0.0593 I0 J0.53
G3 X10.5087 Y0.0669 I-0.041 J0.3931
G3 X10.5529 Y0.08 I-0.0767 J0.3388
G3 X10.5904 Y0.0971 I-0.1001 J0.2698
G3 X10.6255 Y0.1199 I-0.1379 J0.2505
G3 X10.6582 Y0.1487 I-0.1856 J0.2442
G3 X10.6871 Y0.1821 I-0.2367 J0.2336
G3 X10.7148 Y0.2239 I-0.3332 J0.2511
G2 X10.808 Y0.1988 I0.0433 J-0.0251
G1 X10.808 Y0.0847
G1 X10.8877 Y0.0847
G1 Z-0.7 F5
G1 X10.8877 Y1.5043 F15
G1 X10.808 Y1.5043
G1 X10.808 Y0.9625
G2 X10.7148 Y0.9374 I-0.05 J0
G3 X10.6871 Y0.979 I-0.3562 J-0.2066
G3 X10.6583 Y1.0122 I-0.2598 J-0.1963
G3 X10.6257 Y1.0406 I-0.2123 J-0.2109
G3 X10.5907 Y1.063 I-0.167 J-0.2224
G1 X10.5902 Y1.0633
G3 X10.5525 Y1.0808 I-0.1386 J-0.2489
G3 X10.5085 Y1.0942 I-0.1208 J-0.3188
G3 X10.4623 Y1.1019 I-0.0872 J-0.3771
G3 X10.4074 Y1.1048 I-0.0549 J-0.5153
G3 X10.3215 Y1.0955 I0 J-0.4004
G3 X10.2495 Y1.0704 I0.0687 J-0.3126
G3 X10.1853 Y1.0289 I0.1425 J-0.2911
G3 X10.1236 Y0.9658 I0.2685 J-0.3243
G3 X10.0755 Y0.8904 I0.3618 J-0.2836
G3 X10.0391 Y0.7992 I0.4859 J-0.2468
G3 X10.0182 Y0.7017 I0.6081 J-0.1813
G3 X10.0102 Y0.5806 I0.9095 J-0.1211
G3 X10.0182 Y0.4595 I0.9175 J0
G3 X10.0391 Y0.362 I0.629 J0.0837
G3 X10.0755 Y0.2709 I0.5223 J0.1557
G3 X10.1234 Y0.1956 I0.4098 J0.2082
G3 X10.1853 Y0.1323 I0.3303 J0.261
G3 X10.2495 Y0.0909 I0.2067 J0.2496
G3 X10.3215 Y0.0657 I0.1407 J0.2875
G3 X10.4074 Y0.0564 I0.086 J0.3911
G3 X10.4625 Y0.0593 I0 J0.53
G3 X10.5087 Y0.0669 I-0.041 J0.3931
G3 X10.5529 Y0.08 I-0.0767 J0.3388
G3 X10.5904 Y0.0971 I-0.1001 J0.2698
G3 X10.6255 Y0.1199 I-0.1379 J0.2505
G3 X10.6582 Y0.1487 I-0.1856 J0.2442
G3 X10.6871 Y0.1821 I-0.2367 J0.2336
G3 X10.7148 Y0.2239 I-0.3332 J0.2511
G2 X10.808 Y0.1988 I0.0433 J-0.0251
G1 X10.808 Y0.0847
G1 X10.8877 Y0.0847
G1 Z-0.8 F5
G1 X10.8877 Y1.5043 F15
G1 X10.808 Y1.5043
G1 X10.808 Y0.9625
G2 X10.7148 Y0.9374 I-0.05 J0
G3 X10.6871 Y0.979 I-0.3562 J-0.2066
G3 X10.6583 Y1.0122 I-0.2598 J-0.1963
G3 X10.6257 Y1.0406 I-0.2123 J-0.2109
G3 X10.5907 Y1.063 I-0.167 J-0.2224
G1 X10.5902 Y1.0633
G3 X10.5525 Y1.0808 I-0.1386 J-0.2489
G3 X10.5085 Y1.0942 I-0.1208 J-0.3188
G3 X10.4623 Y1.1019 I-0.0872 J-0.3771
G3 X10.4074 Y1.1048 I-0.0549 J-0.5153
G3 X10.3215 Y1.0955 I0 J-0.4004
G3 X10.2495 Y1.0704 I0.0687 J-0.3126
G3 X10.1853 Y1.0289 I0.1425 J-0.2911
G3 X10.1236 Y0.9658 I0.2685 J-0.3243
G3 X10.0755 Y0.8904 I0.3618 J-0.2836
G3 X10.0391 Y0.7992 I0.4859 J-0.2468
G3 X10.0182 Y0.7017 I0.6081 J-0.1813
G3 X10.0102 Y0.5806 I0.9095 J-0.1211
G3 X10.0182 Y0.4595 I0.9175 J0
G3 X10.0391 Y0.362 I0.629 J0.0837
G3 X10.0755 Y0.2709 I0.5223 J0.1557
G3 X10.1234 Y0.1956 I0.4098 J0.2082
G3 X10.1853 Y0.1323 I0.3303 J0.261
G3 X10.2495 Y0.0909 I0.2067 J0.2496
G3 X10.3215 Y0.0657 I0.1407 J0.2875
G3 X10.4074 Y0.0564 I0.086 J0.3911
G3 X10.4625 Y0.0593 I0 J0.53
G3 X10.5087 Y0.0669 I-0.041 J0.3931
G3 X10.5529 Y0.08 I-0.0767 J0.3388
G3 X10.5904 Y0.0971 I-0.1001 J0.2698
G3 X10.6255 Y0.1199 I-0.1379 J0.2505
G3 X10.6582 Y0.1487 I-0.1856 J0.2442
G3 X10.6871 Y0.1821 I-0.2367 J0.2336
G3 X10.7148 Y0.2239 I-0.3332 J0.2511
G2 X10.808 Y0.1988 I0.0433 J-0.0251
G1 X10.808 Y0.0847
G1 X10.8877 Y0.0847
G1 Z-0.9 F5
G1 X10.8877 Y1.5043 F15
G1 X10.808 Y1.5043
G1 X10.808 Y0.9625
G2 X10.7148 Y0.9374 I-0.05 J0
G3 X10.6871 Y0.979 I-0.3562 J-0.2066
G3 X10.6583 Y1.0122 I-0.2598 J-0.1963
G3 X10.6257 Y1.0406 I-0.2123 J-0.2109
G3 X10.5907 Y1.063 I-0.167 J-0.2224
G1 X10.5902 Y1.0633
G3 X10.5525 Y1.0808 I-0.1386 J-0.2489
G3 X10.5085 Y1.0942 I-0.1208 J-0.3188
G3 X10.4623 Y1.1019 I-0.0872 J-0.3771
G3 X10.4074 Y1.1048 I-0.0549 J-0.5153
G3 X10.3215 Y1.0955 I0 J-0.4004
G3 X10.2495 Y1.0704 I0.0687 J-0.3126
G3 X10.1853 Y1.0289 I0.1425 J-0.2911
G3 X10.1236 Y0.9658 I0.2685 J-0.3243
G3 X10.0755 Y0.8904 I0.3618 J-0.2836
G3 X10.0391 Y0.7992 I0.4859 J-0.2468
G3 X10.0182 Y0.7017 I0.6081 J-0.1813
G3 X10.0102 Y0.5806 I0.9095 J-0.1211
G3 X10.0182 Y0.4595 I0.9175 J0
G3 X10.0391 Y0.362 I0.629 J0.0837
G3 X10.0755 Y0.2709 I0.5223 J0.1557
G3 X10.1234 Y0.1956 I0.4098 J0.2082
G3 X10.1853 Y0.1323 I0.3303 J0.261
G3 X10.2495 Y0.0909 I0.2067 J0.2496
G3 X10.3215 Y0.0657 I0.1407 J0.2875
G3 X10.4074 Y0.0564 I0.086 J0.3911
G3 X10.4625 Y0.0593 I0 J0.53
G3 X10.5087 Y0.0669 I-0.041 J0.3931
G3 X10.5529 Y0.08 I-0.0767 J0.3388
G3 X10.5904 Y0.0971 I-0.1001 J0.2698
G3 X10.6255 Y0.1199 I-0.1379 J0.2505
G3 X10.6582 Y0.1487 I-0.1856 J0.2442
G3 X10.6871 Y0.1821 I-0.2367 J0.2336
G3 X10.7148 Y0.2239 I-0.3332 J0.2511
G2 X10.808 Y0.1988 I0.0433 J-0.0251
G1 X10.808 Y0.0847
G1 X10.8877 Y0.0847
G1 Z-1 F5
G1 X10.8877 Y1.5043 F15
G1 X10.808 Y1.5043
G1 X10.808 Y0.9625
G2 X10.7148 Y0.9374 I-0.05 J0
G3 X10.6871 Y0.979 I-0.3562 J-0.2066
G3 X10.6583 Y1.0122 I-0.2598 J-0.1963
G3 X10.6257 Y1.0406 I-0.2123 J-0.2109
G3 X10.5907 Y1.063 I-0.167 J-0.2224
G1 X10.5902 Y1.0633
G3 X10.5525 Y1.0808 I-0.1386 J-0.2489
G3 X10.5085 Y1.0942 I-0.1208 J-0.3188
G3 X10.4623 Y1.1019 I-0.0872 J-0.3771
G3 X10.4074 Y1.1048 I-0.0549 J-0.5153
G3 X10.3215 Y1.0955 I0 J-0.4004
G3 X10.2495 Y1.0704 I0.0687 J-0.3126
G3 X10.1853 Y1.0289 I0.1425 J-0.2911
G3 X10.1236 Y0.9658 I0.2685 J-0.3243
G3 X10.0755 Y0.8904 I0.3618 J-0.2836
G3 X10.0391 Y0.7992 I0.4859 J-0.2468
G3 X10.0182 Y0.7017 I0.6081 J-0.1813
G3 X10.0102 Y0.5806 I0.9095 J-0.1211
G3 X10.0182 Y0.4595 I0.9175 J0
G3 X10.0391 Y0.362 I0.629 J0.0837
G3 X10.0755 Y0.2709 I0.5223 J0.1557
G3 X10.1234 Y0.1956 I0.4098 J0.2082
G3 X10.1853 Y0.1323 I0.3303 J0.261
G3 X10.2495 Y0.0909 I0.2067 J0.2496
G3 X10.3215 Y0.0657 I0.1407 J0.2875
G3 X10.4074 Y0.0564 I0.086 J0.3911
G3 X10.4625 Y0.0593 I0 J0.53
G3 X10.5087 Y0.0669 I-0.041 J0.3931
G3 X10.5529 Y0.08 I-0.0767 J0.3388
G3 X10.5904 Y0.0971 I-0.1001 J0.2698
G3 X10.6255 Y0.1199 I-0.1379 J0.2505
G3 X10.6582 Y0.1487 I-0.1856 J0.2442
G3 X10.6871 Y0.1821 I-0.2367 J0.2336
G3 X10.7148 Y0.2239 I-0.3332 J0.2511
G2 X10.808 Y0.1988 I0.0433 J-0.0251
G1 X10.808 Y0.0847
G1 X10.8877 Y0.0847
G1 Z-1.1 F5
G1 X10.8877 Y1.5043 F15
G1 X10.808 Y1.5043
G1 X10.808 Y0.9625
G2 X10.7148 Y0.9374 I-0.05 J0
G3 X10.6871 Y0.979 I-0.3562 J-0.2066
G3 X10.6583 Y1.0122 I-0.2598 J-0.1963
G3 X10.6257 Y1.0406 I-0.2123 J-0.2109
G3 X10.5907 Y1.063 I-0.167 J-0.2224
G1 X10.5902 Y1.0633
G3 X10.5525 Y1.0808 I-0.1386 J-0.2489
G3 X10.5085 Y1.0942 I-0.1208 J-0.3188
G3 X10.4623 Y1.1019 I-0.0872 J-0.3771
G3 X10.4074 Y1.1048 I-0.0549 J-0.5153
G3 X10.3215 Y1.0955 I0 J-0.4004
G3 X10.2495 Y1.0704 I0.0687 J-0.3126
G3 X10.1853 Y1.0289 I0.1425 J-0.2911
G3 X10.1236 Y0.9658 I0.2685 J-0.3243
G3 X10.0755 Y0.8904 I0.3618 J-0.2836
G3 X10.0391 Y0.7992 I0.4859 J-0.2468
G3 X10.0182 Y0.7017 I0.6081 J-0.1813
G3 X10.0102 Y0.5806 I0.9095 J-0.1211
G3 X10.0182 Y0.4595 I0.9175 J0
G3 X10.0391 Y0.362 I0.629 J0.0837
G3 X10.0755 Y0.2709 I0.5223 J0.1557
G3 X10.1234 Y0.1956 I0.4098 J0.2082
G3 X10.1853 Y0.1323 I0.3303 J0.261
G3 X10.2495 Y0.0909 I0.2067 J0.2496
G3 X10.3215 Y0.0657 I0.1407 J0.2875
G3 X10.4074 Y0.0564 I0.086 J0.3911
G3 X10.4625 Y0.0593 I0 J0.53
G3 X10.5087 Y0.0669 I-0.041 J0.3931
G3 X10.5529 Y0.08 I-0.0767 J0.3388
G3 X10.5904 Y0.0971 I-0.1001 J0.2698
G3 X10.6255 Y0.1199 I-0.1379 J0.2505
G3 X10.6582 Y0.1487 I-0.1856 J0.2442
G3 X10.6871 Y0.1821 I-0.2367 J0.2336
G3 X10.7148 Y0.2239 I-0.3332 J0.2511
G2 X10.808 Y0.1988 I0.0433 J-0.0251
G1 X10.808 Y0.0847
G1 X10.8877 Y0.0847
G1 Z-1.2 F5
G1 X10.8877 Y1.5043 F15
G1 X10.808 Y1.5043
G1 X10.808 Y0.9625
G2 X10.7148 Y0.9374 I-0.05 J0
G3 X10.6871 Y0.979 I-0.3562 J-0.2066
G3 X10.6583 Y1.0122 I-0.2598 J-0.1963
G3 X10.6257 Y1.0406 I-0.2123 J-0.2109
G3 X10.5907 Y1.063 I-0.167 J-0.2224
G1 X10.5902 Y1.0633
G3 X10.5525 Y1.0808 I-0.1386 J-0.2489
G3 X10.5085 Y1.0942 I-0.1208 J-0.3188
G3 X10.4623 Y1.1019 I-0.0872 J-0.3771
G3 X10.4074 Y1.1048 I-0.0549 J-0.5153
G3 X10.3215 Y1.0955 I0 J-0.4004
G3 X10.2495 Y1.0704 I0.0687 J-0.3126
G3 X10.1853 Y1.0289 I0.1425 J-0.2911
G3 X10.1236 Y0.9658 I0.2685 J-0.3243
G3 X10.0755 Y0.8904 I0.3618 J-0.2836
G3 X10.0391 Y0.7992 I0.4859 J-0.2468
G3 X10.0182 Y0.7017 I0.6081 J-0.1813
G3 X10.0102 Y0.5806 I0.9095 J-0.1211
G3 X10.0182 Y0.4595 I0.9175 J0
G3 X10.0391 Y0.362 I0.629 J0.0837
G3 X10.0755 Y0.2709 I0.5223 J0.1557
G3 X10.1234 Y0.1956 I0.4098 J0.2082
G3 X10.1853 Y0.1323 I0.3303 J0.261
G3 X10.2495 Y0.0909 I0.2067 J0.2496
G3 X10.3215 Y0.0657 I0.1407 J0.2875
G3 X10.4074 Y0.0564 I0.086 J0.3911
G3 X10.4625 Y0.0593 I0 J0.53
G3 X10.5087 Y0.0669 I-0.041 J0.3931
G3 X10.5529 Y0.08 I-0.0767 J0.3388
G3 X10.5904 Y0.0971 I-0.1001 J0.2698
G3 X10.6255 Y0.1199 I-0.1379 J0.2505
G3 X10.6582 Y0.1487 I-0.1856 J0.2442
G3 X10.6871 Y0.1821 I-0.2367 J0.2336
G3 X10.7148 Y0.2239 I-0.3332 J0.2511
G2 X10.808 Y0.1988 I0.0433 J-0.0251
G1 X10.808 Y0.0847
G1 X10.8877 Y0.0847
G1 Z-1.3 F5
G1 X10.8877 Y1.5043 F15
G1 X10.808 Y1.5043
G1 X10.808 Y0.9625
G2 X10.7148 Y0.9374 I-0.05 J0
G3 X10.6871 Y0.979 I-0.3562 J-0.2066
G3 X10.6583 Y1.0122 I-0.2598 J-0.1963
G3 X10.6257 Y1.0406 I-0.2123 J-0.2109
G3 X10.5907 Y1.063 I-0.167 J-0.2224
G1 X10.5902 Y1.0633
G3 X10.5525 Y1.0808 I-0.1386 J-0.2489
G3 X10.5085 Y1.0942 I-0.1208 J-0.3188
G3 X10.4623 Y1.1019 I-0.0872 J-0.3771
G3 X10.4074 Y1.1048 I-0.0549 J-0.5153
G3 X10.3215 Y1.0955 I0 J-0.4004
G3 X10.2495 Y1.0704 I0.0687 J-0.3126
G3 X10.1853 Y1.0289 I0.1425 J-0.2911
G3 X10.1236 Y0.9658 I0.2685 J-0.3243
G3 X10.0755 Y0.8904 I0.3618 J-0.2836
G3 X10.0391 Y0.7992 I0.4859 J-0.2468
G3 X10.0182 Y0.7017 I0.6081 J-0.1813
G3 X10.0102 Y0.5806 I0.9095 J-0.1211
G3 X10.0182 Y0.4595 I0.9175 J0
G3 X10.0391 Y0.362 I0.629 J0.0837
G3 X10.0755 Y0.2709 I0.5223 J0.1557
G3 X10.1234 Y0.1956 I0.4098 J0.2082
G3 X10.1853 Y0.1323 I0.3303 J0.261
G3 X10.2495 Y0.0909 I0.2067 J0.2496
G3 X10.3215 Y0.0657 I0.1407 J0.2875
G3 X10.4074 Y0.0564 I0.086 J0.3911
G3 X10.4625 Y0.0593 I0 J0.53
G3 X10.5087 Y0.0669 I-0.041 J0.3931
G3 X10.5529 Y0.08 I-0.0767 J0.3388
G3 X10.5904 Y0.0971 I-0.1001 J0.2698
G3 X10.6255 Y0.1199 I-0.1379 J0.2505
G3 X10.6582 Y0.1487 I-0.1856 J0.2442
G3 X10.6871 Y0.1821 I-0.2367 J0.2336
G3 X10.7148 Y0.2239 I-0.3332 J0.2511
G2 X10.808 Y0.1988 I0.0433 J-0.0251
G1 X10.808 Y0.0847
G1 X10.8877 Y0.0847
G0 Z1
G0 X0.0727 Y1.4427
G1 Z-0.1 F5
G1 X0.0727 Y0.0847 F15
G1 X0.5461 Y0.0847
G3 X0.6616 Y0.0918 I0 J0.9486
G3 X0.7496 Y0.1095 I-0.0717 J0.5849
G3 X0.8312 Y0.1409 I-0.1276 J0.4531
G3 X0.8928 Y0.1802 I-0.1513 J0.3048
G3 X0.9429 Y0.2312 I-0.1896 J0.2366
G3 X0.9779 Y0.29 I-0.2222 J0.172
G3 X0.9987 Y0.3566 I-0.2844 J0.1252
G3 X1.0069 Y0.4429 I-0.45 J0.0863
G3 X1.002 Y0.5089 I-0.4477 J0
G3 X0.9891 Y0.5633 I-0.3276 J-0.0488
G3 X0.9672 Y0.6138 I-0.2848 J-0.0934
G3 X0.9372 Y0.6583 I-0.2519 J-0.1378
G1 X0.9368 Y0.6587
G3 X0.8994 Y0.6973 I-0.2259 J-0.1816
G3 X0.8543 Y0.7293 I-0.1976 J-0.2309
G3 X0.8035 Y0.7533 I-0.1686 J-0.2906
G3 X0.7397 Y0.772 I-0.159 J-0.4248
G2 X0.7002 Y0.8209 I0.0105 J0.0489
G2 X0.7423 Y0.8702 I0.05 J0
G3 X0.7939 Y0.8826 I-0.0553 J0.3432
G3 X0.833 Y0.8993 I-0.0727 J0.2249
G3 X0.8672 Y0.9224 I-0.0972 J0.181
G3 X0.8946 Y0.9505 I-0.1209 J0.1452
G3 X0.9159 Y0.9839 I-0.1552 J0.1226
G3 X0.9327 Y1.0263 I-0.2237 J0.113
G3 X0.9424 Y1.0726 I-0.2904 J0.0852
G3 X0.9463 Y1.1324 I-0.46 J0.0598
G3 X0.9389 Y1.2072 I-0.3827 J0
G3 X0.9203 Y1.2646 I-0.2551 J-0.0509
G3 X0.8892 Y1.315 I-0.2166 J-0.0992
G3 X0.8438 Y1.3593 I-0.2087 J-0.1683
G3 X0.7881 Y1.3934 I-0.1885 J-0.2454
G3 X0.7133 Y1.421 I-0.1903 J-0.4004
G3 X0.6327 Y1.4365 I-0.1459 J-0.5411
G3 X0.5266 Y1.4427 I-0.1061 J-0.9041
G1 X0.0727 Y1.4427
G1 Z-0.2 F5
G1 X0.0727 Y0.0847 F15
G1 X0.5461 Y0.0847
G3 X0.6616 Y0.0918 I0 J0.9486
G3 X0.7496 Y0.1095 I-0.0717 J0.5849
G3 X0.8312 Y0.1409 I-0.1276 J0.4531
G3 X0.8928 Y0.1802 I-0.1513 J0.3048
G3 X0.9429 Y0.2312 I-0.1896 J0.2366
G3 X0.9779 Y0.29 I-0.2222 J0.172
G3 X0.9987 Y0.3566 I-0.2844 J0.1252
G3 X1.0069 Y0.4429 I-0.45 J0.0863
G3 X1.002 Y0.5089 I-0.4477 J0
G3 X0.9891 Y0.5633 I-0.3276 J-0.0488
G3 X0.9672 Y0.6138 I-0.2848 J-0.0934
G3 X0.9372 Y0.6583 I-0.2519 J-0.1378
G1 X0.9368 Y0.6587
G3 X0.8994 Y0.6973 I-0.2259 J-0.1816
G3 X0.8543 Y0.7293 I-0.1976 J-0.2309
G3 X0.8035 Y0.7533 I-0.1686 J-0.2906
G3 X0.7397 Y0.772 I-0.159 J-0.4248
G2 X0.7002 Y0.8209 I0.0105 J0.0489
G2 X0.7423 Y0.8702 I0.05 J0
G3 X0.7939 Y0.8826 I-0.0553 J0.3432
G3 X0.833 Y0.8993 I-0.0727 J0.2249
G3 X0.8672 Y0.9224 I-0.0972 J0.181
G3 X0.8946 Y0.9505 I-0.1209 J0.1452
G3 X0.9159 Y0.9839 I-0.1552 J0.1226
G3 X0.9327 Y1.0263 I-0.2237 J0.113
G3 X0.9424 Y1.0726 I-0.2904 J0.0852
G3 X0.9463 Y1.1324 I-0.46 J0.0598
G3 X0.9389 Y1.2072 I-0.3827 J0
G3 X0.9203 Y1.2646 I-0.2551 J-0.0509
G3 X0.8892 Y1.315 I-0.2166 J-0.0992
G3 X0.8438 Y1.3593 I-0.2087 J-0.1683
G3 X0.7881 Y1.3934 I-0.1885 J-0.2454
G3 X0.7133 Y1.421 I-0.1903 J-0.4004
G3 X0.6327 Y1.4365 I-0.1459 J-0.5411
G3 X0.5266 Y1.4427 I-0.1061 J-0.9041
G1 X0.0727 Y1.4427
G1 Z-0.3 F5
G1 X0.0727 Y0.0847 F15
G1 X0.5461 Y0.0847
G3 X0.6616 Y0.0918 I0 J0.9486
G3 X0.7496 Y0.1095 I-0.0717 J0.5849
G3 X0.8312 Y0.1409 I-0.1276 J0.4531
G3 X0.8928 Y0.1802 I-0.1513 J0.3048
G3 X0.9429 Y0.2312 I-0.1896 J0.2366
G3 X0.9779 Y0.29 I-0.2222 J0.172
G3 X0.9987 Y0.3566 I-0.2844 J0.1252
G3 X1.0069 Y0.4429 I-0.45 J0.0863
G3 X1.002 Y0.5089 I-0.4477 J0
G3 X0.9891 Y0.5633 I-0.3276 J-0.0488
G3 X0.9672 Y0.6138 I-0.2848 J-0.0934
G3 X0.9372 Y0.6583 I-0.2519 J-0.1378
G1 X0.9368 Y0.6587
G3 X0.8994 Y0.6973 I-0.2259 J-0.1816
G3 X0.8543 Y0.7293 I-0.1976 J-0.2309
G3 X0.8035 Y0.7533 I-0.1686 J-0.2906
G3 X0.7397 Y0.772 I-0.159 J-0.4248
G2 X0.7002 Y0.8209 I0.0105 J0.0489
G2 X0.7423 Y0.8702 I0.05 J0
G3 X0.7939 Y0.8826 I-0.0553 J0.3432
G3 X0.833 Y0.8993 I-0.0727 J0.2249
G3 X0.8672 Y0.9224 I-0.0972 J0.181
G3 X0.8946 Y0.9505 I-0.1209 J0.1452
G3 X0.9159 Y0.9839 I-0.1552 J0.1226
G3 X0.9327 Y1.0263 I-0.2237 J0.113
G3 X0.9424 Y1.0726 I-0.2904 J0.0852
G3 X0.9463 Y1.1324 I-0.46 J0.0598
G3 X0.9389 Y1.2072 I-0.3827 J0
G3 X0.9203 Y1.2646 I-0.2551 J-0.0509
G3 X0.8892 Y1.315 I-0.2166 J-0.0992
G3 X0.8438 Y1.3593 I-0.2087 J-0.1683
G3 X0.7881 Y1.3934 I-0.1885 J-0.2454
G3 X0.7133 Y1.421 I-0.1903 J-0.4004
G3 X0.6327 Y1.4365 I-0.1459 J-0.5411
G3 X0.5266 Y1.4427 I-0.1061 J-0.9041
G1 X0.0727 Y1.4427
G1 Z-0.4 F5
G1 X0.0727 Y0.0847 F15
G1 X0.5461 Y0.0847
G3 X0.6616 Y0.0918 I0 J0.9486
G3 X0.7496 Y0.1095 I-0.0717 J0.5849
G3 X0.8312 Y0.1409 I-0.1276 J0.4531
G3 X0.8928 Y0.1802 I-0.1513 J0.3048
G3 X0.9429 Y0.2312 I-0.1896 J0.2366
G3 X0.9779 Y0.29 I-0.2222 J0.172
G3 X0.9987 Y0.3566 I-0.2844 J0.1252
G3 X1.0069 Y0.4429 I-0.45 J0.0863
G3 X1.002 Y0.5089 I-0.4477 J0
G3 X0.9891 Y0.5633 I-0.3276 J-0.0488
G3 X0.9672 Y0.6138 I-0.2848 J-0.0934
G3 X0.9372 Y0.6583 I-0.2519 J-0.1378
G1 X0.9368 Y0.6587
G3 X0.8994 Y0.6973 I-0.2259 J-0.1816
G3 X0.8543 Y0.7293 I-0.1976 J-0.2309
G3 X0.8035 Y0.7533 I-0.1686 J-0.2906
G3 X0.7397 Y0.772 I-0.159 J-0.4248
G2 X0.7002 Y0.8209 I0.0105 J0.0489
G2 X0.7423 Y0.8702 I0.05 J0
G3 X0.7939 Y0.8826 I-0.0553 J0.3432
G3 X0.833 Y0.8993 I-0.0727 J0.2249
G3 X0.8672 Y0.9224 I-0.0972 J0.181
G3 X0.8946 Y0.9505 I-0.1209 J0.1452
G3 X0.9159 Y0.9839 I-0.1552 J0.1226
G3 X0.9327 Y1.0263 I-0.2237 J0.113
G3 X0.9424 Y1.0726 I-0.2904 J0.0852
G3 X0.9463 Y1.1324 I-0.46 J0.0598
G3 X0.9389 Y1.2072 I-0.3827 J0
G3 X0.9203 Y1.2646 I-0.2551 J-0.0509
G3 X0.8892 Y1.315 I-0.2166 J-0.0992
G3 X0.8438 Y1.3593 I-0.2087 J-0.1683
G3 X0.7881 Y1.3934 I-0.1885 J-0.2454
G3 X0.7133 Y1.421 I-0.1903 J-0.4004
G3 X0.6327 Y1.4365 I-0.1459 J-0.5411
G3 X0.5266 Y1.4427 I-0.1061 J-0.9041
G1 X0.0727 Y1.4427
G1 Z-0.5 F5
G1 X0.0727 Y0.0847 F15
G1 X0.5461 Y0.0847
G3 X0.6616 Y0.0918 I0 J0.9486
G3 X0.7496 Y0.1095 I-0.0717 J0.5849
G3 X0.8312 Y0.1409 I-0.1276 J0.4531
G3 X0.8928 Y0.1802 I-0.1513 J0.3048
G3 X0.9429 Y0.2312 I-0.1896 J0.2366
G3 X0.9779 Y0.29 I-0.2222 J0.172
G3 X0.9987 Y0.3566 I-0.2844 J0.1252
G3 X1.0069 Y0.4429 I-0.45 J0.0863
G3 X1.002 Y0.5089 I-0.4477 J0
G3 X0.9891 Y0.5633 I-0.3276 J-0.0488
G3 X0.9672 Y0.6138 I-0.2848 J-0.0934
G3 X0.9372 Y0.6583 I-0.2519 J-0.1378
G1 X0.9368 Y0.6587
G3 X0.8994 Y0.6973 I-0.2259 J-0.1816
G3 X0.8543 Y0.7293 I-0.1976 J-0.2309
G3 X0.8035 Y0.7533 I-0.1686 J-0.2906
G3 X0.7397 Y0.772 I-0.159 J-0.4248
G2 X0.7002 Y0.8209 I0.0105 J0.0489
G2 X0.7423 Y0.8702 I0.05 J0
G3 X0.7939 Y0.8826 I-0.0553 J0.3432
G3 X0.833 Y0.8993 I-0.0727 J0.2249
G3 X0.8672 Y0.9224 I-0.0972 J0.181
G3 X0.8946 Y0.9505 I-0.1209 J0.1452
G3 X0.9159 Y0.9839 I-0.1552 J0.1226
G3 X0.9327 Y1.0263 I-0.2237 J0.113
G3 X0.9424 Y1.0726 I-0.2904 J0.0852
G3 X0.9463 Y1.1324 I-0.46 J0.0598
G3 X0.9389 Y1.2072 I-0.3827 J0
G3 X0.9203 Y1.2646 I-0.2551 J-0.0509
G3 X0.8892 Y1.315 I-0.2166 J-0.0992
G3 X0.8438 Y1.3593 I-0.2087 J-0.1683
G3 X0.7881 Y1.3934 I-0.1885 J-0.2454
G3 X0.7133 Y1.421 I-0.1903 J-0.4004
G3 X0.6327 Y1.4365 I-0.1459 J-0.5411
G3 X0.5266 Y1.4427 I-0.1061 J-0.9041
G1 X0.0727 Y1.4427
G1 Z-0.6 F5
G1 X0.0727 Y0.0847 F15
G1 X0.5461 Y0.0847
G3 X0.6616 Y0.0918 I0 J0.9486
G3 X0.7496 Y0.1095 I-0.0717 J0.5849
G3 X0.8312 Y0.1409 I-0.1276 J0.4531
G3 X0.8928 Y0.1802 I-0.1513 J0.3048
G3 X0.9429 Y0.2312 I-0.1896 J0.2366
G3 X0.9779 Y0.29 I-0.2222 J0.172
G3 X0.9987 Y0.3566 I-0.2844 J0.1252
G3 X1.0069 Y0.4429 I-0.45 J0.0863
G3 X1.002 Y0.5089 I-0.4477 J0
G3 X0.9891 Y0.5633 I-0.3276 J-0.0488
G3 X0.9672 Y0.6138 I-0.2848 J-0.0934
G3 X0.9372 Y0.6583 I-0.2519 J-0.1378
G1 X0.9368 Y0.6587
G3 X0.8994 Y0.6973 I-0.2259 J-0.1816
G3 X0.8543 Y0.7293 I-0.1976 J-0.2309
G3 X0.8035 Y0.7533 I-0.1686 J-0.2906
G3 X0.7397 Y0.772 I-0.159 J-0.4248
G2 X0.7002 Y0.8209 I0.0105 J0.0489
G2 X0.7423 Y0.8702 I0.05 J0
G3 X0.7939 Y0.8826 I-0.0553 J0.3432
G3 X0.833 Y0.8993 I-0.0727 J0.2249
G3 X0.8672 Y0.9224 I-0.0972 J0.181
G3 X0.8946 Y0.9505 I-0.1209 J0.1452
G3 X0.9159 Y0.9839 I-0.1552 J0.1226
G3 X0.9327 Y1.0263 I-0.2237 J0.113
G3 X0.9424 Y1.0726 I-0.2904 J0.0852
G3 X0.9463 Y1.1324 I-0.46 J0.0598
G3 X0.9389 Y1.2072 I-0.3827 J0
G3 X0.9203 Y1.2646 I-0.2551 J-0.0509
G3 X0.8892 Y1.315 I-0.2166 J-0.0992
G3 X0.8438 Y1.3593 I-0.2087 J-0.1683
G3 X0.7881 Y1.3934 I-0.1885 J-0.2454
G3 X0.7133 Y1.421 I-0.1903 J-0.4004
G3 X0.6327 Y1.4365 I-0.1459 J-0.5411
G3 X0.5266 Y1.4427 I-0.1061 J-0.9041
G1 X0.0727 Y1.4427
G1 Z-0.7 F5
G1 X0.0727 Y0.0847 F15
G1 X0.5461 Y0.0847
G3 X0.6616 Y0.0918 I0 J0.9486
G3 X0.7496 Y0.1095 I-0.0717 J0.5849
G3 X0.8312 Y0.1409 I-0.1276 J0.4531
G3 X0.8928 Y0.1802 I-0.1513 J0.3048
G3 X0.9429 Y0.2312 I-0.1896 J0.2366
G3 X0.9779 Y0.29 I-0.2222 J0.172
G3 X0.9987 Y0.3566 I-0.2844 J0.1252
G3 X1.0069 Y0.4429 I-0.45 J0.0863
G3 X1.002 Y0.5089 I-0.4477 J0
G3 X0.9891 Y0.5633 I-0.3276 J-0.0488
G3 X0.9672 Y0.6138 I-0.2848 J-0.0934
G3 X0.9372 Y0.6583 I-0.2519 J-0.1378
G1 X0.9368 Y0.6587
G3 X0.8994 Y0.6973 I-0.2259 J-0.1816
G3 X0.8543 Y0.7293 I-0.1976 J-0.2309
G3 X0.8035 Y0.7533 I-0.1686 J-0.2906
G3 X0.7397 Y0.772 I-0.159 J-0.4248
G2 X0.7002 Y0.8209 I0.0105 J0.0489
G2 X0.7423 Y0.8702 I0.05 J0
G3 X0.7939 Y0.8826 I-0.0553 J0.3432
G3 X0.833 Y0.8993 I-0.0727 J0.2249
G3 X0.8672 Y0.9224 I-0.0972 J0.181
G3 X0.8946 Y0.9505 I-0.1209 J0.1452
G3 X0.9159 Y0.9839 I-0.1552 J0.1226
G3 X0.9327 Y1.0263 I-0.2237 J0.113
G3 X0.9424 Y1.0726 I-0.2904 J0.0852
G3 X0.9463 Y1.1324 I-0.46 J0.0598
G3 X0.9389 Y1.2072 I-0.3827 J0
G3 X0.9203 Y1.2646 I-0.2551 J-0.0509
G3 X0.8892 Y1.315 I-0.2166 J-0.0992
G3 X0.8438 Y1.3593 I-0.2087 J-0.1683
G3 X0.7881 Y1.3934 I-0.1885 J-0.2454
G3 X0.7133 Y1.421 I-0.1903 J-0.4004
G3 X0.6327 Y1.4365 I-0.1459 J-0.5411
G3 X0.5266 Y1.4427 I-0.1061 J-0.9041
G1 X0.0727 Y1.4427
G1 Z-0.8 F5
G1 X0.0727 Y0.0847 F15
G1 X0.5461 Y0.0847
G3 X0.6616 Y0.0918 I0 J0.9486
G3 X0.7496 Y0.1095 I-0.0717 J0.5849
G3 X0.8312 Y0.1409 I-0.1276 J0.4531
G3 X0.8928 Y0.1802 I-0.1513 J0.3048
G3 X0.9429 Y0.2312 I-0.1896 J0.2366
G3 X0.9779 Y0.29 I-0.2222 J0.172
G3 X0.9987 Y0.3566 I-0.2844 J0.1252
G3 X1.0069 Y0.4429 I-0.45 J0.0863
G3 X1.002 Y0.5089 I-0.4477 J0
G3 X0.9891 Y0.5633 I-0.3276 J-0.0488
G3 X0.9672 Y0.6138 I-0.2848 J-0.0934
G3 X0.9372 Y0.6583 I-0.2519 J-0.1378
G1 X0.9368 Y0.6587
G3 X0.8994 Y0.6973 I-0.2259 J-0.1816
G3 X0.8543 Y0.7293 I-0.1976 J-0.2309
G3 X0.8035 Y0.7533 I-0.1686 J-0.2906
G3 X0.7397 Y0.772 I-0.159 J-0.4248
G2 X0.7002 Y0.8209 I0.0105 J0.0489
G2 X0.7423 Y0.8702 I0.05 J0
G3 X0.7939 Y0.8826 I-0.0553 J0.3432
G3 X0.833 Y0.8993 I-0.0727 J0.2249
G3 X0.8672 Y0.9224 I-0.0972 J0.181
G3 X0.8946 Y0.9505 I-0.1209 J0.1452
G3 X0.9159 Y0.9839 I-0.1552 J0.1226
G3 X0.9327 Y1.0263 I-0.2237 J0.113
G3 X0.9424 Y1.0726 I-0.2904 J0.0852
G3 X0.9463 Y1.1324 I-0.46 J0.0598
G3 X0.9389 Y1.2072 I-0.3827 J0
G3 X0.9203 Y1.2646 I-0.2551 J-0.0509
G3 X0.8892 Y1.315 I-0.2166 J-0.0992
G3 X0.8438 Y1.3593 I-0.2087 J-0.1683
G3 X0.7881 Y1.3934 I-0.1885 J-0.2454
G3 X0.7133 Y1.421 I-0.1903 J-0.4004
G3 X0.6327 Y1.4365 I-0.1459 J-0.5411
G3 X0.5266 Y1.4427 I-0.1061 J-0.9041
G1 X0.0727 Y1.4427
G1 Z-0.9 F5
G1 X0.0727 Y0.0847 F15
G1 X0.5461 Y0.0847
G3 X0.6616 Y0.0918 I0 J0.9486
G3 X0.7496 Y0.1095 I-0.0717 J0.5849
G3 X0.8312 Y0.1409 I-0.1276 J0.4531
G3 X0.8928 Y0.1802 I-0.1513 J0.3048
G3 X0.9429 Y0.2312 I-0.1896 J0.2366
G3 X0.9779 Y0.29 I-0.2222 J0.172
G3 X0.9987 Y0.3566 I-0.2844 J0.1252
G3 X1.0069 Y0.4429 I-0.45 J0.0863
G3 X1.002 Y0.5089 I-0.4477 J0
G3 X0.9891 Y0.5633 I-0.3276 J-0.0488
G3 X0.9672 Y0.6138 I-0.2848 J-0.0934
G3 X0.9372 Y0.6583 I-0.2519 J-0.1378
G1 X0.9368 Y0.6587
G3 X0.8994 Y0.6973 I-0.2259 J-0.1816
G3 X0.8543 Y0.7293 I-0.1976 J-0.2309
G3 X0.8035 Y0.7533 I-0.1686 J-0.2906
G3 X0.7397 Y0.772 I-0.159 J-0.4248
G2 X0.7002 Y0.8209 I0.0105 J0.0489
G2 X0.7423 Y0.8702 I0.05 J0
G3 X0.7939 Y0.8826 I-0.0553 J0.3432
G3 X0.833 Y0.8993 I-0.0727 J0.2249
G3 X0.8672 Y0.9224 I-0.0972 J0.181
G3 X0.8946 Y0.9505 I-0.1209 J0.1452
G3 X0.9159 Y0.9839 I-0.1552 J0.1226
G3 X0.9327 Y1.0263 I-0.2237 J0.113
G3 X0.9424 Y1.0726 I-0.2904 J0.0852
G3 X0.9463 Y1.1324 I-0.46 J0.0598
G3 X0.9389 Y1.2072 I-0.3827 J0
G3 X0.9203 Y1.2646 I-0.2551 J-0.0509
G3 X0.8892 Y1.315 I-0.2166 J-0.0992
G3 X0.8438 Y1.3593 I-0.2087 J-0.1683
G3 X0.7881 Y1.3934 I-0.1885 J-0.2454
G3 X0.7133 Y1.421 I-0.1903 J-0.4004
G3 X0.6327 Y1.4365 I-0.1459 J-0.5411
G3 X0.5266 Y1.4427 I-0.1061 J-0.9041
G1 X0.0727 Y1.4427
G1 Z-1 F5
G1 X0.0727 Y0.0847 F15
G1 X0.5461 Y0.0847
G3 X0.6616 Y0.0918 I0 J0.9486
G3 X0.7496 Y0.1095 I-0.0717 J0.5849
G3 X0.8312 Y0.1409 I-0.1276 J0.4531
G3 X0.8928 Y0.1802 I-0.1513 J0.3048
G3 X0.9429 Y0.2312 I-0.1896 J0.2366
G3 X0.9779 Y0.29 I-0.2222 J0.172
G3 X0.9987 Y0.3566 I-0.2844 J0.1252
G3 X1.0069 Y0.4429 I-0.45 J0.0863
G3 X1.002 Y0.5089 I-0.4477 J0
G3 X0.9891 Y0.5633 I-0.3276 J-0.0488
G3 X0.9672 Y0.6138 I-0.2848 J-0.0934
G3 X0.9372 Y0.6583 I-0.2519 J-0.1378
G1 X0.9368 Y0.6587
G3 X0.8994 Y0.6973 I-0.2259 J-0.1816
G3 X0.8543 Y0.7293 I-0.1976 J-0.2309
G3 X0.8035 Y0.7533 I-0.1686 J-0.2906
G3 X0.7397 Y0.772 I-0.159 J-0.4248
G2 X0.7002 Y0.8209 I0.0105 J0.0489
G2 X0.7423 Y0.8702 I0.05 J0
G3 X0.7939 Y0.8826 I-0.0553 J0.3432
G3 X0.833 Y0.8993 I-0.0727 J0.2249
G3 X0.8672 Y0.9224 I-0.0972 J0.181
G3 X0.8946 Y0.9505 I-0.1209 J0.1452
G3 X0.9159 Y0.9839 I-0.1552 J0.1226
G3 X0.9327 Y1.0263 I-0.2237 J0.113
G3 X0.9424 Y1.0726 I-0.2904 J0.0852
G3 X0.9463 Y1.1324 I-0.46 J0.0598
G3 X0.9389 Y1.2072 I-0.3827 J0
G3 X0.9203 Y1.2646 I-0.2551 J-0.0509
G3 X0.8892 Y1.315 I-0.2166 J-0.0992
G3 X0.8438 Y1.3593 I-0.2087 J-0.1683
G3 X0.7881 Y1.3934 I-0.1885 J-0.2454
G3 X0.7133 Y1.421 I-0.1903 J-0.4004
G3 X0.6327 Y1.4365 I-0.1459 J-0.5411
G3 X0.5266 Y1.4427 I-0.1061 J-0.9041
G1 X0.0727 Y1.4427
G1 Z-1.1 F5
G1 X0.0727 Y0.0847 F15
G1 X0.5461 Y0.0847
G3 X0.6616 Y0.0918 I0 J0.9486
G3 X0.7496 Y0.1095 I-0.0717 J0.5849
G3 X0.8312 Y0.1409 I-0.1276 J0.4531
G3 X0.8928 Y0.1802 I-0.1513 J0.3048
G3 X0.9429 Y0.2312 I-0.1896 J0.2366
G3 X0.9779 Y0.29 I-0.2222 J0.172
G3 X0.9987 Y0.3566 I-0.2844 J0.1252
G3 X1.0069 Y0.4429 I-0.45 J0.0863
G3 X1.002 Y0.5089 I-0.4477 J0
G3 X0.9891 Y0.5633 I-0.3276 J-0.0488
G3 X0.9672 Y0.6138 I-0.2848 J-0.0934
G3 X0.9372 Y0.6583 I-0.2519 J-0.1378
G1 X0.9368 Y0.6587
G3 X0.8994 Y0.6973 I-0.2259 J-0.1816
G3 X0.8543 Y0.7293 I-0.1976 J-0.2309
G3 X0.8035 Y0.7533 I-0.1686 J-0.2906
G3 X0.7397 Y0.772 I-0.159 J-0.4248
G2 X0.7002 Y0.8209 I0.0105 J0.0489
G2 X0.7423 Y0.8702 I0.05 J0
G3 X0.7939 Y0.8826 I-0.0553 J0.3432
G3 X0.833 Y0.8993 I-0.0727 J0.2249
G3 X0.8672 Y0.9224 I-0.0972 J0.181
G3 X0.8946 Y0.9505 I-0.1209 J0.1452
G3 X0.9159 Y0.9839 I-0.1552 J0.1226
G3 X0.9327 Y1.0263 I-0.2237 J0.113
G3 X0.9424 Y1.0726 I-0.2904 J0.0852
G3 X0.9463 Y1.1324 I-0.46 J0.0598
G3 X0.9389 Y1.2072 I-0.3827 J0
G3 X0.9203 Y1.2646 I-0.2551 J-0.0509
G3 X0.8892 Y1.315 I-0.2166 J-0.0992
G3 X0.8438 Y1.3593 I-0.2087 J-0.1683
G3 X0.7881 Y1.3934 I-0.1885 J-0.2454
G3 X0.7133 Y1.421 I-0.1903 J-0.4004
G3 X0.6327 Y1.4365 I-0.1459 J-0.5411
G3 X0.5266 Y1.4427 I-0.1061 J-0.9041
G1 X0.0727 Y1.4427
G1 Z-1.2 F5
G1 X0.0727 Y0.0847 F15
G1 X0.5461 Y0.0847
G3 X0.6616 Y0.0918 I0 J0.9486
G3 X0.7496 Y0.1095 I-0.0717 J0.5849
G3 X0.8312 Y0.1409 I-0.1276 J0.4531
G3 X0.8928 Y0.1802 I-0.1513 J0.3048
G3 X0.9429 Y0.2312 I-0.1896 J0.2366
G3 X0.9779 Y0.29 I-0.2222 J0.172
G3 X0.9987 Y0.3566 I-0.2844 J0.1252
G3 X1.0069 Y0.4429 I-0.45 J0.0863
G3 X1.002 Y0.5089 I-0.4477 J0
G3 X0.9891 Y0.5633 I-0.3276 J-0.0488
G3 X0.9672 Y0.6138 I-0.2848 J-0.0934
G3 X0.9372 Y0.6583 I-0.2519 J-0.1378
G1 X0.9368 Y0.6587
G3 X0.8994 Y0.6973 I-0.2259 J-0.1816
G3 X0.8543 Y0.7293 I-0.1976 J-0.2309
G3 X0.8035 Y0.7533 I-0.1686 J-0.2906
G3 X0.7397 Y0.772 I-0.159 J-0.4248
G2 X0.7002 Y0.8209 I0.0105 J0.0489
G2 X0.7423 Y0.8702 I0.05 J0
G3 X0.7939 Y0.8826 I-0.0553 J0.3432
G3 X0.833 Y0.8993 I-0.0727 J0.2249
G3 X0.8672 Y0.9224 I-0.0972 J0.181
G3 X0.8946 Y0.9505 I-0.1209 J0.1452
G3 X0.9159 Y0.9839 I-0.1552 J0.1226
G3 X0.9327 Y1.0263 I-0.2237 J0.113
G3 X0.9424 Y1.0726 I-0.2904 J0.0852
G3 X0.9463 Y1.1324 I-0.46 J0.0598
G3 X0.9389 Y1.2072 I-0.3827 J0
G3 X0.9203 Y1.2646 I-0.2551 J-0.0509
G3 X0.8892 Y1.315 I-0.2166 J-0.0992
G3 X0.8438 Y1.3593 I-0.2087 J-0.1683
G3 X0.7881 Y1.3934 I-0.1885 J-0.2454
G3 X0.7133 Y1.421 I-0.1903 J-0.4004
G3 X0.6327 Y1.4365 I-0.1459 J-0.5411
G3 X0.5266 Y1.4427 I-0.1061 J-0.9041
G1 X0.0727 Y1.4427
G1 Z-1.3 F5
G1 X0.0727 Y0.0847 F15
G1 X0.5461 Y0.0847
G3 X0.6616 Y0.0918 I0 J0.9486
G3 X0.7496 Y0.1095 I-0.0717 J0.5849
G3 X0.8312 Y0.1409 I-0.1276 J0.4531
G3 X0.8928 Y0.1802 I-0.1513 J0.3048
G3 X0.9429 Y0.2312 I-0.1896 J0.2366
G3 X0.9779 Y0.29 I-0.2222 J0.172
G3 X0.9987 Y0.3566 I-0.2844 J0.1252
G3 X1.0069 Y0.4429 I-0.45 J0.0863
G3 X1.002 Y0.5089 I-0.4477 J0
G3 X0.9891 Y0.5633 I-0.3276 J-0.0488
G3 X0.9672 Y0.6138 I-0.2848 J-0.0934
G3 X0.9372 Y0.6583 I-0.2519 J-0.1378
G1 X0.9368 Y0.6587
G3 X0.8994 Y0.6973 I-0.2259 J-0.1816
G3 X0.8543 Y0.7293 I-0.1976 J-0.2309
G3 X0.8035 Y0.7533 I-0.1686 J-0.2906
G3 X0.7397 Y0.772 I-0.159 J-0.4248
G2 X0.7002 Y0.8209 I0.0105 J0.0489
G2 X0.7423 Y0.8702 I0.05 J0
G3 X0.7939 Y0.8826 I-0.0553 J0.3432
G3 X0.833 Y0.8993 I-0.0727 J0.2249
G3 X0.8672 Y0.9224 I-0.0972 J0.181
G3 X0.8946 Y0.9505 I-0.1209 J0.1452
G3 X0.9159 Y0.9839 I-0.1552 J0.1226
G3 X0.9327 Y1.0263 I-0.2237 J0.113
G3 X0.9424 Y1.0726 I-0.2904 J0.0852
G3 X0.9463 Y1.1324 I-0.46 J0.0598
G3 X0.9389 Y1.2072 I-0.3827 J0
G3 X0.9203 Y1.2646 I-0.2551 J-0.0509
G3 X0.8892 Y1.315 I-0.2166 J-0.0992
G3 X0.8438 Y1.3593 I-0.2087 J-0.1683
G3 X0.7881 Y1.3934 I-0.1885 J-0.2454
G3 X0.7133 Y1.421 I-0.1903 J-0.4004
G3 X0.6327 Y1.4365 I-0.1459 J-0.5411
G3 X0.5266 Y1.4427 I-0.1061 J-0.9041
G1 X0.0727 Y1.4427
G0 Z1
G0 X9.6133 Y0.0847
G1 Z-0.1 F5
G1 X9.6133 Y1.0785 F15
G1 X9.5336 Y1.0785
G1 X9.5336 Y0.0847
G1 X9.6133 Y0.0847
G1 Z-0.2 F5
G1 X9.6133 Y1.0785 F15
G1 X9.5336 Y1.0785
G1 X9.5336 Y0.0847
G1 X9.6133 Y0.0847
G1 Z-0.3 F5
G1 X9.6133 Y1.0785 F15
G1 X9.5336 Y1.0785
G1 X9.5336 Y0.0847
G1 X9.6133 Y0.0847
G1 Z-0.4 F5
G1 X9.6133 Y1.0785 F15
G1 X9.5336 Y1.0785
G1 X9.5336 Y0.0847
G1 X9.6133 Y0.0847
G1 Z-0.5 F5
G1 X9.6133 Y1.0785 F15
G1 X9.5336 Y1.0785
G1 X9.5336 Y0.0847
G1 X9.6133 Y0.0847
G1 Z-0.6 F5
G1 X9.6133 Y1.0785 F15
G1 X9.5336 Y1.0785
G1 X9.5336 Y0.0847
G1 X9.6133 Y0.0847
G1 Z-0.7 F5
G1 X9.6133 Y1.0785 F15
G1 X9.5336 Y1.0785
G1 X9.5336 Y0.0847
G1 X9.6133 Y0.0847
G1 Z-0.8 F5
G1 X9.6133 Y1.0785 F15
G1 X9.5336 Y1.0785
G1 X9.5336 Y0.0847
G1 X9.6133 Y0.0847
G1 Z-0.9 F5
G1 X9.6133 Y1.0785 F15
G1 X9.5336 Y1.0785
G1 X9.5336 Y0.0847
G1 X9.6133 Y0.0847
G1 Z-1 F5
G1 X9.6133 Y1.0785 F15
G1 X9.5336 Y1.0785
G1 X9.5336 Y0.0847
G1 X9.6133 Y0.0847
G1 Z-1.1 F5
G1 X9.6133 Y1.0785 F15
G1 X9.5336 Y1.0785
G1 X9.5336 Y0.0847
G1 X9.6133 Y0.0847
G1 Z-1.2 F5
G1 X9.6133 Y1.0785 F15
G1 X9.5336 Y1.0785
G1 X9.5336 Y0.0847
G1 X9.6133 Y0.0847
G1 Z-1.3 F5
G1 X9.6133 Y1.0785 F15
G1 X9.5336 Y1.0785
G1 X9.5336 Y0.0847
G1 X9.6133 Y0.0847
G0 Z1
G0 X1.4291 Y1.0785
G1 Z-0.1 F5
G1 X1.4291 Y0.0847 F15
G1 X1.5098 Y0.0847
G1 X1.5098 Y0.6109
G1 X1.5098 Y0.6109
G2 X1.5158 Y0.709 I0.7993 J0
G2 X1.532 Y0.7884 I0.5201 J-0.0643
G2 X1.5619 Y0.865 I0.4172 J-0.119
G2 X1.6022 Y0.9269 I0.2996 J-0.1513
G2 X1.6565 Y0.9787 I0.2435 J-0.2005
G2 X1.7209 Y1.0158 I0.185 J-0.2467
G2 X1.7914 Y1.037 I0.1316 J-0.3096
G2 X1.8752 Y1.0447 I0.0839 J-0.4539
G2 X1.8993 Y1.044 I0 J-0.4511
G2 X1.9218 Y1.0422 I-0.0206 J-0.3851
G2 X1.9444 Y1.0389 I-0.04 J-0.3556
G2 X1.9647 Y1.0346 I-0.0545 J-0.3068
G2 X1.9694 Y1.0335 I-0.0636 J-0.2904
G1 X1.969 Y1.1017
G3 X1.9646 Y1.1021 I-0.0374 J-0.3789
G2 X1.9625 Y1.1023 I0.0043 J0.0498
G3 X1.9526 Y1.1035 I-0.0463 J-0.3552
G3 X1.9439 Y1.1042 I-0.0291 J-0.2847
G3 X1.9353 Y1.1047 I-0.0181 J-0.2535
G3 X1.928 Y1.1048 I-0.0074 J-0.1975
G3 X1.8684 Y1.1018 I0 J-0.5888
G3 X1.8186 Y1.0938 I0.0438 J-0.4311
G3 X1.7711 Y1.08 I0.0815 J-0.3684
G3 X1.7306 Y1.0618 I0.1045 J-0.287
G3 X1.6939 Y1.0387 I0.1335 J-0.2534
G3 X1.6603 Y1.0099 I0.1766 J-0.239
G3 X1.631 Y0.9761 I0.2253 J-0.2253
G3 X1.6033 Y0.9338 I0.3162 J-0.2378
G2 X1.5098 Y0.9586 I-0.0435 J0.0247
G1 X1.5098 Y1.0785
G1 X1.4291 Y1.0785
G1 Z-0.2 F5
G1 X1.4291 Y0.0847 F15
G1 X1.5098 Y0.0847
G1 X1.5098 Y0.6109
G1 X1.5098 Y0.6109
G2 X1.5158 Y0.709 I0.7993 J0
G2 X1.532 Y0.7884 I0.5201 J-0.0643
G2 X1.5619 Y0.865 I0.4172 J-0.119
G2 X1.6022 Y0.9269 I0.2996 J-0.1513
G2 X1.6565 Y0.9787 I0.2435 J-0.2005
G2 X1.7209 Y1.0158 I0.185 J-0.2467
G2 X1.7914 Y1.037 I0.1316 J-0.3096
G2 X1.8752 Y1.0447 I0.0839 J-0.4539
G2 X1.8993 Y1.044 I0 J-0.4511
G2 X1.9218 Y1.0422 I-0.0206 J-0.3851
G2 X1.9444 Y1.0389 I-0.04 J-0.3556
G2 X1.9647 Y1.0346 I-0.0545 J-0.3068
G2 X1.9694 Y1.0335 I-0.0636 J-0.2904
G1 X1.969 Y1.1017
G3 X1.9646 Y1.1021 I-0.0374 J-0.3789
G2 X1.9625 Y1.1023 I0.0043 J0.0498
G3 X1.9526 Y1.1035 I-0.0463 J-0.3552
G3 X1.9439 Y1.1042 I-0.0291 J-0.2847
G3 X1.9353 Y1.1047 I-0.0181 J-0.2535
G3 X1.928 Y1.1048 I-0.0074 J-0.1975
G3 X1.8684 Y1.1018 I0 J-0.5888
G3 X1.8186 Y1.0938 I0.0438 J-0.4311
G3 X1.7711 Y1.08 I0.0815 J-0.3684
G3 X1.7306 Y1.0618 I0.1045 J-0.287
G3 X1.6939 Y1.0387 I0.1335 J-0.2534
G3 X1.6603 Y1.0099 I0.1766 J-0.239
G3 X1.631 Y0.9761 I0.2253 J-0.2253
G3 X1.6033 Y0.9338 I0.3162 J-0.2378
G2 X1.5098 Y0.9586 I-0.0435 J0.0247
G1 X1.5098 Y1.0785
G1 X1.4291 Y1.0785
G1 Z-0.3 F5
G1 X1.4291 Y0.0847 F15
G1 X1.5098 Y0.0847
G1 X1.5098 Y0.6109
G1 X1.5098 Y0.6109
G2 X1.5158 Y0.709 I0.7993 J0
G2 X1.532 Y0.7884 I0.5201 J-0.0643
G2 X1.5619 Y0.865 I0.4172 J-0.119
G2 X1.6022 Y0.9269 I0.2996 J-0.1513
G2 X1.6565 Y0.9787 I0.2435 J-0.2005
G2 X1.7209 Y1.0158 I0.185 J-0.2467
G2 X1.7914 Y1.037 I0.1316 J-0.3096
G2 X1.8752 Y1.0447 I0.0839 J-0.4539
G2 X1.8993 Y1.044 I0 J-0.4511
G2 X1.9218 Y1.0422 I-0.0206 J-0.3851
G2 X1.9444 Y1.0389 I-0.04 J-0.3556
G2 X1.9647 Y1.0346 I-0.0545 J-0.3068
G2 X1.9694 Y1.0335 I-0.0636 J-0.2904
G1 X1.969 Y1.1017
G3 X1.9646 Y1.1021 I-0.0374 J-0.3789
G2 X1.9625 Y1.1023 I0.0043 J0.0498
G3 X1.9526 Y1.1035 I-0.0463 J-0.3552
G3 X1.9439 Y1.1042 I-0.0291 J-0.2847
G3 X1.9353 Y1.1047 I-0.0181 J-0.2535
G3 X1.928 Y1.1048 I-0.0074 J-0.1975
G3 X1.8684 Y1.1018 I0 J-0.5888
G3 X1.8186 Y1.0938 I0.0438 J-0.4311
G3 X1.7711 Y1.08 I0.0815 J-0.3684
G3 X1.7306 Y1.0618 I0.1045 J-0.287
G3 X1.6939 Y1.0387 I0.1335 J-0.2534
G3 X1.6603 Y1.0099 I0.1766 J-0.239
G3 X1.631 Y0.9761 I0.2253 J-0.2253
G3 X1.6033 Y0.9338 I0.3162 J-0.2378
G2 X1.5098 Y0.9586 I-0.0435 J0.0247
G1 X1.5098 Y1.0785
G1 X1.4291 Y1.0785
G1 Z-0.4 F5
G1 X1.4291 Y0.0847 F15
G1 X1.5098 Y0.0847
G1 X1.5098 Y0.6109
G1 X1.5098 Y0.6109
G2 X1.5158 Y0.709 I0.7993 J0
G2 X1.532 Y0.7884 I0.5201 J-0.0643
G2 X1.5619 Y0.865 I0.4172 J-0.119
G2 X1.6022 Y0.9269 I0.2996 J-0.1513
G2 X1.6565 Y0.9787 I0.2435 J-0.2005
G2 X1.7209 Y1.0158 I0.185 J-0.2467
G2 X1.7914 Y1.037 I0.1316 J-0.3096
G2 X1.8752 Y1.0447 I0.0839 J-0.4539
G2 X1.8993 Y1.044 I0 J-0.4511
G2 X1.9218 Y1.0422 I-0.0206 J-0.3851
G2 X1.9444 Y1.0389 I-0.04 J-0.3556
G2 X1.9647 Y1.0346 I-0.0545 J-0.3068
G2 X1.9694 Y1.0335 I-0.0636 J-0.2904
G1 X1.969 Y1.1017
G3 X1.9646 Y1.1021 I-0.0374 J-0.3789
G2 X1.9625 Y1.1023 I0.0043 J0.0498
G3 X1.9526 Y1.1035 I-0.0463 J-0.3552
G3 X1.9439 Y1.1042 I-0.0291 J-0.2847
G3 X1.9353 Y1.1047 I-0.0181 J-0.2535
G3 X1.928 Y1.1048 I-0.0074 J-0.1975
G3 X1.8684 Y1.1018 I0 J-0.5888
G3 X1.8186 Y1.0938 I0.0438 J-0.4311
G3 X1.7711 Y1.08 I0.0815 J-0.3684
G3 X1.7306 Y1.0618 I0.1045 J-0.287
G3 X1.6939 Y1.0387 I0.1335 J-0.2534
G3 X1.6603 Y1.0099 I0.1766 J-0.239
G3 X1.631 Y0.9761 I0.2253 J-0.2253
G3 X1.6033 Y0.9338 I0.3162 J-0.2378
G2 X1.5098 Y0.9586 I-0.0435 J0.0247
G1 X1.5098 Y1.0785
G1 X1.4291 Y1.0785
G1 Z-0.5 F5
G1 X1.4291 Y0.0847 F15
G1 X1.5098 Y0.0847
G1 X1.5098 Y0.6109
G1 X1.5098 Y0.6109
G2 X1.5158 Y0.709 I0.7993 J0
G2 X1.532 Y0.7884 I0.5201 J-0.0643
G2 X1.5619 Y0.865 I0.4172 J-0.119
G2 X1.6022 Y0.9269 I0.2996 J-0.1513
G2 X1.6565 Y0.9787 I0.2435 J-0.2005
G2 X1.7209 Y1.0158 I0.185 J-0.2467
G2 X1.7914 Y1.037 I0.1316 J-0.3096
G2 X1.8752 Y1.0447 I0.0839 J-0.4539
G2 X1.8993 Y1.044 I0 J-0.4511
G2 X1.9218 Y1.0422 I-0.0206 J-0.3851
G2 X1.9444 Y1.0389 I-0.04 J-0.3556
G2 X1.9647 Y1.0346 I-0.0545 J-0.3068
G2 X1.9694 Y1.0335 I-0.0636 J-0.2904
G1 X1.969 Y1.1017
G3 X1.9646 Y1.1021 I-0.0374 J-0.3789
G2 X1.9625 Y1.1023 I0.0043 J0.0498
G3 X1.9526 Y1.1035 I-0.0463 J-0.3552
G3 X1.9439 Y1.1042 I-0.0291 J-0.2847
G3 X1.9353 Y1.1047 I-0.0181 J-0.2535
G3 X1.928 Y1.1048 I-0.0074 J-0.1975
G3 X1.8684 Y1.1018 I0 J-0.5888
G3 X1.8186 Y1.0938 I0.0438 J-0.4311
G3 X1.7711 Y1.08 I0.0815 J-0.3684
G3 X1.7306 Y1.0618 I0.1045 J-0.287
G3 X1.6939 Y1.0387 I0.1335 J-0.2534
G3 X1.6603 Y1.0099 I0.1766 J-0.239
G3 X1.631 Y0.9761 I0.2253 J-0.2253
G3 X1.6033 Y0.9338 I0.3162 J-0.2378
G2 X1.5098 Y0.9586 I-0.0435 J0.0247
G1 X1.5098 Y1.0785
G1 X1.4291 Y1.0785
G1 Z-0.6 F5
G1 X1.4291 Y0.0847 F15
G1 X1.5098 Y0.0847
G1 X1.5098 Y0.6109
G1 X1.5098 Y0.6109
G2 X1.5158 Y0.709 I0.7993 J0
G2 X1.532 Y0.7884 I0.5201 J-0.0643
G2 X1.5619 Y0.865 I0.4172 J-0.119
G2 X1.6022 Y0.9269 I0.2996 J-0.1513
G2 X1.6565 Y0.9787 I0.2435 J-0.2005
G2 X1.7209 Y1.0158 I0.185 J-0.2467
G2 X1.7914 Y1.037 I0.1316 J-0.3096
G2 X1.8752 Y1.0447 I0.0839 J-0.4539
G2 X1.8993 Y1.044 I0 J-0.4511
G2 X1.9218 Y1.0422 I-0.0206 J-0.3851
G2 X1.9444 Y1.0389 I-0.04 J-0.3556
G2 X1.9647 Y1.0346 I-0.0545 J-0.3068
G2 X1.9694 Y1.0335 I-0.0636 J-0.2904
G1 X1.969 Y1.1017
G3 X1.9646 Y1.1021 I-0.0374 J-0.3789
G2 X1.9625 Y1.1023 I0.0043 J0.0498
G3 X1.9526 Y1.1035 I-0.0463 J-0.3552
G3 X1.9439 Y1.1042 I-0.0291 J-0.2847
G3 X1.9353 Y1.1047 I-0.0181 J-0.2535
G3 X1.928 Y1.1048 I-0.0074 J-0.1975
G3 X1.8684 Y1.1018 I0 J-0.5888
G3 X1.8186 Y1.0938 I0.0438 J-0.4311
G3 X1.7711 Y1.08 I0.0815 J-0.3684
G3 X1.7306 Y1.0618 I0.1045 J-0.287
G3 X1.6939 Y1.0387 I0.1335 J-0.2534
G3 X1.6603 Y1.0099 I0.1766 J-0.239
G3 X1.631 Y0.9761 I0.2253 J-0.2253
G3 X1.6033 Y0.9338 I0.3162 J-0.2378
G2 X1.5098 Y0.9586 I-0.0435 J0.0247
G1 X1.5098 Y1.0785
G1 X1.4291 Y1.0785
G1 Z-0.7 F5
G1 X1.4291 Y0.0847 F15
G1 X1.5098 Y0.0847
G1 X1.5098 Y0.6109
G1 X1.5098 Y0.6109
G2 X1.5158 Y0.709 I0.7993 J0
G2 X1.532 Y0.7884 I0.5201 J-0.0643
G2 X1.5619 Y0.865 I0.4172 J-0.119
G2 X1.6022 Y0.9269 I0.2996 J-0.1513
G2 X1.6565 Y0.9787 I0.2435 J-0.2005
G2 X1.7209 Y1.0158 I0.185 J-0.2467
G2 X1.7914 Y1.037 I0.1316 J-0.3096
G2 X1.8752 Y1.0447 I0.0839 J-0.4539
G2 X1.8993 Y1.044 I0 J-0.4511
G2 X1.9218 Y1.0422 I-0.0206 J-0.3851
G2 X1.9444 Y1.0389 I-0.04 J-0.3556
G2 X1.9647 Y1.0346 I-0.0545 J-0.3068
G2 X1.9694 Y1.0335 I-0.0636 J-0.2904
G1 X1.969 Y1.1017
G3 X1.9646 Y1.1021 I-0.0374 J-0.3789
G2 X1.9625 Y1.1023 I0.0043 J0.0498
G3 X1.9526 Y1.1035 I-0.0463 J-0.3552
G3 X1.9439 Y1.1042 I-0.0291 J-0.2847
G3 X1.9353 Y1.1047 I-0.0181 J-0.2535
G3 X1.928 Y1.1048 I-0.0074 J-0.1975
G3 X1.8684 Y1.1018 I0 J-0.5888
G3 X1.8186 Y1.0938 I0.0438 J-0.4311
G3 X1.7711 Y1.08 I0.0815 J-0.3684
G3 X1.7306 Y1.0618 I0.1045 J-0.287
G3 X1.6939 Y1.0387 I0.1335 J-0.2534
G3 X1.6603 Y1.0099 I0.1766 J-0.239
G3 X1.631 Y0.9761 I0.2253 J-0.2253
G3 X1.6033 Y0.9338 I0.3162 J-0.2378
G2 X1.5098 Y0.9586 I-0.0435 J0.0247
G1 X1.5098 Y1.0785
G1 X1.4291 Y1.0785
G1 Z-0.8 F5
G1 X1.4291 Y0.0847 F15
G1 X1.5098 Y0.0847
G1 X1.5098 Y0.6109
G1 X1.5098 Y0.6109
G2 X1.5158 Y0.709 I0.7993 J0
G2 X1.532 Y0.7884 I0.5201 J-0.0643
G2 X1.5619 Y0.865 I0.4172 J-0.119
G2 X1.6022 Y0.9269 I0.2996 J-0.1513
G2 X1.6565 Y0.9787 I0.2435 J-0.2005
G2 X1.7209 Y1.0158 I0.185 J-0.2467
G2 X1.7914 Y1.037 I0.1316 J-0.3096
G2 X1.8752 Y1.0447 I0.0839 J-0.4539
G2 X1.8993 Y1.044 I0 J-0.4511
G2 X1.9218 Y1.0422 I-0.0206 J-0.3851
G2 X1.9444 Y1.0389 I-0.04 J-0.3556
G2 X1.9647 Y1.0346 I-0.0545 J-0.3068
G2 X1.9694 Y1.0335 I-0.0636 J-0.2904
G1 X1.969 Y1.1017
G3 X1.9646 Y1.1021 I-0.0374 J-0.3789
G2 X1.9625 Y1.1023 I0.0043 J0.0498
G3 X1.9526 Y1.1035 I-0.0463 J-0.3552
G3 X1.9439 Y1.1042 I-0.0291 J-0.2847
G3 X1.9353 Y1.1047 I-0.0181 J-0.2535
G3 X1.928 Y1.1048 I-0.0074 J-0.1975
G3 X1.8684 Y1.1018 I0 J-0.5888
G3 X1.8186 Y1.0938 I0.0438 J-0.4311
G3 X1.7711 Y1.08 I0.0815 J-0.3684
G3 X1.7306 Y1.0618 I0.1045 J-0.287
G3 X1.6939 Y1.0387 I0.1335 J-0.2534
G3 X1.6603 Y1.0099 I0.1766 J-0.239
G3 X1.631 Y0.9761 I0.2253 J-0.2253
G3 X1.6033 Y0.9338 I0.3162 J-0.2378
G2 X1.5098 Y0.9586 I-0.0435 J0.0247
G1 X1.5098 Y1.0785
G1 X1.4291 Y1.0785
G1 Z-0.9 F5
G1 X1.4291 Y0.0847 F15
G1 X1.5098 Y0.0847
G1 X1.5098 Y0.6109
G1 X1.5098 Y0.6109
G2 X1.5158 Y0.709 I0.7993 J0
G2 X1.532 Y0.7884 I0.5201 J-0.0643
G2 X1.5619 Y0.865 I0.4172 J-0.119
G2 X1.6022 Y0.9269 I0.2996 J-0.1513
G2 X1.6565 Y0.9787 I0.2435 J-0.2005
G2 X1.7209 Y1.0158 I0.185 J-0.2467
G2 X1.7914 Y1.037 I0.1316 J-0.3096
G2 X1.8752 Y1.0447 I0.0839 J-0.4539
G2 X1.8993 Y1.044 I0 J-0.4511
G2 X1.9218 Y1.0422 I-0.0206 J-0.3851
G2 X1.9444 Y1.0389 I-0.04 J-0.3556
G2 X1.9647 Y1.0346 I-0.0545 J-0.3068
G2 X1.9694 Y1.0335 I-0.0636 J-0.2904
G1 X1.969 Y1.1017
G3 X1.9646 Y1.1021 I-0.0374 J-0.3789
G2 X1.9625 Y1.1023 I0.0043 J0.0498
G3 X1.9526 Y1.1035 I-0.0463 J-0.3552
G3 X1.9439 Y1.1042 I-0.0291 J-0.2847
G3 X1.9353 Y1.1047 I-0.0181 J-0.2535
G3 X1.928 Y1.1048 I-0.0074 J-0.1975
G3 X1.8684 Y1.1018 I0 J-0.5888
G3 X1.8186 Y1.0938 I0.0438 J-0.4311
G3 X1.7711 Y1.08 I0.0815 J-0.3684
G3 X1.7306 Y1.0618 I0.1045 J-0.287
G3 X1.6939 Y1.0387 I0.1335 J-0.2534
G3 X1.6603 Y1.0099 I0.1766 J-0.239
G3 X1.631 Y0.9761 I0.2253 J-0.2253
G3 X1.6033 Y0.9338 I0.3162 J-0.2378
G2 X1.5098 Y0.9586 I-0.0435 J0.0247
G1 X1.5098 Y1.0785
G1 X1.4291 Y1.0785
G1 Z-1 F5
G1 X1.4291 Y0.0847 F15
G1 X1.5098 Y0.0847
G1 X1.5098 Y0.6109
G1 X1.5098 Y0.6109
G2 X1.5158 Y0.709 I0.7993 J0
G2 X1.532 Y0.7884 I0.5201 J-0.0643
G2 X1.5619 Y0.865 I0.4172 J-0.119
G2 X1.6022 Y0.9269 I0.2996 J-0.1513
G2 X1.6565 Y0.9787 I0.2435 J-0.2005
G2 X1.7209 Y1.0158 I0.185 J-0.2467
G2 X1.7914 Y1.037 I0.1316 J-0.3096
G2 X1.8752 Y1.0447 I0.0839 J-0.4539
G2 X1.8993 Y1.044 I0 J-0.4511
G2 X1.9218 Y1.0422 I-0.0206 J-0.3851
G2 X1.9444 Y1.0389 I-0.04 J-0.3556
G2 X1.9647 Y1.0346 I-0.0545 J-0.3068
G2 X1.9694 Y1.0335 I-0.0636 J-0.2904
G1 X1.969 Y1.1017
G3 X1.9646 Y1.1021 I-0.0374 J-0.3789
G2 X1.9625 Y1.1023 I0.0043 J0.0498
G3 X1.9526 Y1.1035 I-0.0463 J-0.3552
G3 X1.9439 Y1.1042 I-0.0291 J-0.2847
G3 X1.9353 Y1.1047 I-0.0181 J-0.2535
G3 X1.928 Y1.1048 I-0.0074 J-0.1975
G3 X1.8684 Y1.1018 I0 J-0.5888
G3 X1.8186 Y1.0938 I0.0438 J-0.4311
G3 X1.7711 Y1.08 I0.0815 J-0.3684
G3 X1.7306 Y1.0618 I0.1045 J-0.287
G3 X1.6939 Y1.0387 I0.1335 J-0.2534
G3 X1.6603 Y1.0099 I0.1766 J-0.239
G3 X1.631 Y0.9761 I0.2253 J-0.2253
G3 X1.6033 Y0.9338 I0.3162 J-0.2378
G2 X1.5098 Y0.9586 I-0.0435 J0.0247
G1 X1.5098 Y1.0785
G1 X1.4291 Y1.0785
G1 Z-1.1 F5
G1 X1.4291 Y0.0847 F15
G1 X1.5098 Y0.0847
G1 X1.5098 Y0.6109
G1 X1.5098 Y0.6109
G2 X1.5158 Y0.709 I0.7993 J0
G2 X1.532 Y0.7884 I0.5201 J-0.0643
G2 X1.5619 Y0.865 I0.4172 J-0.119
G2 X1.6022 Y0.9269 I0.2996 J-0.1513
G2 X1.6565 Y0.9787 I0.2435 J-0.2005
G2 X1.7209 Y1.0158 I0.185 J-0.2467
G2 X1.7914 Y1.037 I0.1316 J-0.3096
G2 X1.8752 Y1.0447 I0.0839 J-0.4539
G2 X1.8993 Y1.044 I0 J-0.4511
G2 X1.9218 Y1.0422 I-0.0206 J-0.3851
G2 X1.9444 Y1.0389 I-0.04 J-0.3556
G2 X1.9647 Y1.0346 I-0.0545 J-0.3068
G2 X1.9694 Y1.0335 I-0.0636 J-0.2904
G1 X1.969 Y1.1017
G3 X1.9646 Y1.1021 I-0.0374 J-0.3789
G2 X1.9625 Y1.1023 I0.0043 J0.0498
G3 X1.9526 Y1.1035 I-0.0463 J-0.3552
G3 X1.9439 Y1.1042 I-0.0291 J-0.2847
G3 X1.9353 Y1.1047 I-0.0181 J-0.2535
G3 X1.928 Y1.1048 I-0.0074 J-0.1975
G3 X1.8684 Y1.1018 I0 J-0.5888
G3 X1.8186 Y1.0938 I0.0438 J-0.4311
G3 X1.7711 Y1.08 I0.0815 J-0.3684
G3 X1.7306 Y1.0618 I0.1045 J-0.287
G3 X1.6939 Y1.0387 I0.1335 J-0.2534
G3 X1.6603 Y1.0099 I0.1766 J-0.239
G3 X1.631 Y0.9761 I0.2253 J-0.2253
G3 X1.6033 Y0.9338 I0.3162 J-0.2378
G2 X1.5098 Y0.9586 I-0.0435 J0.0247
G1 X1.5098 Y1.0785
G1 X1.4291 Y1.0785
G1 Z-1.2 F5
G1 X1.4291 Y0.0847 F15
G1 X1.5098 Y0.0847
G1 X1.5098 Y0.6109
G1 X1.5098 Y0.6109
G2 X1.5158 Y0.709 I0.7993 J0
G2 X1.532 Y0.7884 I0.5201 J-0.0643
G2 X1.5619 Y0.865 I0.4172 J-0.119
G2 X1.6022 Y0.9269 I0.2996 J-0.1513
G2 X1.6565 Y0.9787 I0.2435 J-0.2005
G2 X1.7209 Y1.0158 I0.185 J-0.2467
G2 X1.7914 Y1.037 I0.1316 J-0.3096
G2 X1.8752 Y1.0447 I0.0839 J-0.4539
G2 X1.8993 Y1.044 I0 J-0.4511
G2 X1.9218 Y1.0422 I-0.0206 J-0.3851
G2 X1.9444 Y1.0389 I-0.04 J-0.3556
G2 X1.9647 Y1.0346 I-0.0545 J-0.3068
G2 X1.9694 Y1.0335 I-0.0636 J-0.2904
G1 X1.969 Y1.1017
G3 X1.9646 Y1.1021 I-0.0374 J-0.3789
G2 X1.9625 Y1.1023 I0.0043 J0.0498
G3 X1.9526 Y1.1035 I-0.0463 J-0.3552
G3 X1.9439 Y1.1042 I-0.0291 J-0.2847
G3 X1.9353 Y1.1047 I-0.0181 J-0.2535
G3 X1.928 Y1.1048 I-0.0074 J-0.1975
G3 X1.8684 Y1.1018 I0 J-0.5888
G3 X1.8186 Y1.0938 I0.0438 J-0.4311
G3 X1.7711 Y1.08 I0.0815 J-0.3684
G3 X1.7306 Y1.0618 I0.1045 J-0.287
G3 X1.6939 Y1.0387 I0.1335 J-0.2534
G3 X1.6603 Y1.0099 I0.1766 J-0.239
G3 X1.631 Y0.9761 I0.2253 J-0.2253
G3 X1.6033 Y0.9338 I0.3162 J-0.2378
G2 X1.5098 Y0.9586 I-0.0435 J0.0247
G1 X1.5098 Y1.0785
G1 X1.4291 Y1.0785
G1 Z-1.3 F5
G1 X1.4291 Y0.0847 F15
G1 X1.5098 Y0.0847
G1 X1.5098 Y0.6109
G1 X1.5098 Y0.6109
G2 X1.5158 Y0.709 I0.7993 J0
G2 X1.532 Y0.7884 I0.5201 J-0.0643
G2 X1.5619 Y0.865 I0.4172 J-0.119
G2 X1.6022 Y0.9269 I0.2996 J-0.1513
G2 X1.6565 Y0.9787 I0.2435 J-0.2005
G2 X1.7209 Y1.0158 I0.185 J-0.2467
G2 X1.7914 Y1.037 I0.1316 J-0.3096
G2 X1.8752 Y1.0447 I0.0839 J-0.4539
G2 X1.8993 Y1.044 I0 J-0.4511
G2 X1.9218 Y1.0422 I-0.0206 J-0.3851
G2 X1.9444 Y1.0389 I-0.04 J-0.3556
G2 X1.9647 Y1.0346 I-0.0545 J-0.3068
G2 X1.9694 Y1.0335 I-0.0636 J-0.2904
G1 X1.969 Y1.1017
G3 X1.9646 Y1.1021 I-0.0374 J-0.3789
G2 X1.9625 Y1.1023 I0.0043 J0.0498
G3 X1.9526 Y1.1035 I-0.0463 J-0.3552
G3 X1.9439 Y1.1042 I-0.0291 J-0.2847
G3 X1.9353 Y1.1047 I-0.0181 J-0.2535
G3 X1.928 Y1.1048 I-0.0074 J-0.1975
G3 X1.8684 Y1.1018 I0 J-0.5888
G3 X1.8186 Y1.0938 I0.0438 J-0.4311
G3 X1.7711 Y1.08 I0.0815 J-0.3684
G3 X1.7306 Y1.0618 I0.1045 J-0.287
G3 X1.6939 Y1.0387 I0.1335 J-0.2534
G3 X1.6603 Y1.0099 I0.1766 J-0.239
G3 X1.631 Y0.9761 I0.2253 J-0.2253
G3 X1.6033 Y0.9338 I0.3162 J-0.2378
G2 X1.5098 Y0.9586 I-0.0435 J0.0247
G1 X1.5098 Y1.0785
G1 X1.4291 Y1.0785
G0 Z1
G0 X2.3399 Y0.0847
G1 Z-0.1 F5
G1 X2.3399 Y1.0785 F15
G1 X2.2602 Y1.0785
G1 X2.2602 Y0.0847
G1 X2.3399 Y0.0847
G1 Z-0.2 F5
G1 X2.3399 Y1.0785 F15
G1 X2.2602 Y1.0785
G1 X2.2602 Y0.0847
G1 X2.3399 Y0.0847
G1 Z-0.3 F5
G1 X2.3399 Y1.0785 F15
G1 X2.2602 Y1.0785
G1 X2.2602 Y0.0847
G1 X2.3399 Y0.0847
G1 Z-0.4 F5
G1 X2.3399 Y1.0785 F15
G1 X2.2602 Y1.0785
G1 X2.2602 Y0.0847
G1 X2.3399 Y0.0847
G1 Z-0.5 F5
G1 X2.3399 Y1.0785 F15
G1 X2.2602 Y1.0785
G1 X2.2602 Y0.0847
G1 X2.3399 Y0.0847
G1 Z-0.6 F5
G1 X2.3399 Y1.0785 F15
G1 X2.2602 Y1.0785
G1 X2.2602 Y0.0847
G1 X2.3399 Y0.0847
G1 Z-0.7 F5
G1 X2.3399 Y1.0785 F15
G1 X2.2602 Y1.0785
G1 X2.2602 Y0.0847
G1 X2.3399 Y0.0847
G1 Z-0.8 F5
G1 X2.3399 Y1.0785 F15
G1 X2.2602 Y1.0785
G1 X2.2602 Y0.0847
G1 X2.3399 Y0.0847
G1 Z-0.9 F5
G1 X2.3399 Y1.0785 F15
G1 X2.2602 Y1.0785
G1 X2.2602 Y0.0847
G1 X2.3399 Y0.0847
G1 Z-1 F5
G1 X2.3399 Y1.0785 F15
G1 X2.2602 Y1.0785
G1 X2.2602 Y0.0847
G1 X2.3399 Y0.0847
G1 Z-1.1 F5
G1 X2.3399 Y1.0785 F15
G1 X2.2602 Y1.0785
G1 X2.2602 Y0.0847
G1 X2.3399 Y0.0847
G1 Z-1.2 F5
G1 X2.3399 Y1.0785 F15
G1 X2.2602 Y1.0785
G1 X2.2602 Y0.0847
G1 X2.3399 Y0.0847
G1 Z-1.3 F5
G1 X2.3399 Y1.0785 F15
G1 X2.2602 Y1.0785
G1 X2.2602 Y0.0847
G1 X2.3399 Y0.0847
G0 Z1
G0 X6.351 Y1.0785
G1 Z-0.1 F5
G1 X6.351 Y0.0847 F15
G1 X6.4317 Y0.0847
G1 X6.4317 Y0.6529
G1 X6.4317 Y0.6529
G2 X6.4377 Y0.7386 I0.6094 J0
G2 X6.4543 Y0.8108 I0.4314 J-0.0613
G2 X6.4842 Y0.8795 I0.3645 J-0.1173
G2 X6.5073 Y0.9156 I0.2955 J-0.1643
G2 X6.5249 Y0.9375 I0.2723 J-0.2004
G2 X6.534 Y0.9476 I0.2456 J-0.2123
G2 X6.5776 Y0.9864 I0.2365 J-0.2224
G2 X6.6382 Y1.0211 I0.1799 J-0.2437
G2 X6.7046 Y1.0414 I0.126 J-0.294
G2 X6.7815 Y1.0486 I0.0769 J-0.4052
G2 X6.8477 Y1.0424 I0 J-0.3578
G2 X6.9028 Y1.0253 I-0.0464 J-0.2461
G2 X6.953 Y0.9946 I-0.0913 J-0.2061
G2 X6.9935 Y0.9522 I-0.1424 J-0.1765
G2 X7.0222 Y0.9025 I-0.2036 J-0.1507
G2 X7.0437 Y0.8381 I-0.3539 J-0.154
G2 X7.0548 Y0.7727 I-0.4845 J-0.1156
G2 X7.059 Y0.689 I-0.8265 J-0.0837
G1 X7.059 Y0.0847
G1 X7.1397 Y0.0847
G1 X7.1397 Y0.6529
G1 X7.1397 Y0.6529
G2 X7.1457 Y0.7391 I0.6157 J0
G2 X7.1623 Y0.8115 I0.4338 J-0.0613
G2 X7.1922 Y0.8805 I0.3655 J-0.1171
G1 X7.1925 Y0.881
G2 X7.2202 Y0.9231 I0.2942 J-0.1639
G2 X7.2331 Y0.9387 I0.2665 J-0.206
G2 X7.2859 Y0.987 I0.2411 J-0.2107
G2 X7.3471 Y1.0215 I0.1793 J-0.2466
G2 X7.4138 Y1.0414 I0.126 J-0.2998
G2 X7.4914 Y1.0486 I0.0777 J-0.4186
G2 X7.5568 Y1.0424 I0 J-0.3482
G2 X7.6115 Y1.0252 I-0.0464 J-0.2427
G2 X7.6612 Y0.9946 I-0.0918 J-0.2048
G2 X7.7017 Y0.9519 I-0.1445 J-0.1779
G2 X7.7303 Y0.902 I-0.2092 J-0.1528
G2 X7.7517 Y0.8376 I-0.3576 J-0.1548
G2 X7.7628 Y0.7722 I-0.4857 J-0.1158
G2 X7.767 Y0.689 I-0.8189 J-0.0832
G1 X7.767 Y0.0847
G1 X7.8477 Y0.0847
G1 X7.8477 Y0.6949
G3 X7.8415 Y0.7985 I-0.8785 J0
G3 X7.8262 Y0.877 I-0.5364 J-0.0637
G3 X7.799 Y0.9499 I-0.4123 J-0.1126
G3 X7.7653 Y1.0042 I-0.2701 J-0.13
G3 X7.7216 Y1.0487 I-0.2088 J-0.1613
G3 X7.6719 Y1.0793 I-0.1474 J-0.1838
G3 X7.6152 Y1.0976 I-0.1069 J-0.2346
G3 X7.5412 Y1.1048 I-0.0739 J-0.3727
G3 X7.4843 Y1.1014 I0 J-0.4727
G3 X7.4352 Y1.0921 I0.0448 J-0.3688
G3 X7.3885 Y1.0762 I0.0859 J-0.3289
G3 X7.3467 Y1.0546 I0.122 J-0.2881
G3 X7.3085 Y1.027 I0.1653 J-0.2689
G3 X7.2705 Y0.9903 I0.2498 J-0.2963
G3 X7.237 Y0.9482 I0.3306 J-0.298
G3 X7.2202 Y0.9231 I0.4969 J-0.3493
G3 X7.2031 Y0.8942 I0.5136 J-0.3242
G2 X7.1925 Y0.881 I-0.0437 J0.0243
G2 X7.1122 Y0.9021 I-0.0331 J0.0375
G3 X7.0911 Y0.9518 I-0.3893 J-0.1353
G3 X7.0675 Y0.9912 I-0.276 J-0.1387
G3 X7.0386 Y1.0259 I-0.2269 J-0.1601
G3 X7.0059 Y1.0539 I-0.1807 J-0.1777
G3 X6.9698 Y1.0758 I-0.145 J-0.1988
G3 X6.929 Y1.0918 I-0.1161 J-0.2352
G3 X6.8854 Y1.1013 I-0.083 J-0.2771
G3 X6.8332 Y1.1048 I-0.0522 J-0.3795
G3 X6.7799 Y1.102 I0 J-0.4936
G3 X6.7345 Y1.0942 I0.0408 J-0.3752
G3 X6.6912 Y1.0809 I0.077 J-0.3285
G3 X6.6534 Y1.0633 I0.1038 J-0.2718
G3 X6.6187 Y1.0405 I0.14 J-0.2514
G3 X6.5848 Y1.0107 I0.2018 J-0.2639
G3 X6.5545 Y0.9762 I0.2634 J-0.2617
G3 X6.534 Y0.9476 I0.3841 J-0.2972
G3 X6.5243 Y0.9325 I0.4046 J-0.2685
G2 X6.5073 Y0.9156 I-0.0427 J0.0261
G2 X6.4317 Y0.9586 I-0.0257 J0.0429
G1 X6.4317 Y1.0785
G1 X6.351 Y1.0785
G1 Z-0.2 F5
G1 X6.351 Y0.0847 F15
G1 X6.4317 Y0.0847
G1 X6.4317 Y0.6529
G1 X6.4317 Y0.6529
G2 X6.4377 Y0.7386 I0.6094 J0
G2 X6.4543 Y0.8108 I0.4314 J-0.0613
G2 X6.4842 Y0.8795 I0.3645 J-0.1173
G2 X6.5073 Y0.9156 I0.2955 J-0.1643
G2 X6.5249 Y0.9375 I0.2723 J-0.2004
G2 X6.534 Y0.9476 I0.2456 J-0.2123
G2 X6.5776 Y0.9864 I0.2365 J-0.2224
G2 X6.6382 Y1.0211 I0.1799 J-0.2437
G2 X6.7046 Y1.0414 I0.126 J-0.294
G2 X6.7815 Y1.0486 I0.0769 J-0.4052
G2 X6.8477 Y1.0424 I0 J-0.3578
G2 X6.9028 Y1.0253 I-0.0464 J-0.2461
G2 X6.953 Y0.9946 I-0.0913 J-0.2061
G2 X6.9935 Y0.9522 I-0.1424 J-0.1765
G2 X7.0222 Y0.9025 I-0.2036 J-0.1507
G2 X7.0437 Y0.8381 I-0.3539 J-0.154
G2 X7.0548 Y0.7727 I-0.4845 J-0.1156
G2 X7.059 Y0.689 I-0.8265 J-0.0837
G1 X7.059 Y0.0847
G1 X7.1397 Y0.0847
G1 X7.1397 Y0.6529
G1 X7.1397 Y0.6529
G2 X7.1457 Y0.7391 I0.6157 J0
G2 X7.1623 Y0.8115 I0.4338 J-0.0613
G2 X7.1922 Y0.8805 I0.3655 J-0.1171
G1 X7.1925 Y0.881
G2 X7.2202 Y0.9231 I0.2942 J-0.1639
G2 X7.2331 Y0.9387 I0.2665 J-0.206
G2 X7.2859 Y0.987 I0.2411 J-0.2107
G2 X7.3471 Y1.0215 I0.1793 J-0.2466
G2 X7.4138 Y1.0414 I0.126 J-0.2998
G2 X7.4914 Y1.0486 I0.0777 J-0.4186
G2 X7.5568 Y1.0424 I0 J-0.3482
G2 X7.6115 Y1.0252 I-0.0464 J-0.2427
G2 X7.6612 Y0.9946 I-0.0918 J-0.2048
G2 X7.7017 Y0.9519 I-0.1445 J-0.1779
G2 X7.7303 Y0.902 I-0.2092 J-0.1528
G2 X7.7517 Y0.8376 I-0.3576 J-0.1548
G2 X7.7628 Y0.7722 I-0.4857 J-0.1158
G2 X7.767 Y0.689 I-0.8189 J-0.0832
G1 X7.767 Y0.0847
G1 X7.8477 Y0.0847
G1 X7.8477 Y0.6949
G3 X7.8415 Y0.7985 I-0.8785 J0
G3 X7.8262 Y0.877 I-0.5364 J-0.0637
G3 X7.799 Y0.9499 I-0.4123 J-0.1126
G3 X7.7653 Y1.0042 I-0.2701 J-0.13
G3 X7.7216 Y1.0487 I-0.2088 J-0.1613
G3 X7.6719 Y1.0793 I-0.1474 J-0.1838
G3 X7.6152 Y1.0976 I-0.1069 J-0.2346
G3 X7.5412 Y1.1048 I-0.0739 J-0.3727
G3 X7.4843 Y1.1014 I0 J-0.4727
G3 X7.4352 Y1.0921 I0.0448 J-0.3688
G3 X7.3885 Y1.0762 I0.0859 J-0.3289
G3 X7.3467 Y1.0546 I0.122 J-0.2881
G3 X7.3085 Y1.027 I0.1653 J-0.2689
G3 X7.2705 Y0.9903 I0.2498 J-0.2963
G3 X7.237 Y0.9482 I0.3306 J-0.298
G3 X7.2202 Y0.9231 I0.4969 J-0.3493
G3 X7.2031 Y0.8942 I0.5136 J-0.3242
G2 X7.1925 Y0.881 I-0.0437 J0.0243
G2 X7.1122 Y0.9021 I-0.0331 J0.0375
G3 X7.0911 Y0.9518 I-0.3893 J-0.1353
G3 X7.0675 Y0.9912 I-0.276 J-0.1387
G3 X7.0386 Y1.0259 I-0.2269 J-0.1601
G3 X7.0059 Y1.0539 I-0.1807 J-0.1777
G3 X6.9698 Y1.0758 I-0.145 J-0.1988
G3 X6.929 Y1.0918 I-0.1161 J-0.2352
G3 X6.8854 Y1.1013 I-0.083 J-0.2771
G3 X6.8332 Y1.1048 I-0.0522 J-0.3795
G3 X6.7799 Y1.102 I0 J-0.4936
G3 X6.7345 Y1.0942 I0.0408 J-0.3752
G3 X6.6912 Y1.0809 I0.077 J-0.3285
G3 X6.6534 Y1.0633 I0.1038 J-0.2718
G3 X6.6187 Y1.0405 I0.14 J-0.2514
G3 X6.5848 Y1.0107 I0.2018 J-0.2639
G3 X6.5545 Y0.9762 I0.2634 J-0.2617
G3 X6.534 Y0.9476 I0.3841 J-0.2972
G3 X6.5243 Y0.9325 I0.4046 J-0.2685
G2 X6.5073 Y0.9156 I-0.0427 J0.0261
G2 X6.4317 Y0.9586 I-0.0257 J0.0429
G1 X6.4317 Y1.0785
G1 X6.351 Y1.0785
G1 Z-0.3 F5
G1 X6.351 Y0.0847 F15
G1 X6.4317 Y0.0847
G1 X6.4317 Y0.6529
G1 X6.4317 Y0.6529
G2 X6.4377 Y0.7386 I0.6094 J0
G2 X6.4543 Y0.8108 I0.4314 J-0.0613
G2 X6.4842 Y0.8795 I0.3645 J-0.1173
G2 X6.5073 Y0.9156 I0.2955 J-0.1643
G2 X6.5249 Y0.9375 I0.2723 J-0.2004
G2 X6.534 Y0.9476 I0.2456 J-0.2123
G2 X6.5776 Y0.9864 I0.2365 J-0.2224
G2 X6.6382 Y1.0211 I0.1799 J-0.2437
G2 X6.7046 Y1.0414 I0.126 J-0.294
G2 X6.7815 Y1.0486 I0.0769 J-0.4052
G2 X6.8477 Y1.0424 I0 J-0.3578
G2 X6.9028 Y1.0253 I-0.0464 J-0.2461
G2 X6.953 Y0.9946 I-0.0913 J-0.2061
G2 X6.9935 Y0.9522 I-0.1424 J-0.1765
G2 X7.0222 Y0.9025 I-0.2036 J-0.1507
G2 X7.0437 Y0.8381 I-0.3539 J-0.154
G2 X7.0548 Y0.7727 I-0.4845 J-0.1156
G2 X7.059 Y0.689 I-0.8265 J-0.0837
G1 X7.059 Y0.0847
G1 X7.1397 Y0.0847
G1 X7.1397 Y0.6529
G1 X7.1397 Y0.6529
G2 X7.1457 Y0.7391 I0.6157 J0
G2 X7.1623 Y0.8115 I0.4338 J-0.0613
G2 X7.1922 Y0.8805 I0.3655 J-0.1171
G1 X7.1925 Y0.881
G2 X7.2202 Y0.9231 I0.2942 J-0.1639
G2 X7.2331 Y0.9387 I0.2665 J-0.206
G2 X7.2859 Y0.987 I0.2411 J-0.2107
G2 X7.3471 Y1.0215 I0.1793 J-0.2466
G2 X7.4138 Y1.0414 I0.126 J-0.2998
G2 X7.4914 Y1.0486 I0.0777 J-0.4186
G2 X7.5568 Y1.0424 I0 J-0.3482
G2 X7.6115 Y1.0252 I-0.0464 J-0.2427
G2 X7.6612 Y0.9946 I-0.0918 J-0.2048
G2 X7.7017 Y0.9519 I-0.1445 J-0.1779
G2 X7.7303 Y0.902 I-0.2092 J-0.1528
G2 X7.7517 Y0.8376 I-0.3576 J-0.1548
G2 X7.7628 Y0.7722 I-0.4857 J-0.1158
G2 X7.767 Y0.689 I-0.8189 J-0.0832
G1 X7.767 Y0.0847
G1 X7.8477 Y0.0847
G1 X7.8477 Y0.6949
G3 X7.8415 Y0.7985 I-0.8785 J0
G3 X7.8262 Y0.877 I-0.5364 J-0.0637
G3 X7.799 Y0.9499 I-0.4123 J-0.1126
G3 X7.7653 Y1.0042 I-0.2701 J-0.13
G3 X7.7216 Y1.0487 I-0.2088 J-0.1613
G3 X7.6719 Y1.0793 I-0.1474 J-0.1838
G3 X7.6152 Y1.0976 I-0.1069 J-0.2346
G3 X7.5412 Y1.1048 I-0.0739 J-0.3727
G3 X7.4843 Y1.1014 I0 J-0.4727
G3 X7.4352 Y1.0921 I0.0448 J-0.3688
G3 X7.3885 Y1.0762 I0.0859 J-0.3289
G3 X7.3467 Y1.0546 I0.122 J-0.2881
G3 X7.3085 Y1.027 I0.1653 J-0.2689
G3 X7.2705 Y0.9903 I0.2498 J-0.2963
G3 X7.237 Y0.9482 I0.3306 J-0.298
G3 X7.2202 Y0.9231 I0.4969 J-0.3493
G3 X7.2031 Y0.8942 I0.5136 J-0.3242
G2 X7.1925 Y0.881 I-0.0437 J0.0243
G2 X7.1122 Y0.9021 I-0.0331 J0.0375
G3 X7.0911 Y0.9518 I-0.3893 J-0.1353
G3 X7.0675 Y0.9912 I-0.276 J-0.1387
G3 X7.0386 Y1.0259 I-0.2269 J-0.1601
G3 X7.0059 Y1.0539 I-0.1807 J-0.1777
G3 X6.9698 Y1.0758 I-0.145 J-0.1988
G3 X6.929 Y1.0918 I-0.1161 J-0.2352
G3 X6.8854 Y1.1013 I-0.083 J-0.2771
G3 X6.8332 Y1.1048 I-0.0522 J-0.3795
G3 X6.7799 Y1.102 I0 J-0.4936
G3 X6.7345 Y1.0942 I0.0408 J-0.3752
G3 X6.6912 Y1.0809 I0.077 J-0.3285
G3 X6.6534 Y1.0633 I0.1038 J-0.2718
G3 X6.6187 Y1.0405 I0.14 J-0.2514
G3 X6.5848 Y1.0107 I0.2018 J-0.2639
G3 X6.5545 Y0.9762 I0.2634 J-0.2617
G3 X6.534 Y0.9476 I0.3841 J-0.2972
G3 X6.5243 Y0.9325 I0.4046 J-0.2685
G2 X6.5073 Y0.9156 I-0.0427 J0.0261
G2 X6.4317 Y0.9586 I-0.0257 J0.0429
G1 X6.4317 Y1.0785
G1 X6.351 Y1.0785
G1 Z-0.4 F5
G1 X6.351 Y0.0847 F15
G1 X6.4317 Y0.0847
G1 X6.4317 Y0.6529
G1 X6.4317 Y0.6529
G2 X6.4377 Y0.7386 I0.6094 J0
G2 X6.4543 Y0.8108 I0.4314 J-0.0613
G2 X6.4842 Y0.8795 I0.3645 J-0.1173
G2 X6.5073 Y0.9156 I0.2955 J-0.1643
G2 X6.5249 Y0.9375 I0.2723 J-0.2004
G2 X6.534 Y0.9476 I0.2456 J-0.2123
G2 X6.5776 Y0.9864 I0.2365 J-0.2224
G2 X6.6382 Y1.0211 I0.1799 J-0.2437
G2 X6.7046 Y1.0414 I0.126 J-0.294
G2 X6.7815 Y1.0486 I0.0769 J-0.4052
G2 X6.8477 Y1.0424 I0 J-0.3578
G2 X6.9028 Y1.0253 I-0.0464 J-0.2461
G2 X6.953 Y0.9946 I-0.0913 J-0.2061
G2 X6.9935 Y0.9522 I-0.1424 J-0.1765
G2 X7.0222 Y0.9025 I-0.2036 J-0.1507
G2 X7.0437 Y0.8381 I-0.3539 J-0.154
G2 X7.0548 Y0.7727 I-0.4845 J-0.1156
G2 X7.059 Y0.689 I-0.8265 J-0.0837
G1 X7.059 Y0.0847
G1 X7.1397 Y0.0847
G1 X7.1397 Y0.6529
G1 X7.1397 Y0.6529
G2 X7.1457 Y0.7391 I0.6157 J0
G2 X7.1623 Y0.8115 I0.4338 J-0.0613
G2 X7.1922 Y0.8805 I0.3655 J-0.1171
G1 X7.1925 Y0.881
G2 X7.2202 Y0.9231 I0.2942 J-0.1639
G2 X7.2331 Y0.9387 I0.2665 J-0.206
G2 X7.2859 Y0.987 I0.2411 J-0.2107
G2 X7.3471 Y1.0215 I0.1793 J-0.2466
G2 X7.4138 Y1.0414 I0.126 J-0.2998
G2 X7.4914 Y1.0486 I0.0777 J-0.4186
G2 X7.5568 Y1.0424 I0 J-0.3482
G2 X7.6115 Y1.0252 I-0.0464 J-0.2427
G2 X7.6612 Y0.9946 I-0.0918 J-0.2048
G2 X7.7017 Y0.9519 I-0.1445 J-0.1779
G2 X7.7303 Y0.902 I-0.2092 J-0.1528
G2 X7.7517 Y0.8376 I-0.3576 J-0.1548
G2 X7.7628 Y0.7722 I-0.4857 J-0.1158
G2 X7.767 Y0.689 I-0.8189 J-0.0832
G1 X7.767 Y0.0847
G1 X7.8477 Y0.0847
G1 X7.8477 Y0.6949
G3 X7.8415 Y0.7985 I-0.8785 J0
G3 X7.8262 Y0.877 I-0.5364 J-0.0637
G3 X7.799 Y0.9499 I-0.4123 J-0.1126
G3 X7.7653 Y1.0042 I-0.2701 J-0.13
G3 X7.7216 Y1.0487 I-0.2088 J-0.1613
G3 X7.6719 Y1.0793 I-0.1474 J-0.1838
G3 X7.6152 Y1.0976 I-0.1069 J-0.2346
G3 X7.5412 Y1.1048 I-0.0739 J-0.3727
G3 X7.4843 Y1.1014 I0 J-0.4727
G3 X7.4352 Y1.0921 I0.0448 J-0.3688
G3 X7.3885 Y1.0762 I0.0859 J-0.3289
G3 X7.3467 Y1.0546 I0.122 J-0.2881
G3 X7.3085 Y1.027 I0.1653 J-0.2689
G3 X7.2705 Y0.9903 I0.2498 J-0.2963
G3 X7.237 Y0.9482 I0.3306 J-0.298
G3 X7.2202 Y0.9231 I0.4969 J-0.3493
G3 X7.2031 Y0.8942 I0.5136 J-0.3242
G2 X7.1925 Y0.881 I-0.0437 J0.0243
G2 X7.1122 Y0.9021 I-0.0331 J0.0375
G3 X7.0911 Y0.9518 I-0.3893 J-0.1353
G3 X7.0675 Y0.9912 I-0.276 J-0.1387
G3 X7.0386 Y1.0259 I-0.2269 J-0.1601
G3 X7.0059 Y1.0539 I-0.1807 J-0.1777
G3 X6.9698 Y1.0758 I-0.145 J-0.1988
G3 X6.929 Y1.0918 I-0.1161 J-0.2352
G3 X6.8854 Y1.1013 I-0.083 J-0.2771
G3 X6.8332 Y1.1048 I-0.0522 J-0.3795
G3 X6.7799 Y1.102 I0 J-0.4936
G3 X6.7345 Y1.0942 I0.0408 J-0.3752
G3 X6.6912 Y1.0809 I0.077 J-0.3285
G3 X6.6534 Y1.0633 I0.1038 J-0.2718
G3 X6.6187 Y1.0405 I0.14 J-0.2514
G3 X6.5848 Y1.0107 I0.2018 J-0.2639
G3 X6.5545 Y0.9762 I0.2634 J-0.2617
G3 X6.534 Y0.9476 I0.3841 J-0.2972
G3 X6.5243 Y0.9325 I0.4046 J-0.2685
G2 X6.5073 Y0.9156 I-0.0427 J0.0261
G2 X6.4317 Y0.9586 I-0.0257 J0.0429
G1 X6.4317 Y1.0785
G1 X6.351 Y1.0785
G1 Z-0.5 F5
G1 X6.351 Y0.0847 F15
G1 X6.4317 Y0.0847
G1 X6.4317 Y0.6529
G1 X6.4317 Y0.6529
G2 X6.4377 Y0.7386 I0.6094 J0
G2 X6.4543 Y0.8108 I0.4314 J-0.0613
G2 X6.4842 Y0.8795 I0.3645 J-0.1173
G2 X6.5073 Y0.9156 I0.2955 J-0.1643
G2 X6.5249 Y0.9375 I0.2723 J-0.2004
G2 X6.534 Y0.9476 I0.2456 J-0.2123
G2 X6.5776 Y0.9864 I0.2365 J-0.2224
G2 X6.6382 Y1.0211 I0.1799 J-0.2437
G2 X6.7046 Y1.0414 I0.126 J-0.294
G2 X6.7815 Y1.0486 I0.0769 J-0.4052
G2 X6.8477 Y1.0424 I0 J-0.3578
G2 X6.9028 Y1.0253 I-0.0464 J-0.2461
G2 X6.953 Y0.9946 I-0.0913 J-0.2061
G2 X6.9935 Y0.9522 I-0.1424 J-0.1765
G2 X7.0222 Y0.9025 I-0.2036 J-0.1507
G2 X7.0437 Y0.8381 I-0.3539 J-0.154
G2 X7.0548 Y0.7727 I-0.4845 J-0.1156
G2 X7.059 Y0.689 I-0.8265 J-0.0837
G1 X7.059 Y0.0847
G1 X7.1397 Y0.0847
G1 X7.1397 Y0.6529
G1 X7.1397 Y0.6529
G2 X7.1457 Y0.7391 I0.6157 J0
G2 X7.1623 Y0.8115 I0.4338 J-0.0613
G2 X7.1922 Y0.8805 I0.3655 J-0.1171
G1 X7.1925 Y0.881
G2 X7.2202 Y0.9231 I0.2942 J-0.1639
G2 X7.2331 Y0.9387 I0.2665 J-0.206
G2 X7.2859 Y0.987 I0.2411 J-0.2107
G2 X7.3471 Y1.0215 I0.1793 J-0.2466
G2 X7.4138 Y1.0414 I0.126 J-0.2998
G2 X7.4914 Y1.0486 I0.0777 J-0.4186
G2 X7.5568 Y1.0424 I0 J-0.3482
G2 X7.6115 Y1.0252 I-0.0464 J-0.2427
G2 X7.6612 Y0.9946 I-0.0918 J-0.2048
G2 X7.7017 Y0.9519 I-0.1445 J-0.1779
G2 X7.7303 Y0.902 I-0.2092 J-0.1528
G2 X7.7517 Y0.8376 I-0.3576 J-0.1548
G2 X7.7628 Y0.7722 I-0.4857 J-0.1158
G2 X7.767 Y0.689 I-0.8189 J-0.0832
G1 X7.767 Y0.0847
G1 X7.8477 Y0.0847
G1 X7.8477 Y0.6949
G3 X7.8415 Y0.7985 I-0.8785 J0
G3 X7.8262 Y0.877 I-0.5364 J-0.0637
G3 X7.799 Y0.9499 I-0.4123 J-0.1126
G3 X7.7653 Y1.0042 I-0.2701 J-0.13
G3 X7.7216 Y1.0487 I-0.2088 J-0.1613
G3 X7.6719 Y1.0793 I-0.1474 J-0.1838
G3 X7.6152 Y1.0976 I-0.1069 J-0.2346
G3 X7.5412 Y1.1048 I-0.0739 J-0.3727
G3 X7.4843 Y1.1014 I0 J-0.4727
G3 X7.4352 Y1.0921 I0.0448 J-0.3688
G3 X7.3885 Y1.0762 I0.0859 J-0.3289
G3 X7.3467 Y1.0546 I0.122 J-0.2881
G3 X7.3085 Y1.027 I0.1653 J-0.2689
G3 X7.2705 Y0.9903 I0.2498 J-0.2963
G3 X7.237 Y0.9482 I0.3306 J-0.298
G3 X7.2202 Y0.9231 I0.4969 J-0.3493
G3 X7.2031 Y0.8942 I0.5136 J-0.3242
G2 X7.1925 Y0.881 I-0.0437 J0.0243
G2 X7.1122 Y0.9021 I-0.0331 J0.0375
G3 X7.0911 Y0.9518 I-0.3893 J-0.1353
G3 X7.0675 Y0.9912 I-0.276 J-0.1387
G3 X7.0386 Y1.0259 I-0.2269 J-0.1601
G3 X7.0059 Y1.0539 I-0.1807 J-0.1777
G3 X6.9698 Y1.0758 I-0.145 J-0.1988
G3 X6.929 Y1.0918 I-0.1161 J-0.2352
G3 X6.8854 Y1.1013 I-0.083 J-0.2771
G3 X6.8332 Y1.1048 I-0.0522 J-0.3795
G3 X6.7799 Y1.102 I0 J-0.4936
G3 X6.7345 Y1.0942 I0.0408 J-0.3752
G3 X6.6912 Y1.0809 I0.077 J-0.3285
G3 X6.6534 Y1.0633 I0.1038 J-0.2718
G3 X6.6187 Y1.0405 I0.14 J-0.2514
G3 X6.5848 Y1.0107 I0.2018 J-0.2639
G3 X6.5545 Y0.9762 I0.2634 J-0.2617
G3 X6.534 Y0.9476 I0.3841 J-0.2972
G3 X6.5243 Y0.9325 I0.4046 J-0.2685
G2 X6.5073 Y0.9156 I-0.0427 J0.0261
G2 X6.4317 Y0.9586 I-0.0257 J0.0429
G1 X6.4317 Y1.0785
G1 X6.351 Y1.0785
G1 Z-0.6 F5
G1 X6.351 Y0.0847 F15
G1 X6.4317 Y0.0847
G1 X6.4317 Y0.6529
G1 X6.4317 Y0.6529
G2 X6.4377 Y0.7386 I0.6094 J0
G2 X6.4543 Y0.8108 I0.4314 J-0.0613
G2 X6.4842 Y0.8795 I0.3645 J-0.1173
G2 X6.5073 Y0.9156 I0.2955 J-0.1643
G2 X6.5249 Y0.9375 I0.2723 J-0.2004
G2 X6.534 Y0.9476 I0.2456 J-0.2123
G2 X6.5776 Y0.9864 I0.2365 J-0.2224
G2 X6.6382 Y1.0211 I0.1799 J-0.2437
G2 X6.7046 Y1.0414 I0.126 J-0.294
G2 X6.7815 Y1.0486 I0.0769 J-0.4052
G2 X6.8477 Y1.0424 I0 J-0.3578
G2 X6.9028 Y1.0253 I-0.0464 J-0.2461
G2 X6.953 Y0.9946 I-0.0913 J-0.2061
G2 X6.9935 Y0.9522 I-0.1424 J-0.1765
G2 X7.0222 Y0.9025 I-0.2036 J-0.1507
G2 X7.0437 Y0.8381 I-0.3539 J-0.154
G2 X7.0548 Y0.7727 I-0.4845 J-0.1156
G2 X7.059 Y0.689 I-0.8265 J-0.0837
G1 X7.059 Y0.0847
G1 X7.1397 Y0.0847
G1 X7.1397 Y0.6529
G1 X7.1397 Y0.6529
G2 X7.1457 Y0.7391 I0.6157 J0
G2 X7.1623 Y0.8115 I0.4338 J-0.0613
G2 X7.1922 Y0.8805 I0.3655 J-0.1171
G1 X7.1925 Y0.881
G2 X7.2202 Y0.9231 I0.2942 J-0.1639
G2 X7.2331 Y0.9387 I0.2665 J-0.206
G2 X7.2859 Y0.987 I0.2411 J-0.2107
G2 X7.3471 Y1.0215 I0.1793 J-0.2466
G2 X7.4138 Y1.0414 I0.126 J-0.2998
G2 X7.4914 Y1.0486 I0.0777 J-0.4186
G2 X7.5568 Y1.0424 I0 J-0.3482
G2 X7.6115 Y1.0252 I-0.0464 J-0.2427
G2 X7.6612 Y0.9946 I-0.0918 J-0.2048
G2 X7.7017 Y0.9519 I-0.1445 J-0.1779
G2 X7.7303 Y0.902 I-0.2092 J-0.1528
G2 X7.7517 Y0.8376 I-0.3576 J-0.1548
G2 X7.7628 Y0.7722 I-0.4857 J-0.1158
G2 X7.767 Y0.689 I-0.8189 J-0.0832
G1 X7.767 Y0.0847
G1 X7.8477 Y0.0847
G1 X7.8477 Y0.6949
G3 X7.8415 Y0.7985 I-0.8785 J0
G3 X7.8262 Y0.877 I-0.5364 J-0.0637
G3 X7.799 Y0.9499 I-0.4123 J-0.1126
G3 X7.7653 Y1.0042 I-0.2701 J-0.13
G3 X7.7216 Y1.0487 I-0.2088 J-0.1613
G3 X7.6719 Y1.0793 I-0.1474 J-0.1838
G3 X7.6152 Y1.0976 I-0.1069 J-0.2346
G3 X7.5412 Y1.1048 I-0.0739 J-0.3727
G3 X7.4843 Y1.1014 I0 J-0.4727
G3 X7.4352 Y1.0921 I0.0448 J-0.3688
G3 X7.3885 Y1.0762 I0.0859 J-0.3289
G3 X7.3467 Y1.0546 I0.122 J-0.2881
G3 X7.3085 Y1.027 I0.1653 J-0.2689
G3 X7.2705 Y0.9903 I0.2498 J-0.2963
G3 X7.237 Y0.9482 I0.3306 J-0.298
G3 X7.2202 Y0.9231 I0.4969 J-0.3493
G3 X7.2031 Y0.8942 I0.5136 J-0.3242
G2 X7.1925 Y0.881 I-0.0437 J0.0243
G2 X7.1122 Y0.9021 I-0.0331 J0.0375
G3 X7.0911 Y0.9518 I-0.3893 J-0.1353
G3 X7.0675 Y0.9912 I-0.276 J-0.1387
G3 X7.0386 Y1.0259 I-0.2269 J-0.1601
G3 X7.0059 Y1.0539 I-0.1807 J-0.1777
G3 X6.9698 Y1.0758 I-0.145 J-0.1988
G3 X6.929 Y1.0918 I-0.1161 J-0.2352
G3 X6.8854 Y1.1013 I-0.083 J-0.2771
G3 X6.8332 Y1.1048 I-0.0522 J-0.3795
G3 X6.7799 Y1.102 I0 J-0.4936
G3 X6.7345 Y1.0942 I0.0408 J-0.3752
G3 X6.6912 Y1.0809 I0.077 J-0.3285
G3 X6.6534 Y1.0633 I0.1038 J-0.2718
G3 X6.6187 Y1.0405 I0.14 J-0.2514
G3 X6.5848 Y1.0107 I0.2018 J-0.2639
G3 X6.5545 Y0.9762 I0.2634 J-0.2617
G3 X6.534 Y0.9476 I0.3841 J-0.2972
G3 X6.5243 Y0.9325 I0.4046 J-0.2685
G2 X6.5073 Y0.9156 I-0.0427 J0.0261
G2 X6.4317 Y0.9586 I-0.0257 J0.0429
G1 X6.4317 Y1.0785
G1 X6.351 Y1.0785
G1 Z-0.7 F5
G1 X6.351 Y0.0847 F15
G1 X6.4317 Y0.0847
G1 X6.4317 Y0.6529
G1 X6.4317 Y0.6529
G2 X6.4377 Y0.7386 I0.6094 J0
G2 X6.4543 Y0.8108 I0.4314 J-0.0613
G2 X6.4842 Y0.8795 I0.3645 J-0.1173
G2 X6.5073 Y0.9156 I0.2955 J-0.1643
G2 X6.5249 Y0.9375 I0.2723 J-0.2004
G2 X6.534 Y0.9476 I0.2456 J-0.2123
G2 X6.5776 Y0.9864 I0.2365 J-0.2224
G2 X6.6382 Y1.0211 I0.1799 J-0.2437
G2 X6.7046 Y1.0414 I0.126 J-0.294
G2 X6.7815 Y1.0486 I0.0769 J-0.4052
G2 X6.8477 Y1.0424 I0 J-0.3578
G2 X6.9028 Y1.0253 I-0.0464 J-0.2461
G2 X6.953 Y0.9946 I-0.0913 J-0.2061
G2 X6.9935 Y0.9522 I-0.1424 J-0.1765
G2 X7.0222 Y0.9025 I-0.2036 J-0.1507
G2 X7.0437 Y0.8381 I-0.3539 J-0.154
G2 X7.0548 Y0.7727 I-0.4845 J-0.1156
G2 X7.059 Y0.689 I-0.8265 J-0.0837
G1 X7.059 Y0.0847
G1 X7.1397 Y0.0847
G1 X7.1397 Y0.6529
G1 X7.1397 Y0.6529
G2 X7.1457 Y0.7391 I0.6157 J0
G2 X7.1623 Y0.8115 I0.4338 J-0.0613
G2 X7.1922 Y0.8805 I0.3655 J-0.1171
G1 X7.1925 Y0.881
G2 X7.2202 Y0.9231 I0.2942 J-0.1639
G2 X7.2331 Y0.9387 I0.2665 J-0.206
G2 X7.2859 Y0.987 I0.2411 J-0.2107
G2 X7.3471 Y1.0215 I0.1793 J-0.2466
G2 X7.4138 Y1.0414 I0.126 J-0.2998
G2 X7.4914 Y1.0486 I0.0777 J-0.4186
G2 X7.5568 Y1.0424 I0 J-0.3482
G2 X7.6115 Y1.0252 I-0.0464 J-0.2427
G2 X7.6612 Y0.9946 I-0.0918 J-0.2048
G2 X7.7017 Y0.9519 I-0.1445 J-0.1779
G2 X7.7303 Y0.902 I-0.2092 J-0.1528
G2 X7.7517 Y0.8376 I-0.3576 J-0.1548
G2 X7.7628 Y0.7722 I-0.4857 J-0.1158
G2 X7.767 Y0.689 I-0.8189 J-0.0832
G1 X7.767 Y0.0847
G1 X7.8477 Y0.0847
G1 X7.8477 Y0.6949
G3 X7.8415 Y0.7985 I-0.8785 J0
G3 X7.8262 Y0.877 I-0.5364 J-0.0637
G3 X7.799 Y0.9499 I-0.4123 J-0.1126
G3 X7.7653 Y1.0042 I-0.2701 J-0.13
G3 X7.7216 Y1.0487 I-0.2088 J-0.1613
G3 X7.6719 Y1.0793 I-0.1474 J-0.1838
G3 X7.6152 Y1.0976 I-0.1069 J-0.2346
G3 X7.5412 Y1.1048 I-0.0739 J-0.3727
G3 X7.4843 Y1.1014 I0 J-0.4727
G3 X7.4352 Y1.0921 I0.0448 J-0.3688
G3 X7.3885 Y1.0762 I0.0859 J-0.3289
G3 X7.3467 Y1.0546 I0.122 J-0.2881
G3 X7.3085 Y1.027 I0.1653 J-0.2689
G3 X7.2705 Y0.9903 I0.2498 J-0.2963
G3 X7.237 Y0.9482 I0.3306 J-0.298
G3 X7.2202 Y0.9231 I0.4969 J-0.3493
G3 X7.2031 Y0.8942 I0.5136 J-0.3242
G2 X7.1925 Y0.881 I-0.0437 J0.0243
G2 X7.1122 Y0.9021 I-0.0331 J0.0375
G3 X7.0911 Y0.9518 I-0.3893 J-0.1353
G3 X7.0675 Y0.9912 I-0.276 J-0.1387
G3 X7.0386 Y1.0259 I-0.2269 J-0.1601
G3 X7.0059 Y1.0539 I-0.1807 J-0.1777
G3 X6.9698 Y1.0758 I-0.145 J-0.1988
G3 X6.929 Y1.0918 I-0.1161 J-0.2352
G3 X6.8854 Y1.1013 I-0.083 J-0.2771
G3 X6.8332 Y1.1048 I-0.0522 J-0.3795
G3 X6.7799 Y1.102 I0 J-0.4936
G3 X6.7345 Y1.0942 I0.0408 J-0.3752
G3 X6.6912 Y1.0809 I0.077 J-0.3285
G3 X6.6534 Y1.0633 I0.1038 J-0.2718
G3 X6.6187 Y1.0405 I0.14 J-0.2514
G3 X6.5848 Y1.0107 I0.2018 J-0.2639
G3 X6.5545 Y0.9762 I0.2634 J-0.2617
G3 X6.534 Y0.9476 I0.3841 J-0.2972
G3 X6.5243 Y0.9325 I0.4046 J-0.2685
G2 X6.5073 Y0.9156 I-0.0427 J0.0261
G2 X6.4317 Y0.9586 I-0.0257 J0.0429
G1 X6.4317 Y1.0785
G1 X6.351 Y1.0785
G1 Z-0.8 F5
G1 X6.351 Y0.0847 F15
G1 X6.4317 Y0.0847
G1 X6.4317 Y0.6529
G1 X6.4317 Y0.6529
G2 X6.4377 Y0.7386 I0.6094 J0
G2 X6.4543 Y0.8108 I0.4314 J-0.0613
G2 X6.4842 Y0.8795 I0.3645 J-0.1173
G2 X6.5073 Y0.9156 I0.2955 J-0.1643
G2 X6.5249 Y0.9375 I0.2723 J-0.2004
G2 X6.534 Y0.9476 I0.2456 J-0.2123
G2 X6.5776 Y0.9864 I0.2365 J-0.2224
G2 X6.6382 Y1.0211 I0.1799 J-0.2437
G2 X6.7046 Y1.0414 I0.126 J-0.294
G2 X6.7815 Y1.0486 I0.0769 J-0.4052
G2 X6.8477 Y1.0424 I0 J-0.3578
G2 X6.9028 Y1.0253 I-0.0464 J-0.2461
G2 X6.953 Y0.9946 I-0.0913 J-0.2061
G2 X6.9935 Y0.9522 I-0.1424 J-0.1765
G2 X7.0222 Y0.9025 I-0.2036 J-0.1507
G2 X7.0437 Y0.8381 I-0.3539 J-0.154
G2 X7.0548 Y0.7727 I-0.4845 J-0.1156
G2 X7.059 Y0.689 I-0.8265 J-0.0837
G1 X7.059 Y0.0847
G1 X7.1397 Y0.0847
G1 X7.1397 Y0.6529
G1 X7.1397 Y0.6529
G2 X7.1457 Y0.7391 I0.6157 J0
G2 X7.1623 Y0.8115 I0.4338 J-0.0613
G2 X7.1922 Y0.8805 I0.3655 J-0.1171
G1 X7.1925 Y0.881
G2 X7.2202 Y0.9231 I0.2942 J-0.1639
G2 X7.2331 Y0.9387 I0.2665 J-0.206
G2 X7.2859 Y0.987 I0.2411 J-0.2107
G2 X7.3471 Y1.0215 I0.1793 J-0.2466
G2 X7.4138 Y1.0414 I0.126 J-0.2998
G2 X7.4914 Y1.0486 I0.0777 J-0.4186
G2 X7.5568 Y1.0424 I0 J-0.3482
G2 X7.6115 Y1.0252 I-0.0464 J-0.2427
G2 X7.6612 Y0.9946 I-0.0918 J-0.2048
G2 X7.7017 Y0.9519 I-0.1445 J-0.1779
G2 X7.7303 Y0.902 I-0.2092 J-0.1528
G2 X7.7517 Y0.8376 I-0.3576 J-0.1548
G2 X7.7628 Y0.7722 I-0.4857 J-0.1158
G2 X7.767 Y0.689 I-0.8189 J-0.0832
G1 X7.767 Y0.0847
G1 X7.8477 Y0.0847
G1 X7.8477 Y0.6949
G3 X7.8415 Y0.7985 I-0.8785 J0
G3 X7.8262 Y0.877 I-0.5364 J-0.0637
G3 X7.799 Y0.9499 I-0.4123 J-0.1126
G3 X7.7653 Y1.0042 I-0.2701 J-0.13
G3 X7.7216 Y1.0487 I-0.2088 J-0.1613
G3 X7.6719 Y1.0793 I-0.1474 J-0.1838
G3 X7.6152 Y1.0976 I-0.1069 J-0.2346
G3 X7.5412 Y1.1048 I-0.0739 J-0.3727
G3 X7.4843 Y1.1014 I0 J-0.4727
G3 X7.4352 Y1.0921 I0.0448 J-0.3688
G3 X7.3885 Y1.0762 I0.0859 J-0.3289
G3 X7.3467 Y1.0546 I0.122 J-0.2881
G3 X7.3085 Y1.027 I0.1653 J-0.2689
G3 X7.2705 Y0.9903 I0.2498 J-0.2963
G3 X7.237 Y0.9482 I0.3306 J-0.298
G3 X7.2202 Y0.9231 I0.4969 J-0.3493
G3 X7.2031 Y0.8942 I0.5136 J-0.3242
G2 X7.1925 Y0.881 I-0.0437 J0.0243
G2 X7.1122 Y0.9021 I-0.0331 J0.0375
G3 X7.0911 Y0.9518 I-0.3893 J-0.1353
G3 X7.0675 Y0.9912 I-0.276 J-0.1387
G3 X7.0386 Y1.0259 I-0.2269 J-0.1601
G3 X7.0059 Y1.0539 I-0.1807 J-0.1777
G3 X6.9698 Y1.0758 I-0.145 J-0.1988
G3 X6.929 Y1.0918 I-0.1161 J-0.2352
G3 X6.8854 Y1.1013 I-0.083 J-0.2771
G3 X6.8332 Y1.1048 I-0.0522 J-0.3795
G3 X6.7799 Y1.102 I0 J-0.4936
G3 X6.7345 Y1.0942 I0.0408 J-0.3752
G3 X6.6912 Y1.0809 I0.077 J-0.3285
G3 X6.6534 Y1.0633 I0.1038 J-0.2718
G3 X6.6187 Y1.0405 I0.14 J-0.2514
G3 X6.5848 Y1.0107 I0.2018 J-0.2639
G3 X6.5545 Y0.9762 I0.2634 J-0.2617
G3 X6.534 Y0.9476 I0.3841 J-0.2972
G3 X6.5243 Y0.9325 I0.4046 J-0.2685
G2 X6.5073 Y0.9156 I-0.0427 J0.0261
G2 X6.4317 Y0.9586 I-0.0257 J0.0429
G1 X6.4317 Y1.0785
G1 X6.351 Y1.0785
G1 Z-0.9 F5
G1 X6.351 Y0.0847 F15
G1 X6.4317 Y0.0847
G1 X6.4317 Y0.6529
G1 X6.4317 Y0.6529
G2 X6.4377 Y0.7386 I0.6094 J0
G2 X6.4543 Y0.8108 I0.4314 J-0.0613
G2 X6.4842 Y0.8795 I0.3645 J-0.1173
G2 X6.5073 Y0.9156 I0.2955 J-0.1643
G2 X6.5249 Y0.9375 I0.2723 J-0.2004
G2 X6.534 Y0.9476 I0.2456 J-0.2123
G2 X6.5776 Y0.9864 I0.2365 J-0.2224
G2 X6.6382 Y1.0211 I0.1799 J-0.2437
G2 X6.7046 Y1.0414 I0.126 J-0.294
G2 X6.7815 Y1.0486 I0.0769 J-0.4052
G2 X6.8477 Y1.0424 I0 J-0.3578
G2 X6.9028 Y1.0253 I-0.0464 J-0.2461
G2 X6.953 Y0.9946 I-0.0913 J-0.2061
G2 X6.9935 Y0.9522 I-0.1424 J-0.1765
G2 X7.0222 Y0.9025 I-0.2036 J-0.1507
G2 X7.0437 Y0.8381 I-0.3539 J-0.154
G2 X7.0548 Y0.7727 I-0.4845 J-0.1156
G2 X7.059 Y0.689 I-0.8265 J-0.0837
G1 X7.059 Y0.0847
G1 X7.1397 Y0.0847
G1 X7.1397 Y0.6529
G1 X7.1397 Y0.6529
G2 X7.1457 Y0.7391 I0.6157 J0
G2 X7.1623 Y0.8115 I0.4338 J-0.0613
G2 X7.1922 Y0.8805 I0.3655 J-0.1171
G1 X7.1925 Y0.881
G2 X7.2202 Y0.9231 I0.2942 J-0.1639
G2 X7.2331 Y0.9387 I0.2665 J-0.206
G2 X7.2859 Y0.987 I0.2411 J-0.2107
G2 X7.3471 Y1.0215 I0.1793 J-0.2466
G2 X7.4138 Y1.0414 I0.126 J-0.2998
G2 X7.4914 Y1.0486 I0.0777 J-0.4186
G2 X7.5568 Y1.0424 I0 J-0.3482
G2 X7.6115 Y1.0252 I-0.0464 J-0.2427
G2 X7.6612 Y0.9946 I-0.0918 J-0.2048
G2 X7.7017 Y0.9519 I-0.1445 J-0.1779
G2 X7.7303 Y0.902 I-0.2092 J-0.1528
G2 X7.7517 Y0.8376 I-0.3576 J-0.1548
G2 X7.7628 Y0.7722 I-0.4857 J-0.1158
G2 X7.767 Y0.689 I-0.8189 J-0.0832
G1 X7.767 Y0.0847
G1 X7.8477 Y0.0847
G1 X7.8477 Y0.6949
G3 X7.8415 Y0.7985 I-0.8785 J0
G3 X7.8262 Y0.877 I-0.5364 J-0.0637
G3 X7.799 Y0.9499 I-0.4123 J-0.1126
G3 X7.7653 Y1.0042 I-0.2701 J-0.13
G3 X7.7216 Y1.0487 I-0.2088 J-0.1613
G3 X7.6719 Y1.0793 I-0.1474 J-0.1838
G3 X7.6152 Y1.0976 I-0.1069 J-0.2346
G3 X7.5412 Y1.1048 I-0.0739 J-0.3727
G3 X7.4843 Y1.1014 I0 J-0.4727
G3 X7.4352 Y1.0921 I0.0448 J-0.3688
G3 X7.3885 Y1.0762 I0.0859 J-0.3289
G3 X7.3467 Y1.0546 I0.122 J-0.2881
G3 X7.3085 Y1.027 I0.1653 J-0.2689
G3 X7.2705 Y0.9903 I0.2498 J-0.2963
G3 X7.237 Y0.9482 I0.3306 J-0.298
G3 X7.2202 Y0.9231 I0.4969 J-0.3493
G3 X7.2031 Y0.8942 I0.5136 J-0.3242
G2 X7.1925 Y0.881 I-0.0437 J0.0243
G2 X7.1122 Y0.9021 I-0.0331 J0.0375
G3 X7.0911 Y0.9518 I-0.3893 J-0.1353
G3 X7.0675 Y0.9912 I-0.276 J-0.1387
G3 X7.0386 Y1.0259 I-0.2269 J-0.1601
G3 X7.0059 Y1.0539 I-0.1807 J-0.1777
G3 X6.9698 Y1.0758 I-0.145 J-0.1988
G3 X6.929 Y1.0918 I-0.1161 J-0.2352
G3 X6.8854 Y1.1013 I-0.083 J-0.2771
G3 X6.8332 Y1.1048 I-0.0522 J-0.3795
G3 X6.7799 Y1.102 I0 J-0.4936
G3 X6.7345 Y1.0942 I0.0408 J-0.3752
G3 X6.6912 Y1.0809 I0.077 J-0.3285
G3 X6.6534 Y1.0633 I0.1038 J-0.2718
G3 X6.6187 Y1.0405 I0.14 J-0.2514
G3 X6.5848 Y1.0107 I0.2018 J-0.2639
G3 X6.5545 Y0.9762 I0.2634 J-0.2617
G3 X6.534 Y0.9476 I0.3841 J-0.2972
G3 X6.5243 Y0.9325 I0.4046 J-0.2685
G2 X6.5073 Y0.9156 I-0.0427 J0.0261
G2 X6.4317 Y0.9586 I-0.0257 J0.0429
G1 X6.4317 Y1.0785
G1 X6.351 Y1.0785
G1 Z-1 F5
G1 X6.351 Y0.0847 F15
G1 X6.4317 Y0.0847
G1 X6.4317 Y0.6529
G1 X6.4317 Y0.6529
G2 X6.4377 Y0.7386 I0.6094 J0
G2 X6.4543 Y0.8108 I0.4314 J-0.0613
G2 X6.4842 Y0.8795 I0.3645 J-0.1173
G2 X6.5073 Y0.9156 I0.2955 J-0.1643
G2 X6.5249 Y0.9375 I0.2723 J-0.2004
G2 X6.534 Y0.9476 I0.2456 J-0.2123
G2 X6.5776 Y0.9864 I0.2365 J-0.2224
G2 X6.6382 Y1.0211 I0.1799 J-0.2437
G2 X6.7046 Y1.0414 I0.126 J-0.294
G2 X6.7815 Y1.0486 I0.0769 J-0.4052
G2 X6.8477 Y1.0424 I0 J-0.3578
G2 X6.9028 Y1.0253 I-0.0464 J-0.2461
G2 X6.953 Y0.9946 I-0.0913 J-0.2061
G2 X6.9935 Y0.9522 I-0.1424 J-0.1765
G2 X7.0222 Y0.9025 I-0.2036 J-0.1507
G2 X7.0437 Y0.8381 I-0.3539 J-0.154
G2 X7.0548 Y0.7727 I-0.4845 J-0.1156
G2 X7.059 Y0.689 I-0.8265 J-0.0837
G1 X7.059 Y0.0847
G1 X7.1397 Y0.0847
G1 X7.1397 Y0.6529
G1 X7.1397 Y0.6529
G2 X7.1457 Y0.7391 I0.6157 J0
G2 X7.1623 Y0.8115 I0.4338 J-0.0613
G2 X7.1922 Y0.8805 I0.3655 J-0.1171
G1 X7.1925 Y0.881
G2 X7.2202 Y0.9231 I0.2942 J-0.1639
G2 X7.2331 Y0.9387 I0.2665 J-0.206
G2 X7.2859 Y0.987 I0.2411 J-0.2107
G2 X7.3471 Y1.0215 I0.1793 J-0.2466
G2 X7.4138 Y1.0414 I0.126 J-0.2998
G2 X7.4914 Y1.0486 I0.0777 J-0.4186
G2 X7.5568 Y1.0424 I0 J-0.3482
G2 X7.6115 Y1.0252 I-0.0464 J-0.2427
G2 X7.6612 Y0.9946 I-0.0918 J-0.2048
G2 X7.7017 Y0.9519 I-0.1445 J-0.1779
G2 X7.7303 Y0.902 I-0.2092 J-0.1528
G2 X7.7517 Y0.8376 I-0.3576 J-0.1548
G2 X7.7628 Y0.7722 I-0.4857 J-0.1158
G2 X7.767 Y0.689 I-0.8189 J-0.0832
G1 X7.767 Y0.0847
G1 X7.8477 Y0.0847
G1 X7.8477 Y0.6949
G3 X7.8415 Y0.7985 I-0.8785 J0
G3 X7.8262 Y0.877 I-0.5364 J-0.0637
G3 X7.799 Y0.9499 I-0.4123 J-0.1126
G3 X7.7653 Y1.0042 I-0.2701 J-0.13
G3 X7.7216 Y1.0487 I-0.2088 J-0.1613
G3 X7.6719 Y1.0793 I-0.1474 J-0.1838
G3 X7.6152 Y1.0976 I-0.1069 J-0.2346
G3 X7.5412 Y1.1048 I-0.0739 J-0.3727
G3 X7.4843 Y1.1014 I0 J-0.4727
G3 X7.4352 Y1.0921 I0.0448 J-0.3688
G3 X7.3885 Y1.0762 I0.0859 J-0.3289
G3 X7.3467 Y1.0546 I0.122 J-0.2881
G3 X7.3085 Y1.027 I0.1653 J-0.2689
G3 X7.2705 Y0.9903 I0.2498 J-0.2963
G3 X7.237 Y0.9482 I0.3306 J-0.298
G3 X7.2202 Y0.9231 I0.4969 J-0.3493
G3 X7.2031 Y0.8942 I0.5136 J-0.3242
G2 X7.1925 Y0.881 I-0.0437 J0.0243
G2 X7.1122 Y0.9021 I-0.0331 J0.0375
G3 X7.0911 Y0.9518 I-0.3893 J-0.1353
G3 X7.0675 Y0.9912 I-0.276 J-0.1387
G3 X7.0386 Y1.0259 I-0.2269 J-0.1601
G3 X7.0059 Y1.0539 I-0.1807 J-0.1777
G3 X6.9698 Y1.0758 I-0.145 J-0.1988
