(Generated by PartKam Version 0.05)

G20 G90 G40

(profile 1)
G0 Z0.125
T0 M6
G17
M3
G0 X2.8773 Y0.5806
G1 Z-0.1 F10
G3 X2.8829 Y0.4828 I0.8601 J0 F30
G3 X2.8974 Y0.4049 I0.5606 J0.0642
G3 X2.9236 Y0.3307 I0.4486 J0.1167
G3 X2.9574 Y0.272 I0.3145 J0.1421
G3 X3.0027 Y0.2228 I0.2401 J0.1754
G3 X3.0527 Y0.1893 I0.1577 J0.1819
G3 X3.1095 Y0.1692 I0.1094 J0.2188
G3 X3.178 Y0.1618 I0.0684 J0.3106
G3 X3.2464 Y0.1692 I0 J0.318
G3 X3.3032 Y0.1893 I-0.0526 J0.2389
G3 X3.3532 Y0.2228 I-0.1077 J0.2153
G3 X3.3985 Y0.272 I-0.1948 J0.2247
G3 X3.4328 Y0.3308 I-0.2789 J0.202
G3 X3.4592 Y0.4049 I-0.4179 J0.1911
G3 X3.4739 Y0.4828 I-0.54 J0.1422
G3 X3.4796 Y0.5806 I-0.8442 J0.0978
G3 X3.4739 Y0.6784 I-0.8487 J0
G3 X3.4592 Y0.7561 I-0.5506 J-0.0639
G3 X3.4327 Y0.8299 I-0.4395 J-0.1161
G3 X3.3985 Y0.8882 I-0.3078 J-0.1415
G3 X3.3531 Y0.938 I-0.2424 J-0.1755
G3 X3.3031 Y0.9717 I-0.1582 J-0.1809
G3 X3.2463 Y0.9919 I-0.1096 J-0.2173
G3 X3.178 Y0.9994 I-0.0684 J-0.3078
G3 X3.1096 Y0.9919 I0 J-0.3153
G3 X3.0528 Y0.9717 I0.0528 J-0.2376
G3 X3.0028 Y0.938 I0.1082 J-0.2146
G3 X2.9574 Y0.8882 I0.197 J-0.2253
G3 X2.9236 Y0.83 I0.2752 J-0.1987
G3 X2.8974 Y0.7561 I0.4175 J-0.1897
G3 X2.8829 Y0.6785 I0.542 J-0.1415
G3 X2.8773 Y0.5806 I0.8533 J-0.0978
G1 X2.8773 Y0.5806
G1 X2.8773 Y0.5806
G0 Z0.125
G0 X3.6593 Y0.0397
G1 Z-0.1 F10
G1 X3.6593 Y1.5493 F30
G1 X3.4896 Y1.5493
G1 X3.4896 Y0.9625
G2 X3.4803 Y0.9599 I-0.005 J0
G3 X3.4496 Y1.0062 I-0.3951 J-0.2292
G3 X3.4168 Y1.0439 I-0.2957 J-0.2234
G3 X3.3793 Y1.0766 I-0.2442 J-0.2426
G3 X3.3386 Y1.1026 I-0.194 J-0.2584
G3 X3.295 Y1.1229 I-0.1605 J-0.2882
G3 X3.2452 Y1.138 I-0.1367 J-0.3609
G3 X3.1937 Y1.1467 I-0.0973 J-0.4209
G3 X3.134 Y1.1498 I-0.0597 J-0.56
G3 X3.0384 Y1.1395 I0 J-0.4454
G3 X2.9563 Y1.1108 I0.0784 J-0.3566
G3 X2.8831 Y1.0636 I0.1622 J-0.3315
G3 X2.8147 Y0.9936 I0.2972 J-0.359
G3 X2.7619 Y0.9108 I0.3972 J-0.3114
G3 X2.7225 Y0.8121 I0.526 J-0.2672
G3 X2.7002 Y0.7076 I0.6512 J-0.1941
G3 X2.6917 Y0.5806 I0.9541 J-0.127
G3 X2.7002 Y0.4536 I0.9625 J0
G3 X2.7225 Y0.3491 I0.6736 J0.0897
G3 X2.7619 Y0.2505 I0.5654 J0.1686
G3 X2.8147 Y0.1677 I0.4499 J0.2286
G3 X2.8831 Y0.0977 I0.3657 J0.2889
G3 X2.9563 Y0.0504 I0.2354 J0.2843
G3 X3.0384 Y0.0218 I0.1605 J0.3279
G3 X3.134 Y0.0114 I0.0956 J0.435
G3 X3.1937 Y0.0145 I0 J0.575
G3 X3.2452 Y0.023 I-0.0457 J0.4378
G3 X3.2951 Y0.0378 I-0.0866 J0.3827
G3 X3.3386 Y0.0577 I-0.1158 J0.312
G3 X3.3793 Y0.0841 I-0.1596 J0.29
G3 X3.4168 Y0.1171 I-0.2128 J0.28
G3 X3.4496 Y0.155 I-0.2688 J0.2652
G3 X3.4803 Y0.2013 I-0.3691 J0.2781
G2 X3.4896 Y0.1988 I0.0043 J-0.0025
G1 X3.4896 Y0.0397
G1 X3.6593 Y0.0397
G0 Z0.125
G0 X10.1507 Y0.5806
G1 Z-0.1 F10
G3 X10.1563 Y0.4828 I0.8601 J0 F30
G3 X10.1708 Y0.4049 I0.5606 J0.0642
G3 X10.197 Y0.3307 I0.4486 J0.1167
G3 X10.2308 Y0.272 I0.3145 J0.1421
G3 X10.2762 Y0.2228 I0.2401 J0.1754
G3 X10.3262 Y0.1893 I0.1577 J0.1819
G3 X10.383 Y0.1692 I0.1094 J0.2188
G3 X10.4514 Y0.1618 I0.0684 J0.3106
G3 X10.5198 Y0.1692 I0 J0.318
G3 X10.5766 Y0.1893 I-0.0526 J0.2389
G3 X10.6266 Y0.2228 I-0.1077 J0.2153
G3 X10.6719 Y0.272 I-0.1948 J0.2247
G3 X10.7062 Y0.3308 I-0.2789 J0.202
G3 X10.7327 Y0.4049 I-0.4179 J0.1911
G3 X10.7474 Y0.4828 I-0.54 J0.1422
G3 X10.753 Y0.5806 I-0.8442 J0.0978
G3 X10.7474 Y0.6784 I-0.8487 J0
G3 X10.7327 Y0.7561 I-0.5506 J-0.0639
G3 X10.7062 Y0.8299 I-0.4395 J-0.1161
G3 X10.6719 Y0.8882 I-0.3078 J-0.1415
G3 X10.6265 Y0.938 I-0.2424 J-0.1755
G3 X10.5766 Y0.9717 I-0.1582 J-0.1809
G3 X10.5198 Y0.9919 I-0.1096 J-0.2173
G3 X10.4514 Y0.9994 I-0.0684 J-0.3078
G3 X10.383 Y0.9919 I0 J-0.3153
G3 X10.3262 Y0.9717 I0.0528 J-0.2376
G3 X10.2762 Y0.938 I0.1082 J-0.2146
G3 X10.2308 Y0.8882 I0.197 J-0.2253
G3 X10.197 Y0.83 I0.2752 J-0.1987
G3 X10.1708 Y0.7561 I0.4175 J-0.1897
G3 X10.1563 Y0.6785 I0.542 J-0.1415
G3 X10.1507 Y0.5806 I0.8533 J-0.0978
G1 X10.1507 Y0.5806
G1 X10.1507 Y0.5806
G0 Z0.125
G0 X10.9327 Y0.0397
G1 Z-0.1 F10
G1 X10.9327 Y1.5493 F30
G1 X10.763 Y1.5493
G1 X10.763 Y0.9625
G2 X10.7537 Y0.9599 I-0.005 J0
G3 X10.723 Y1.0062 I-0.3951 J-0.2292
G3 X10.6903 Y1.0439 I-0.2957 J-0.2234
G3 X10.6527 Y1.0766 I-0.2442 J-0.2426
G3 X10.612 Y1.1026 I-0.194 J-0.2584
G3 X10.5684 Y1.1229 I-0.1605 J-0.2882
G3 X10.5186 Y1.138 I-0.1367 J-0.3609
G3 X10.4671 Y1.1467 I-0.0973 J-0.4209
G3 X10.4074 Y1.1498 I-0.0597 J-0.56
G3 X10.3118 Y1.1395 I0 J-0.4454
G3 X10.2297 Y1.1108 I0.0784 J-0.3566
G3 X10.1566 Y1.0636 I0.1622 J-0.3315
G3 X10.0881 Y0.9936 I0.2972 J-0.359
G3 X10.0354 Y0.9108 I0.3972 J-0.3114
G3 X9.996 Y0.8121 I0.526 J-0.2672
G3 X9.9736 Y0.7076 I0.6512 J-0.1941
G3 X9.9652 Y0.5806 I0.9541 J-0.127
G3 X9.9736 Y0.4536 I0.9625 J0
G3 X9.996 Y0.3491 I0.6736 J0.0897
G3 X10.0354 Y0.2505 I0.5654 J0.1686
G3 X10.0881 Y0.1677 I0.4499 J0.2286
G3 X10.1566 Y0.0977 I0.3657 J0.2889
G3 X10.2297 Y0.0504 I0.2354 J0.2843
G3 X10.3118 Y0.0218 I0.1605 J0.3279
G3 X10.4074 Y0.0114 I0.0956 J0.435
G3 X10.4671 Y0.0145 I0 J0.575
G3 X10.5186 Y0.023 I-0.0457 J0.4378
G3 X10.5685 Y0.0378 I-0.0866 J0.3827
G3 X10.6121 Y0.0577 I-0.1158 J0.312
G3 X10.6527 Y0.0841 I-0.1596 J0.29
G3 X10.6903 Y0.1171 I-0.2128 J0.28
G3 X10.723 Y0.155 I-0.2688 J0.2652
G3 X10.7537 Y0.2013 I-0.3691 J0.2781
G2 X10.763 Y0.1988 I0.0043 J-0.0025
G1 X10.763 Y0.0397
G1 X10.9327 Y0.0397
G0 Z0.125
G0 X0.2149 Y0.1968
G1 Z-0.1 F10
G3 X0.2199 Y0.1918 I0.005 J0 F30
G1 X0.5363 Y0.1918
G3 X0.6159 Y0.1965 I0 J0.6778
G3 X0.6761 Y0.2084 I-0.047 J0.3974
G3 X0.733 Y0.2304 I-0.0829 J0.2982
G3 X0.775 Y0.2585 I-0.0948 J0.1872
G3 X0.809 Y0.2964 I-0.1305 J0.1516
G3 X0.8342 Y0.3442 I-0.1858 J0.1283
G3 X0.8484 Y0.3967 I-0.2506 J0.0956
G3 X0.8538 Y0.4644 I-0.4155 J0.0677
G3 X0.8483 Y0.5326 I-0.4248 J0
G3 X0.8342 Y0.5849 I-0.2612 J-0.0425
G3 X0.809 Y0.6324 I-0.2053 J-0.0787
G3 X0.7749 Y0.6694 I-0.157 J-0.1101
G3 X0.733 Y0.6974 I-0.1367 J-0.1592
G3 X0.6761 Y0.7195 I-0.1398 J-0.2761
G3 X0.6159 Y0.7313 I-0.1072 J-0.3855
G3 X0.5363 Y0.736 I-0.0795 J-0.6731
G1 X0.2199 Y0.736
G3 X0.2149 Y0.731 I0 J-0.005
G1 X0.2149 Y0.1968
G0 Z0.125
G0 X0.2149 Y0.8912
G1 Z-0.1 F10
G3 X0.2199 Y0.8862 I0.005 J0 F30
G1 X0.5119 Y0.8862
G3 X0.5843 Y0.89 I0 J0.6824
G3 X0.6391 Y0.8997 I-0.0426 J0.3995
G3 X0.6915 Y0.918 I-0.0746 J0.2984
G3 X0.7298 Y0.9409 I-0.0814 J0.1797
G3 X0.7618 Y0.9727 I-0.1075 J0.1401
G3 X0.7848 Y1.0118 I-0.141 J0.1095
G3 X0.798 Y1.0553 I-0.1871 J0.0803
G3 X0.8031 Y1.1109 I-0.3028 J0.0555
G3 X0.798 Y1.166 I-0.303 J0
G3 X0.7848 Y1.2093 I-0.1985 J-0.0367
G3 X0.7618 Y1.2481 I-0.1633 J-0.0706
G3 X0.7298 Y1.2799 I-0.1402 J-0.1093
G3 X0.6915 Y1.3032 I-0.1209 J-0.1555
G3 X0.6391 Y1.3218 I-0.1272 J-0.2757
G3 X0.5843 Y1.3317 I-0.0976 J-0.3833
G3 X0.5119 Y1.3356 I-0.0723 J-0.6664
G1 X0.2199 Y1.3356
G3 X0.2149 Y1.3306 I0 J-0.005
G1 X0.2149 Y0.8912
G0 Z0.125
G0 X0.0277 Y1.4877
G1 Z-0.1 F10
G1 X0.0277 Y0.0397 F30
G1 X0.5461 Y0.0397
G3 X0.667 Y0.0471 I0 J0.9936
G3 X0.7618 Y0.0661 I-0.0772 J0.6295
G3 X0.8512 Y0.1006 I-0.1398 J0.4964
G3 X0.9209 Y0.1451 I-0.1713 J0.3451
G3 X0.9785 Y0.2036 I-0.2177 J0.2717
G3 X1.0191 Y0.2718 I-0.2577 J0.1995
G3 X1.0428 Y0.3481 I-0.3256 J0.1433
G3 X1.0519 Y0.4429 I-0.4942 J0.0948
G3 X1.0465 Y0.5155 I-0.4927 J0
G3 X1.0318 Y0.5774 I-0.3721 J-0.0554
G3 X1.0067 Y0.6354 I-0.3276 J-0.1075
G3 X0.9719 Y0.6869 I-0.2914 J-0.1595
G3 X0.9286 Y0.7315 I-0.261 J-0.2098
G3 X0.8769 Y0.7682 I-0.2269 J-0.2651
G3 X0.8192 Y0.7954 I-0.1912 J-0.3295
G3 X0.7492 Y0.816 I-0.1748 J-0.467
G2 X0.7452 Y0.8209 I0.001 J0.0049
G2 X0.7494 Y0.8258 I0.005 J0
G3 X0.8077 Y0.8398 I-0.0625 J0.3876
G3 X0.8543 Y0.8597 I-0.0866 J0.2677
G3 X0.896 Y0.8878 I-0.1185 J0.2206
G3 X0.9299 Y0.9226 I-0.1497 J0.1798
G3 X0.9561 Y0.9636 I-0.1905 J0.1505
G3 X0.9759 Y1.0137 I-0.2639 J0.1333
G3 X0.9871 Y1.0667 I-0.3335 J0.0979
G3 X0.9913 Y1.1324 I-0.5046 J0.0656
G3 X0.9831 Y1.216 I-0.4277 J0
G3 X0.9612 Y1.2834 I-0.2992 J-0.0597
G3 X0.9242 Y1.3432 I-0.2575 J-0.1179
G3 X0.8712 Y1.395 I-0.2437 J-0.1965
G3 X0.8074 Y1.434 I-0.2159 J-0.2811
G3 X0.725 Y1.4645 I-0.2096 J-0.441
G3 X0.6379 Y1.4812 I-0.1576 J-0.5846
G3 X0.5266 Y1.4877 I-0.1114 J-0.9488
G1 X0.0277 Y1.4877
G0 Z0.125
G0 X9.6583 Y0.0397
G1 Z-0.1 F10
G1 X9.6583 Y1.1235 F30
G1 X9.4886 Y1.1235
G1 X9.4886 Y0.0397
G1 X9.6583 Y0.0397
G0 Z0.125
G0 X2.2152 Y1.1235
G1 Z-0.1 F10
G1 X2.2152 Y0.0397 F30
G1 X2.3849 Y0.0397
G1 X2.3849 Y1.1235
G1 X2.2152 Y1.1235
G0 Z0.125
G0 X1.3841 Y1.1235
G1 Z-0.1 F10
G1 X1.3841 Y0.0397 F30
G1 X1.5548 Y0.0397
G1 X1.5548 Y0.6109
G1 X1.5548 Y0.6109
G2 X1.5605 Y0.7035 I0.7543 J0
G2 X1.5752 Y0.7761 I0.4755 J-0.0588
G2 X1.6021 Y0.8447 I0.374 J-0.1067
G2 X1.637 Y0.8983 I0.2595 J-0.1311
G2 X1.6835 Y0.9427 I0.2088 J-0.1719
G2 X1.7385 Y0.9744 I0.158 J-0.2107
G2 X1.7995 Y0.9927 I0.114 J-0.2682
G2 X1.8752 Y0.9997 I0.0757 J-0.4096
G2 X1.8969 Y0.9991 I0 J-0.4061
G2 X1.9168 Y0.9975 I-0.0182 J-0.3402
G2 X1.9365 Y0.9946 I-0.035 J-0.3109
G2 X1.9544 Y0.9908 I-0.0466 J-0.2625
G2 X1.9726 Y0.9861 I-0.0533 J-0.2465
G2 X1.9898 Y0.9803 I-0.0663 J-0.224
G2 X2.0065 Y0.9732 I-0.0812 J-0.2123
G2 X2.0147 Y0.969 I-0.0949 J-0.1991
G1 X2.0138 Y1.1409
G3 X2.0043 Y1.1424 I-0.1227 J-0.7113
G3 X1.992 Y1.1443 I-0.0925 J-0.5825
G3 X1.9796 Y1.1458 I-0.0722 J-0.5258
G3 X1.9683 Y1.147 I-0.048 J-0.423
G3 X1.9572 Y1.1482 I-0.0521 J-0.3998
G3 X1.9471 Y1.1491 I-0.0337 J-0.3295
G3 X1.937 Y1.1497 I-0.0213 J-0.2984
G3 X1.928 Y1.1498 I-0.0091 J-0.2425
G3 X1.8639 Y1.1466 I0 J-0.6338
G3 X1.8089 Y1.1377 I0.0484 J-0.4759
G3 X1.7557 Y1.1222 I0.0912 J-0.4124
G3 X1.7096 Y1.1016 I0.1199 J-0.3292
G3 X1.6671 Y1.0749 I0.1545 J-0.2932
G3 X1.6285 Y1.0417 I0.2033 J-0.2752
G3 X1.595 Y1.0031 I0.2572 J-0.2572
G3 X1.5641 Y0.9561 I0.3521 J-0.2648
G2 X1.5548 Y0.9586 I-0.0043 J0.0025
G1 X1.5548 Y1.1235
G1 X1.3841 Y1.1235
G0 Z0.125
G0 X6.306 Y1.1235
G1 Z-0.1 F10
G1 X6.306 Y0.0397 F30
G1 X6.4767 Y0.0397
G1 X6.4767 Y0.6529
G1 X6.4767 Y0.6529
G2 X6.4823 Y0.7323 I0.5644 J0
G2 X6.4972 Y0.797 I0.3869 J-0.055
G2 X6.5235 Y0.8577 I0.3217 J-0.1035
G2 X6.5589 Y0.9081 I0.2562 J-0.1424
G2 X6.6043 Y0.9502 I0.2115 J-0.1829
G2 X6.656 Y0.9797 I0.1532 J-0.2075
G2 X6.713 Y0.9972 I0.1083 J-0.2526
G2 X6.7815 Y1.0036 I0.0685 J-0.3609
G2 X6.8394 Y0.9982 I0 J-0.3128
G2 X6.8846 Y0.9841 I-0.038 J-0.2019
G2 X6.9248 Y0.9596 I-0.0731 J-0.165
G2 X6.9574 Y0.9254 I-0.1141 J-0.1415
G2 X6.9809 Y0.8846 I-0.1674 J-0.1239
G2 X7 Y0.8276 I-0.3127 J-0.136
G2 X7.01 Y0.7682 I-0.4408 J-0.1051
G2 X7.014 Y0.689 I-0.7817 J-0.0791
G1 X7.014 Y0.0397
G1 X7.1847 Y0.0397
G1 X7.1847 Y0.6529
G1 X7.1847 Y0.6529
G2 X7.1903 Y0.7328 I0.5707 J0
G2 X7.2052 Y0.7977 I0.3892 J-0.055
G2 X7.2315 Y0.8586 I0.3226 J-0.1034
G2 X7.267 Y0.9091 I0.2552 J-0.1415
G2 X7.3124 Y0.9506 I0.2072 J-0.181
G2 X7.3645 Y0.98 I0.1528 J-0.2102
G2 X7.422 Y0.9972 I0.1086 J-0.2584
G2 X7.4914 Y1.0036 I0.0695 J-0.3744
G2 X7.5484 Y0.9982 I0 J-0.3032
G2 X7.5931 Y0.9841 I-0.038 J-0.1985
G2 X7.6328 Y0.9596 I-0.0734 J-0.1637
G2 X7.6654 Y0.9254 I-0.1161 J-0.1429
G2 X7.689 Y0.8841 I-0.1728 J-0.1263
G2 X7.708 Y0.8271 I-0.3163 J-0.1369
G2 X7.718 Y0.7677 I-0.4419 J-0.1054
G2 X7.722 Y0.689 I-0.7741 J-0.0787
G1 X7.722 Y0.0397
G1 X7.8927 Y0.0397
G1 X7.8927 Y0.6949
G3 X7.8862 Y0.8038 I-0.9235 J0
G3 X7.8697 Y0.8889 I-0.5811 J-0.069
G3 X7.8396 Y0.9694 I-0.4557 J-0.1244
G3 X7.8009 Y1.0317 I-0.3107 J-0.1496
G3 X7.7498 Y1.0838 I-0.2444 J-0.1888
G3 X7.6905 Y1.1203 I-0.1756 J-0.2189
G3 X7.6239 Y1.1417 I-0.1255 J-0.2755
G3 X7.5412 Y1.1498 I-0.0827 J-0.4168
G3 X7.4788 Y1.1461 I0 J-0.5177
G3 X7.4238 Y1.1356 I0.0502 J-0.4134
G3 X7.371 Y1.1176 I0.0972 J-0.3724
G3 X7.3231 Y1.093 I0.1395 J-0.3295
G3 X7.2795 Y1.0614 I0.1888 J-0.3073
G3 X7.2371 Y1.0204 I0.2788 J-0.3307
G3 X7.2001 Y0.9741 I0.364 J-0.3282
G3 X7.1638 Y0.9161 I0.5337 J-0.3752
G2 X7.1547 Y0.9169 I-0.0044 J0.0024
G3 X7.1313 Y0.9721 I-0.4318 J-0.15
G3 X7.1043 Y1.0172 I-0.3162 J-0.1589
G3 X7.0707 Y1.0574 I-0.2636 J-0.186
G3 X7.0324 Y1.0903 I-0.2127 J-0.2092
G3 X6.9897 Y1.1161 I-0.1715 J-0.2351
G3 X6.9419 Y1.1349 I-0.136 J-0.2756
G3 X6.8915 Y1.1459 I-0.0959 J-0.3202
G3 X6.8332 Y1.1498 I-0.0583 J-0.4241
G3 X6.7751 Y1.1467 I0 J-0.5386
G3 X6.7243 Y1.138 I0.0456 J-0.4199
G3 X6.6751 Y1.123 I0.0873 J-0.3723
G3 X6.6316 Y1.1026 I0.1198 J-0.3138
G3 X6.5913 Y1.0762 I0.1619 J-0.2907
G3 X6.5528 Y1.0424 I0.2291 J-0.2997
G3 X6.5189 Y1.0038 I0.2954 J-0.2934
G3 X6.4859 Y0.9559 I0.4197 J-0.3247
G2 X6.4767 Y0.9586 I-0.0043 J0.0026
G1 X6.4767 Y1.1235
G1 X6.306 Y1.1235
G0 Z0.125
G0 X4.7903 Y0.6742
G1 Z-0.1 F10
G3 X4.7953 Y0.6792 I0 J0.005 F30
G1 X4.7953 Y0.6793
G3 X4.7888 Y0.7528 I-0.495 J-0.0066
G3 X4.7732 Y0.8135 I-0.3503 J-0.0574
G3 X4.7467 Y0.87 I-0.297 J-0.1048
G3 X4.7109 Y0.918 I-0.2485 J-0.1482
G3 X4.6664 Y0.9573 I-0.2033 J-0.1853
G3 X4.6159 Y0.9851 I-0.149 J-0.2108
G3 X4.5605 Y1.0015 I-0.1052 J-0.2549
G3 X4.4944 Y1.0075 I-0.0661 J-0.3601
G3 X4.4194 Y1.0017 I0 J-0.4842
G3 X4.3572 Y0.986 I0.0543 J-0.3464
G3 X4.2994 Y0.9587 I0.1044 J-0.2964
G3 X4.2497 Y0.9212 I0.1535 J-0.2547
G3 X4.2094 Y0.8742 I0.2049 J-0.2167
G3 X4.1778 Y0.8172 I0.2723 J-0.1885
G3 X4.1571 Y0.7552 I0.3455 J-0.1495
G3 X4.1447 Y0.6787 I0.5163 J-0.1233
G1 X4.1446 Y0.6783
G3 X4.1496 Y0.6733 I0.005 J0
G1 X4.7903 Y0.6742
G0 Z0.125
G0 X4.1438 Y0.5436
G1 Z-0.1 F10
G1 X4.9649 Y0.5436 F30
G1 X4.9649 Y0.6265
G3 X4.9561 Y0.7464 I-0.8218 J0
G3 X4.933 Y0.8434 I-0.5612 J-0.0828
G3 X4.8923 Y0.9337 I-0.4667 J-0.156
G3 X4.8373 Y1.0089 I-0.3767 J-0.2178
G3 X4.768 Y1.0707 I-0.3096 J-0.2778
G3 X4.688 Y1.1146 I-0.232 J-0.3279
G3 X4.6 Y1.1402 I-0.1659 J-0.4057
G3 X4.4924 Y1.1498 I-0.1076 J-0.596
G3 X4.3723 Y1.1392 I0 J-0.6815
G3 X4.2733 Y1.1107 I0.0879 J-0.4912
G3 X4.1832 Y1.0619 I0.1721 J-0.426
G3 X4.1045 Y0.9933 I0.2719 J-0.3911
G3 X4.0427 Y0.9097 I0.3592 J-0.3302
G3 X3.9971 Y0.81 I0.4675 J-0.2739
G3 X3.9711 Y0.7028 I0.5869 J-0.1992
G3 X3.9613 Y0.5709 I0.8787 J-0.1319
G3 X3.9716 Y0.4436 I0.7883 J0
G3 X3.999 Y0.3397 I0.5535 J0.0905
G3 X4.0466 Y0.244 I0.4704 J0.1739
G3 X4.1121 Y0.1623 I0.4063 J0.2591
G3 X4.1943 Y0.0968 I0.341 J0.3432
G3 X4.2908 Y0.0492 I0.271 J0.4279
G3 X4.3954 Y0.0217 I0.1957 J0.5331
G3 X4.5237 Y0.0114 I0.1282 J0.7898
G3 X4.5756 Y0.0127 I0 J1.0043
G3 X4.6269 Y0.0167 I-0.051 J0.9856
G3 X4.6779 Y0.0234 I-0.102 J0.9783
G3 X4.7287 Y0.0328 I-0.1537 J0.9759
G3 X4.7789 Y0.0447 I-0.2203 J1.0415
G3 X4.8285 Y0.059 I-0.2712 J1.032
G3 X4.8774 Y0.0757 I-0.3227 J1.0237
G3 X4.923 Y0.0937 I-0.3795 J1.0283
G1 X4.923 Y0.252
G2 X4.8816 Y0.2317 I-0.4553 J0.8758
G2 X4.8336 Y0.2112 I-0.3809 J0.8246
G2 X4.7845 Y0.1936 I-0.3212 J0.8153
G2 X4.7359 Y0.1793 I-0.2566 J0.7857
G2 X4.6869 Y0.1681 I-0.1944 J0.7403
G2 X4.6368 Y0.1601 I-0.1482 J0.7656
G2 X4.5864 Y0.1554 I-0.0999 J0.7873
G2 X4.5344 Y0.1537 I-0.052 J0.8334
G2 X4.4454 Y0.1605 I0 J0.5928
G2 X4.3736 Y0.1782 I0.0609 J0.4012
G2 X4.3069 Y0.2094 I0.115 J0.3323
G2 X4.2516 Y0.2519 I0.162 J0.2684
G2 X4.2075 Y0.3058 I0.2224 J0.2269
G2 X4.1728 Y0.3732 I0.3169 J0.2057
G2 X4.1511 Y0.4463 I0.4142 J0.1628
G2 X4.1388 Y0.5383 I0.65 J0.1339
G1 X4.1388 Y0.5386
G2 X4.1438 Y0.5436 I0.005 J0
G0 Z0.125
G0 X8.7541 Y0.5895
G1 Z-0.1 F10
G3 X8.6452 Y0.5859 I0 J-1.6163 F30
G3 X8.569 Y0.577 I0.0538 J-0.7967
G3 X8.4947 Y0.5592 I0.0862 J-0.5222
G3 X8.4498 Y0.539 I0.0658 J-0.2069
G3 X8.4118 Y0.5085 I0.0879 J-0.1482
G3 X8.3849 Y0.4696 I0.1186 J-0.1109
G3 X8.3694 Y0.4245 I0.1667 J-0.0824
G3 X8.3634 Y0.3648 I0.2914 J-0.0597
G1 X8.3634 Y0.3648
G1 X8.3634 Y0.3648
G3 X8.3677 Y0.3169 I0.2678 J0
G3 X8.3794 Y0.277 I0.1957 J0.0356
G3 X8.3994 Y0.2406 I0.1708 J0.0701
G3 X8.4275 Y0.2088 I0.1582 J0.1117
G3 X8.4624 Y0.1841 I0.1338 J0.1525
G3 X8.504 Y0.166 I0.1131 J0.2024
G3 X8.5485 Y0.1557 I0.0822 J0.254
G3 X8.6028 Y0.1518 I0.0543 J0.3792
G3 X8.6769 Y0.159 I0 J0.3856
G3 X8.7393 Y0.1786 I-0.0568 J0.29
G3 X8.7956 Y0.2116 I-0.1139 J0.2583
G3 X8.8458 Y0.259 I-0.191 J0.2529
G3 X8.8856 Y0.3165 I-0.2622 J0.2237
G3 X8.9149 Y0.3845 I-0.3387 J0.1864
G3 X8.9316 Y0.4569 I-0.4187 J0.1348
G3 X8.9378 Y0.5445 I-0.6115 J0.0876
G1 X8.9378 Y0.5845
G3 X8.9328 Y0.5895 I-0.005 J0
G1 X8.7541 Y0.5895
G0 Z0.125
G0 X9.1075 Y0.0397
G1 Z-0.1 F10
G1 X9.1075 Y0.6587 F30
G3 X9.0993 Y0.7818 I-0.9251 J0
G3 X9.0785 Y0.8755 I-0.5572 J-0.0748
G3 X9.0406 Y0.9625 I-0.4277 J-0.1343
G3 X8.9917 Y1.0283 I-0.2923 J-0.166
G3 X8.9283 Y1.0801 I-0.2379 J-0.2265
G3 X8.8465 Y1.1194 I-0.2139 J-0.3412
G3 X8.7573 Y1.1412 I-0.1615 J-0.4652
G3 X8.6408 Y1.1498 I-0.1165 J-0.7847
G3 X8.5972 Y1.1486 I0 J-0.7972
G3 X8.5523 Y1.145 I0.0466 J-0.851
G3 X8.5075 Y1.139 I0.0952 J-0.8806
G3 X8.4612 Y1.1304 I0.1524 J-0.9528
G3 X8.4153 Y1.1201 I0.199 J-0.9951
G3 X8.3674 Y1.1071 I0.2727 J-1.0965
G3 X8.32 Y1.092 I0.3392 J-1.1461
G3 X8.2738 Y1.0752 I0.4339 J-1.2699
G1 X8.2738 Y0.921
G2 X8.3083 Y0.9383 I0.3559 J-0.6675
G2 X8.3507 Y0.9566 I0.3101 J-0.6606
G2 X8.3942 Y0.9722 I0.265 J-0.672
G2 X8.4384 Y0.9849 I0.2206 J-0.6848
G2 X8.4834 Y0.9948 I0.1801 J-0.7126
G2 X8.5291 Y1.0018 I0.1361 J-0.7277
G2 X8.5752 Y1.0061 I0.0914 J-0.7432
G2 X8.6223 Y1.0075 I0.0471 J-0.7761
G2 X8.696 Y1.0027 I0 J-0.569
G2 X8.7546 Y0.9902 I-0.0483 J-0.3699
G2 X8.8099 Y0.9677 I-0.0889 J-0.2971
G2 X8.854 Y0.938 I-0.1142 J-0.2174
G2 X8.8908 Y0.8997 I-0.1428 J-0.1738
G2 X8.9169 Y0.8546 I-0.1728 J-0.1304
G2 X8.9321 Y0.8045 I-0.2187 J-0.0937
G2 X8.9378 Y0.7427 I-0.3309 J-0.0618
G1 X8.9378 Y0.7252
G2 X8.9328 Y0.7202 I-0.005 J0
G1 X8.6809 Y0.7202
G3 X8.5597 Y0.7136 I0 J-1.1175
G3 X8.4673 Y0.6969 I0.0728 J-0.6672
G3 X8.3795 Y0.666 I0.1282 J-0.5046
G3 X8.3148 Y0.6274 I0.1426 J-0.313
G3 X8.2618 Y0.5754 I0.1808 J-0.2373
G3 X8.224 Y0.5129 I0.226 J-0.1791
G3 X8.2021 Y0.4426 I0.2954 J-0.1306
G3 X8.1937 Y0.3531 I0.4712 J-0.0896
G1 X8.1937 Y0.3531
G1 X8.1937 Y0.3531
G3 X8.2003 Y0.2761 I0.451 J0
G3 X8.218 Y0.2126 I0.325 J0.0563
G3 X8.2483 Y0.1544 I0.2812 J0.1097
G3 X8.2908 Y0.1038 I0.2547 J0.1704
G3 X8.3435 Y0.0638 I0.2136 J0.2269
G3 X8.4057 Y0.0346 I0.1731 J0.2872
G3 X8.4728 Y0.0177 I0.1252 J0.3574
G3 X8.5549 Y0.0114 I0.0821 J0.5287
G3 X8.6205 Y0.0145 I0 J0.6892
G3 X8.6764 Y0.023 I-0.0488 J0.5103
G3 X8.7308 Y0.038 I-0.0914 J0.4381
G3 X8.7772 Y0.0577 I-0.1172 J0.3403
G3 X8.8203 Y0.0843 I-0.162 J0.3107
G3 X8.8603 Y0.1177 I-0.2167 J0.3003
G3 X8.8954 Y0.1563 I-0.2746 J0.2855
G3 X8.9286 Y0.2034 I-0.3765 J0.3001
G2 X8.9378 Y0.2007 I0.0043 J-0.0026
G1 X8.9378 Y0.0397
G1 X9.1075 Y0.0397
G0 Z0.125
G0 X2.2152 Y1.5493
G1 Z-0.1 F10
G1 X2.2152 Y1.3317 F30
G1 X2.3849 Y1.3317
G1 X2.3849 Y1.5493
G1 X2.2152 Y1.5493
G0 Z0.125
G0 X9.4886 Y1.5493
G1 Z-0.1 F10
G1 X9.4886 Y1.3317 F30
G1 X9.6583 Y1.3317
G1 X9.6583 Y1.5493
G1 X9.4886 Y1.5493
G0 Z0.125
G0 X5.1898 Y0.2521
G1 Z-0.1 F10
G1 X5.1898 Y0.0784 F30
G3 X5.2392 Y0.0633 I0.5402 J1.6787
G3 X5.2888 Y0.0498 I0.4257 J1.4689
G3 X5.3389 Y0.0381 I0.35 J1.38
G3 X5.3859 Y0.0289 I0.26 J1.2064
G3 X5.4337 Y0.0212 I0.2085 J1.135
G3 X5.4792 Y0.0158 I0.1443 J1.026
G3 X5.5249 Y0.0125 I0.0938 J0.9796
G3 X5.5686 Y0.0114 I0.0437 J0.8925
G3 X5.6726 Y0.0175 I0 J0.8879
G3 X5.7555 Y0.0334 I-0.0684 J0.5794
G3 X5.8342 Y0.0621 I-0.1247 J0.4644
G3 X5.8967 Y0.0993 I-0.1537 J0.3293
G3 X5.95 Y0.1484 I-0.1924 J0.2621
G3 X5.986 Y0.2022 I-0.197 J0.1708
G3 X6.0077 Y0.2633 I-0.2352 J0.1181
G3 X6.0157 Y0.3365 I-0.3298 J0.0732
G3 X6.0102 Y0.4015 I-0.3869 J0
G3 X5.9958 Y0.4536 I-0.2632 J-0.0449
G3 X5.9708 Y0.501 I-0.2203 J-0.0859
G3 X5.9362 Y0.5408 I-0.1892 J-0.129
G3 X5.894 Y0.5732 I-0.1819 J-0.1937
G3 X5.8298 Y0.6065 I-0.2556 J-0.4138
G3 X5.7612 Y0.6315 I-0.2606 J-0.6089
G3 X5.6671 Y0.6558 I-0.3391 J-1.1192
G1 X5.6056 Y0.6695
G2 X5.5336 Y0.6874 I0.3371 J1.5119
G2 X5.4846 Y0.7026 I0.1944 J0.7099
G2 X5.4373 Y0.7221 I0.1553 J0.4434
G2 X5.4113 Y0.7378 I0.0698 J0.146
G2 X5.3891 Y0.7588 I0.0817 J0.1082
G2 X5.3739 Y0.7823 I0.0872 J0.0732
G2 X5.3648 Y0.8088 I0.1051 J0.051
G2 X5.3614 Y0.8404 I0.1475 J0.0316
G1 X5.3614 Y0.8404
G1 X5.3614 Y0.8404
G2 X5.3661 Y0.8814 I0.1819 J0
G2 X5.3786 Y0.9145 I0.1294 J-0.0299
G2 X5.3996 Y0.9431 I0.1132 J-0.0611
G2 X5.4302 Y0.9677 I0.1146 J-0.1113
G2 X5.4662 Y0.985 I0.1063 J-0.1746
G2 X5.5158 Y0.9991 I0.1183 J-0.3231
G2 X5.567 Y1.0065 I0.0907 J-0.4451
G2 X5.634 Y1.0094 I0.067 J-0.7662
G2 X5.6782 Y1.0082 I0 J-0.7829
G2 X5.721 Y1.0045 I-0.0418 J-0.7403
G2 X5.7636 Y0.9984 I-0.0829 J-0.7214
G2 X5.8051 Y0.9898 I-0.122 J-0.6955
G2 X5.846 Y0.9787 I-0.1624 J-0.6822
G2 X5.8862 Y0.9652 I-0.2035 J-0.6716
G2 X5.9255 Y0.9493 I-0.2456 J-0.6631
G2 X5.9571 Y0.9345 I-0.2934 J-0.6664
G1 X5.9571 Y1.0928
G3 X5.9231 Y1.1051 I-0.2516 J-0.6466
G3 X5.8832 Y1.1171 I-0.2412 J-0.7304
G3 X5.8427 Y1.1269 I-0.2129 J-0.7853
G3 X5.7992 Y1.1353 I-0.1942 J-0.8958
G3 X5.7554 Y1.1416 I-0.1627 J-0.9763
G3 X5.7088 Y1.1462 I-0.1325 J-1.0951
G3 X5.6621 Y1.1489 I-0.0909 J-1.1634
G3 X5.6125 Y1.1498 I-0.0496 J-1.3091
G3 X5.5133 Y1.144 I0 J-0.8481
G3 X5.4356 Y1.129 I0.0631 J-0.5356
G3 X5.362 Y1.1018 I0.1138 J-0.4209
G3 X5.305 Y1.0669 I0.1367 J-0.2873
G3 X5.2576 Y1.0206 I0.171 J-0.2227
G3 X5.2245 Y0.9672 I0.1967 J-0.1589
G3 X5.205 Y0.9071 I0.2471 J-0.1134
G3 X5.1976 Y0.8326 I0.3727 J-0.0745
G1 X5.1976 Y0.8326
G1 X5.1976 Y0.8326
G3 X5.2026 Y0.7708 I0.3829 J0
G3 X5.2158 Y0.7208 I0.265 J0.0433
G3 X5.2388 Y0.6748 I0.2235 J0.0828
G3 X5.2703 Y0.636 I0.191 J0.1227
G3 X5.3095 Y0.6047 I0.1769 J0.1817
G3 X5.3663 Y0.574 I0.2263 J0.3499
G3 X5.4272 Y0.5511 I0.2222 J0.499
G3 X5.5092 Y0.5298 I0.2708 J0.8764
G1 X5.5716 Y0.5152
G2 X5.6548 Y0.4951 I-0.3697 J-1.7088
G2 X5.7096 Y0.4782 I-0.2032 J-0.7575
G2 X5.7625 Y0.4561 I-0.1576 J-0.4523
G2 X5.7894 Y0.439 I-0.064 J-0.1309
G2 X5.8122 Y0.4163 I-0.0827 J-0.1055
G2 X5.8283 Y0.3895 I-0.0995 J-0.078
G2 X5.8376 Y0.3596 I-0.1262 J-0.056
G2 X5.8412 Y0.3228 I-0.1914 J-0.0368
G2 X5.8364 Y0.2833 I-0.1674 J0
G2 X5.8234 Y0.2501 I-0.1293 J0.0314
G2 X5.8022 Y0.2214 I-0.1184 J0.0658
G2 X5.7705 Y0.1955 I-0.1288 J0.1252
G2 X5.734 Y0.1772 I-0.1141 J0.1815
G2 X5.6859 Y0.1627 I-0.1184 J0.3049
G2 X5.6361 Y0.1548 I-0.0893 J0.4061
G2 X5.5725 Y0.1518 I-0.0636 J0.6652
G2 X5.5249 Y0.1534 I0 J0.7155
G2 X5.4766 Y0.1582 I0.0494 J0.7413
G2 X5.4287 Y0.1661 I0.1004 J0.7568
G2 X5.3798 Y0.1774 I0.1589 J0.8024
G2 X5.3316 Y0.192 I0.2293 J0.8409
G2 X5.2818 Y0.2103 I0.3082 J0.9176
G2 X5.2331 Y0.2311 I0.379 J0.9523
G2 X5.1898 Y0.2521 I0.4828 J1.0513

(cut d)
G0 Z0.125
G0 X3.6593 Y0.0397
G1 Z-0.1 F10
G1 X3.6593 Y1.5493 F30
G1 X3.4896 Y1.5493
G1 X3.4896 Y0.9625
G2 X3.4803 Y0.9599 I-0.005 J0
G3 X3.4496 Y1.0062 I-0.3951 J-0.2292
G3 X3.4168 Y1.0439 I-0.2957 J-0.2234
G3 X3.3793 Y1.0766 I-0.2442 J-0.2426
G3 X3.3386 Y1.1026 I-0.194 J-0.2584
G3 X3.295 Y1.1229 I-0.1605 J-0.2882
G3 X3.2452 Y1.138 I-0.1367 J-0.3609
G3 X3.1937 Y1.1467 I-0.0973 J-0.4209
G3 X3.134 Y1.1498 I-0.0597 J-0.56
G3 X3.0384 Y1.1395 I0 J-0.4454
G3 X2.9563 Y1.1108 I0.0784 J-0.3566
G3 X2.8831 Y1.0636 I0.1622 J-0.3315
G3 X2.8147 Y0.9936 I0.2972 J-0.359
G3 X2.7619 Y0.9108 I0.3972 J-0.3114
G3 X2.7225 Y0.8121 I0.526 J-0.2672
G3 X2.7002 Y0.7076 I0.6512 J-0.1941
G3 X2.6917 Y0.5806 I0.9541 J-0.127
G3 X2.7002 Y0.4536 I0.9625 J0
G3 X2.7225 Y0.3491 I0.6736 J0.0897
G3 X2.7619 Y0.2505 I0.5654 J0.1686
G3 X2.8147 Y0.1677 I0.4499 J0.2286
G3 X2.8831 Y0.0977 I0.3657 J0.2889
G3 X2.9563 Y0.0504 I0.2354 J0.2843
G3 X3.0384 Y0.0218 I0.1605 J0.3279
G3 X3.134 Y0.0114 I0.0956 J0.435
G3 X3.1937 Y0.0145 I0 J0.575
G3 X3.2452 Y0.023 I-0.0457 J0.4378
G3 X3.2951 Y0.0378 I-0.0866 J0.3827
G3 X3.3386 Y0.0577 I-0.1158 J0.312
G3 X3.3793 Y0.0841 I-0.1596 J0.29
G3 X3.4168 Y0.1171 I-0.2128 J0.28
G3 X3.4496 Y0.155 I-0.2688 J0.2652
G3 X3.4803 Y0.2013 I-0.3691 J0.2781
G2 X3.4896 Y0.1988 I0.0043 J-0.0025
G1 X3.4896 Y0.0397
G1 X3.6593 Y0.0397
G0 Z0.125
G0 X10.9327 Y0.0397
G1 Z-0.1 F10
G1 X10.9327 Y1.5493 F30
G1 X10.763 Y1.5493
G1 X10.763 Y0.9625
G2 X10.7537 Y0.9599 I-0.005 J0
G3 X10.723 Y1.0062 I-0.3951 J-0.2292
G3 X10.6903 Y1.0439 I-0.2957 J-0.2234
G3 X10.6527 Y1.0766 I-0.2442 J-0.2426
G3 X10.612 Y1.1026 I-0.194 J-0.2584
G3 X10.5684 Y1.1229 I-0.1605 J-0.2882
G3 X10.5186 Y1.138 I-0.1367 J-0.3609
G3 X10.4671 Y1.1467 I-0.0973 J-0.4209
G3 X10.4074 Y1.1498 I-0.0597 J-0.56
G3 X10.3118 Y1.1395 I0 J-0.4454
G3 X10.2297 Y1.1108 I0.0784 J-0.3566
G3 X10.1566 Y1.0636 I0.1622 J-0.3315
G3 X10.0881 Y0.9936 I0.2972 J-0.359
G3 X10.0354 Y0.9108 I0.3972 J-0.3114
G3 X9.996 Y0.8121 I0.526 J-0.2672
G3 X9.9736 Y0.7076 I0.6512 J-0.1941
G3 X9.9652 Y0.5806 I0.9541 J-0.127
G3 X9.9736 Y0.4536 I0.9625 J0
G3 X9.996 Y0.3491 I0.6736 J0.0897
G3 X10.0354 Y0.2505 I0.5654 J0.1686
G3 X10.0881 Y0.1677 I0.4499 J0.2286
G3 X10.1566 Y0.0977 I0.3657 J0.2889
G3 X10.2297 Y0.0504 I0.2354 J0.2843
G3 X10.3118 Y0.0218 I0.1605 J0.3279
G3 X10.4074 Y0.0114 I0.0956 J0.435
G3 X10.4671 Y0.0145 I0 J0.575
G3 X10.5186 Y0.023 I-0.0457 J0.4378
G3 X10.5685 Y0.0378 I-0.0866 J0.3827
G3 X10.6121 Y0.0577 I-0.1158 J0.312
G3 X10.6527 Y0.0841 I-0.1596 J0.29
G3 X10.6903 Y0.1171 I-0.2128 J0.28
G3 X10.723 Y0.155 I-0.2688 J0.2652
G3 X10.7537 Y0.2013 I-0.3691 J0.2781
G2 X10.763 Y0.1988 I0.0043 J-0.0025
G1 X10.763 Y0.0397
G1 X10.9327 Y0.0397
G0 Z0.125
M5
M30
